(WHEEL)
(T11  D=2 CR=0 - ZMIN=-3.25 - FLAT END MILL)
G90 G94 G91.1 G40 G49 G17
G21

(2MM FLAT HOLE TOP)
M5
M9
T11
(DIAMOND OR SPIRAL)
S20000 M3
G54
M8
G0 X-7.363 Y29.777
G43 Z15 H1
Z2
G1 Z0.1 F100
G3 X-7.452 Y31.073 Z0.029 I-0.044 J0.648 F1000
X-7.363 Y29.777 Z-0.043 I0.044 J-0.648
X-7.452 Y31.073 Z-0.114 I-0.044 J0.648
X-7.363 Y29.777 Z-0.185 I0.044 J-0.648
X-7.452 Y31.073 Z-0.257 I-0.044 J0.648
X-7.363 Y29.777 Z-0.328 I0.044 J-0.648
X-7.452 Y31.073 Z-0.399 I-0.044 J0.648
X-7.363 Y29.777 Z-0.47 I0.044 J-0.648
X-7.452 Y31.073 Z-0.542 I-0.044 J0.648
X-7.363 Y29.777 Z-0.613 I0.044 J-0.648
X-7.452 Y31.073 Z-0.684 I-0.044 J0.648
X-7.363 Y29.777 Z-0.756 I0.044 J-0.648
X-7.452 Y31.073 Z-0.827 I-0.044 J0.648
X-7.363 Y29.777 Z-0.898 I0.044 J-0.648
X-7.452 Y31.073 Z-0.97 I-0.044 J0.648
X-7.363 Y29.777 Z-1.041 I0.044 J-0.648
X-7.452 Y31.073 Z-1.112 I-0.044 J0.648
X-7.363 Y29.777 Z-1.184 I0.044 J-0.648
X-7.452 Y31.073 Z-1.255 I-0.044 J0.648
X-7.363 Y29.777 Z-1.326 I0.044 J-0.648
X-7.452 Y31.073 Z-1.397 I-0.044 J0.648
X-7.363 Y29.777 Z-1.469 I0.044 J-0.648
X-7.452 Y31.073 Z-1.54 I-0.044 J0.648
X-7.363 Y29.777 Z-1.611 I0.044 J-0.648
X-7.452 Y31.073 Z-1.683 I-0.044 J0.648
X-7.363 Y29.777 Z-1.754 I0.044 J-0.648
X-7.452 Y31.073 Z-1.825 I-0.044 J0.648
X-7.363 Y29.777 Z-1.897 I0.044 J-0.648
X-7.452 Y31.073 Z-1.968 I-0.044 J0.648
X-7.363 Y29.777 Z-2.039 I0.044 J-0.648
X-7.452 Y31.073 Z-2.111 I-0.044 J0.648
X-7.363 Y29.777 Z-2.182 I0.044 J-0.648
X-7.452 Y31.073 Z-2.253 I-0.044 J0.648
X-7.363 Y29.777 Z-2.325 I0.044 J-0.648
X-7.452 Y31.073 Z-2.396 I-0.044 J0.648
X-7.363 Y29.777 Z-2.467 I0.044 J-0.648
X-7.452 Y31.073 Z-2.538 I-0.044 J0.648
X-7.363 Y29.777 Z-2.61 I0.044 J-0.648
X-7.452 Y31.073 Z-2.681 I-0.044 J0.648
X-7.363 Y29.777 Z-2.752 I0.044 J-0.648
X-7.452 Y31.073 Z-2.824 I-0.044 J0.648
X-7.363 Y29.777 Z-2.895 I0.044 J-0.648
X-7.452 Y31.073 Z-2.966 I-0.044 J0.648
X-7.363 Y29.777 Z-3.038 I0.044 J-0.648
X-7.452 Y31.073 Z-3.109 I-0.044 J0.648
X-7.363 Y29.777 Z-3.18 I0.044 J-0.648
X-7.407 Y31.075 Z-3.25 I-0.044 J0.648
Y29.775 I0 J-0.65
Y31.075 I0 J0.65
G0 Z5
X-21.508 Y39.274
Z2
G1 Z0.1 F100
G3 X-22.492 Y38.426 Z0.029 I-0.492 J-0.424 F1000
X-21.508 Y39.274 Z-0.043 I0.492 J0.424
X-22.492 Y38.426 Z-0.114 I-0.492 J-0.424
X-21.508 Y39.274 Z-0.185 I0.492 J0.424
X-22.492 Y38.426 Z-0.257 I-0.492 J-0.424
X-21.508 Y39.274 Z-0.328 I0.492 J0.424
X-22.492 Y38.426 Z-0.399 I-0.492 J-0.424
X-21.508 Y39.274 Z-0.47 I0.492 J0.424
X-22.492 Y38.426 Z-0.542 I-0.492 J-0.424
X-21.508 Y39.274 Z-0.613 I0.492 J0.424
X-22.492 Y38.426 Z-0.684 I-0.492 J-0.424
X-21.508 Y39.274 Z-0.756 I0.492 J0.424
X-22.492 Y38.426 Z-0.827 I-0.492 J-0.424
X-21.508 Y39.274 Z-0.898 I0.492 J0.424
X-22.492 Y38.426 Z-0.97 I-0.492 J-0.424
X-21.508 Y39.274 Z-1.041 I0.492 J0.424
X-22.492 Y38.426 Z-1.112 I-0.492 J-0.424
X-21.508 Y39.274 Z-1.184 I0.492 J0.424
X-22.492 Y38.426 Z-1.255 I-0.492 J-0.424
X-21.508 Y39.274 Z-1.326 I0.492 J0.424
X-22.492 Y38.426 Z-1.397 I-0.492 J-0.424
X-21.508 Y39.274 Z-1.469 I0.492 J0.424
X-22.492 Y38.426 Z-1.54 I-0.492 J-0.424
X-21.508 Y39.274 Z-1.611 I0.492 J0.424
X-22.492 Y38.426 Z-1.683 I-0.492 J-0.424
X-21.508 Y39.274 Z-1.754 I0.492 J0.424
X-22.492 Y38.426 Z-1.825 I-0.492 J-0.424
X-21.508 Y39.274 Z-1.897 I0.492 J0.424
X-22.492 Y38.426 Z-1.968 I-0.492 J-0.424
X-21.508 Y39.274 Z-2.039 I0.492 J0.424
X-22.492 Y38.426 Z-2.111 I-0.492 J-0.424
X-21.508 Y39.274 Z-2.182 I0.492 J0.424
X-22.492 Y38.426 Z-2.253 I-0.492 J-0.424
X-21.508 Y39.274 Z-2.325 I0.492 J0.424
X-22.492 Y38.426 Z-2.396 I-0.492 J-0.424
X-21.508 Y39.274 Z-2.467 I0.492 J0.424
X-22.492 Y38.426 Z-2.538 I-0.492 J-0.424
X-21.508 Y39.274 Z-2.61 I0.492 J0.424
X-22.492 Y38.426 Z-2.681 I-0.492 J-0.424
X-21.508 Y39.274 Z-2.752 I0.492 J0.424
X-22.492 Y38.426 Z-2.824 I-0.492 J-0.424
X-21.508 Y39.274 Z-2.895 I0.492 J0.424
X-22.492 Y38.426 Z-2.966 I-0.492 J-0.424
X-21.508 Y39.274 Z-3.038 I0.492 J0.424
X-22.492 Y38.426 Z-3.109 I-0.492 J-0.424
X-21.508 Y39.274 Z-3.18 I0.492 J0.424
X-22.52 Y38.46 Z-3.25 I-0.492 J-0.424
X-21.48 Y39.24 I0.52 J0.39
X-22.52 Y38.46 I-0.52 J-0.39
G0 Z5
X-37.138 Y30.779
Z2
G1 Z0.1 F100
G3 X-36.047 Y30.071 Z0.029 I0.545 J-0.354 F1000
X-37.138 Y30.779 Z-0.043 I-0.545 J0.354
X-36.047 Y30.071 Z-0.114 I0.545 J-0.354
X-37.138 Y30.779 Z-0.185 I-0.545 J0.354
X-36.047 Y30.071 Z-0.257 I0.545 J-0.354
X-37.138 Y30.779 Z-0.328 I-0.545 J0.354
X-36.047 Y30.071 Z-0.399 I0.545 J-0.354
X-37.138 Y30.779 Z-0.47 I-0.545 J0.354
X-36.047 Y30.071 Z-0.542 I0.545 J-0.354
X-37.138 Y30.779 Z-0.613 I-0.545 J0.354
X-36.047 Y30.071 Z-0.684 I0.545 J-0.354
X-37.138 Y30.779 Z-0.756 I-0.545 J0.354
X-36.047 Y30.071 Z-0.827 I0.545 J-0.354
X-37.138 Y30.779 Z-0.898 I-0.545 J0.354
X-36.047 Y30.071 Z-0.97 I0.545 J-0.354
X-37.138 Y30.779 Z-1.041 I-0.545 J0.354
X-36.047 Y30.071 Z-1.112 I0.545 J-0.354
X-37.138 Y30.779 Z-1.184 I-0.545 J0.354
X-36.047 Y30.071 Z-1.255 I0.545 J-0.354
X-37.138 Y30.779 Z-1.326 I-0.545 J0.354
X-36.047 Y30.071 Z-1.397 I0.545 J-0.354
X-37.138 Y30.779 Z-1.469 I-0.545 J0.354
X-36.047 Y30.071 Z-1.54 I0.545 J-0.354
X-37.138 Y30.779 Z-1.611 I-0.545 J0.354
X-36.047 Y30.071 Z-1.683 I0.545 J-0.354
X-37.138 Y30.779 Z-1.754 I-0.545 J0.354
X-36.047 Y30.071 Z-1.825 I0.545 J-0.354
X-37.138 Y30.779 Z-1.897 I-0.545 J0.354
X-36.047 Y30.071 Z-1.968 I0.545 J-0.354
X-37.138 Y30.779 Z-2.039 I-0.545 J0.354
X-36.047 Y30.071 Z-2.111 I0.545 J-0.354
X-37.138 Y30.779 Z-2.182 I-0.545 J0.354
X-36.047 Y30.071 Z-2.253 I0.545 J-0.354
X-37.138 Y30.779 Z-2.325 I-0.545 J0.354
X-36.047 Y30.071 Z-2.396 I0.545 J-0.354
X-37.138 Y30.779 Z-2.467 I-0.545 J0.354
X-36.047 Y30.071 Z-2.538 I0.545 J-0.354
X-37.138 Y30.779 Z-2.61 I-0.545 J0.354
X-36.047 Y30.071 Z-2.681 I0.545 J-0.354
X-37.138 Y30.779 Z-2.752 I-0.545 J0.354
X-36.047 Y30.071 Z-2.824 I0.545 J-0.354
X-37.138 Y30.779 Z-2.895 I-0.545 J0.354
X-36.047 Y30.071 Z-2.966 I0.545 J-0.354
X-37.138 Y30.779 Z-3.038 I-0.545 J0.354
X-36.047 Y30.071 Z-3.109 I0.545 J-0.354
X-37.138 Y30.779 Z-3.18 I-0.545 J0.354
X-36.072 Y30.035 Z-3.25 I0.545 J-0.354
X-37.112 Y30.815 I-0.52 J0.39
X-36.072 Y30.035 I0.52 J-0.39
G0 Z5
X-36.1 Y13.999
Z2
G1 Z0.1 F100
G3 X-37.085 Y13.151 Z0.029 I-0.492 J-0.424 F1000
X-36.1 Y13.999 Z-0.043 I0.492 J0.424
X-37.085 Y13.151 Z-0.114 I-0.492 J-0.424
X-36.1 Y13.999 Z-0.185 I0.492 J0.424
X-37.085 Y13.151 Z-0.257 I-0.492 J-0.424
X-36.1 Y13.999 Z-0.328 I0.492 J0.424
X-37.085 Y13.151 Z-0.399 I-0.492 J-0.424
X-36.1 Y13.999 Z-0.47 I0.492 J0.424
X-37.085 Y13.151 Z-0.542 I-0.492 J-0.424
X-36.1 Y13.999 Z-0.613 I0.492 J0.424
X-37.085 Y13.151 Z-0.684 I-0.492 J-0.424
X-36.1 Y13.999 Z-0.756 I0.492 J0.424
X-37.085 Y13.151 Z-0.827 I-0.492 J-0.424
X-36.1 Y13.999 Z-0.898 I0.492 J0.424
X-37.085 Y13.151 Z-0.97 I-0.492 J-0.424
X-36.1 Y13.999 Z-1.041 I0.492 J0.424
X-37.085 Y13.151 Z-1.112 I-0.492 J-0.424
X-36.1 Y13.999 Z-1.184 I0.492 J0.424
X-37.085 Y13.151 Z-1.255 I-0.492 J-0.424
X-36.1 Y13.999 Z-1.326 I0.492 J0.424
X-37.085 Y13.151 Z-1.397 I-0.492 J-0.424
X-36.1 Y13.999 Z-1.469 I0.492 J0.424
X-37.085 Y13.151 Z-1.54 I-0.492 J-0.424
X-36.1 Y13.999 Z-1.611 I0.492 J0.424
X-37.085 Y13.151 Z-1.683 I-0.492 J-0.424
X-36.1 Y13.999 Z-1.754 I0.492 J0.424
X-37.085 Y13.151 Z-1.825 I-0.492 J-0.424
X-36.1 Y13.999 Z-1.897 I0.492 J0.424
X-37.085 Y13.151 Z-1.968 I-0.492 J-0.424
X-36.1 Y13.999 Z-2.039 I0.492 J0.424
X-37.085 Y13.151 Z-2.111 I-0.492 J-0.424
X-36.1 Y13.999 Z-2.182 I0.492 J0.424
X-37.085 Y13.151 Z-2.253 I-0.492 J-0.424
X-36.1 Y13.999 Z-2.325 I0.492 J0.424
X-37.085 Y13.151 Z-2.396 I-0.492 J-0.424
X-36.1 Y13.999 Z-2.467 I0.492 J0.424
X-37.085 Y13.151 Z-2.538 I-0.492 J-0.424
X-36.1 Y13.999 Z-2.61 I0.492 J0.424
X-37.085 Y13.151 Z-2.681 I-0.492 J-0.424
X-36.1 Y13.999 Z-2.752 I0.492 J0.424
X-37.085 Y13.151 Z-2.824 I-0.492 J-0.424
X-36.1 Y13.999 Z-2.895 I0.492 J0.424
X-37.085 Y13.151 Z-2.966 I-0.492 J-0.424
X-36.1 Y13.999 Z-3.038 I0.492 J0.424
X-37.085 Y13.151 Z-3.109 I-0.492 J-0.424
X-36.1 Y13.999 Z-3.18 I0.492 J0.424
X-37.112 Y13.185 Z-3.25 I-0.492 J-0.424
X-36.072 Y13.965 I0.52 J0.39
X-37.112 Y13.185 I-0.52 J-0.39
G0 Z5
X-21.956 Y4.502
Z2
G1 Z0.1 F100
G3 X-22.044 Y5.798 Z0.029 I-0.044 J0.648 F1000
X-21.956 Y4.502 Z-0.043 I0.044 J-0.648
X-22.044 Y5.798 Z-0.114 I-0.044 J0.648
X-21.956 Y4.502 Z-0.185 I0.044 J-0.648
X-22.044 Y5.798 Z-0.257 I-0.044 J0.648
X-21.956 Y4.502 Z-0.328 I0.044 J-0.648
X-22.044 Y5.798 Z-0.399 I-0.044 J0.648
X-21.956 Y4.502 Z-0.47 I0.044 J-0.648
X-22.044 Y5.798 Z-0.542 I-0.044 J0.648
X-21.956 Y4.502 Z-0.613 I0.044 J-0.648
X-22.044 Y5.798 Z-0.684 I-0.044 J0.648
X-21.956 Y4.502 Z-0.756 I0.044 J-0.648
X-22.044 Y5.798 Z-0.827 I-0.044 J0.648
X-21.956 Y4.502 Z-0.898 I0.044 J-0.648
X-22.044 Y5.798 Z-0.97 I-0.044 J0.648
X-21.956 Y4.502 Z-1.041 I0.044 J-0.648
X-22.044 Y5.798 Z-1.112 I-0.044 J0.648
X-21.956 Y4.502 Z-1.184 I0.044 J-0.648
X-22.044 Y5.798 Z-1.255 I-0.044 J0.648
X-21.956 Y4.502 Z-1.326 I0.044 J-0.648
X-22.044 Y5.798 Z-1.397 I-0.044 J0.648
X-21.956 Y4.502 Z-1.469 I0.044 J-0.648
X-22.044 Y5.798 Z-1.54 I-0.044 J0.648
X-21.956 Y4.502 Z-1.611 I0.044 J-0.648
X-22.044 Y5.798 Z-1.683 I-0.044 J0.648
X-21.956 Y4.502 Z-1.754 I0.044 J-0.648
X-22.044 Y5.798 Z-1.825 I-0.044 J0.648
X-21.956 Y4.502 Z-1.897 I0.044 J-0.648
X-22.044 Y5.798 Z-1.968 I-0.044 J0.648
X-21.956 Y4.502 Z-2.039 I0.044 J-0.648
X-22.044 Y5.798 Z-2.111 I-0.044 J0.648
X-21.956 Y4.502 Z-2.182 I0.044 J-0.648
X-22.044 Y5.798 Z-2.253 I-0.044 J0.648
X-21.956 Y4.502 Z-2.325 I0.044 J-0.648
X-22.044 Y5.798 Z-2.396 I-0.044 J0.648
X-21.956 Y4.502 Z-2.467 I0.044 J-0.648
X-22.044 Y5.798 Z-2.538 I-0.044 J0.648
X-21.956 Y4.502 Z-2.61 I0.044 J-0.648
X-22.044 Y5.798 Z-2.681 I-0.044 J0.648
X-21.956 Y4.502 Z-2.752 I0.044 J-0.648
X-22.044 Y5.798 Z-2.824 I-0.044 J0.648
X-21.956 Y4.502 Z-2.895 I0.044 J-0.648
X-22.044 Y5.798 Z-2.966 I-0.044 J0.648
X-21.956 Y4.502 Z-3.038 I0.044 J-0.648
X-22.044 Y5.798 Z-3.109 I-0.044 J0.648
X-21.956 Y4.502 Z-3.18 I0.044 J-0.648
X-22 Y5.8 Z-3.25 I-0.044 J0.648
Y4.5 I0 J-0.65
Y5.8 I0 J0.65
G0 Z5
X-7.953 Y13.929
Z2
G1 Z0.1 F100
G3 X-6.862 Y13.221 Z0.029 I0.545 J-0.354 F1000
X-7.953 Y13.929 Z-0.043 I-0.545 J0.354
X-6.862 Y13.221 Z-0.114 I0.545 J-0.354
X-7.953 Y13.929 Z-0.185 I-0.545 J0.354
X-6.862 Y13.221 Z-0.257 I0.545 J-0.354
X-7.953 Y13.929 Z-0.328 I-0.545 J0.354
X-6.862 Y13.221 Z-0.399 I0.545 J-0.354
X-7.953 Y13.929 Z-0.47 I-0.545 J0.354
X-6.862 Y13.221 Z-0.542 I0.545 J-0.354
X-7.953 Y13.929 Z-0.613 I-0.545 J0.354
X-6.862 Y13.221 Z-0.684 I0.545 J-0.354
X-7.953 Y13.929 Z-0.756 I-0.545 J0.354
X-6.862 Y13.221 Z-0.827 I0.545 J-0.354
X-7.953 Y13.929 Z-0.898 I-0.545 J0.354
X-6.862 Y13.221 Z-0.97 I0.545 J-0.354
X-7.953 Y13.929 Z-1.041 I-0.545 J0.354
X-6.862 Y13.221 Z-1.112 I0.545 J-0.354
X-7.953 Y13.929 Z-1.184 I-0.545 J0.354
X-6.862 Y13.221 Z-1.255 I0.545 J-0.354
X-7.953 Y13.929 Z-1.326 I-0.545 J0.354
X-6.862 Y13.221 Z-1.397 I0.545 J-0.354
X-7.953 Y13.929 Z-1.469 I-0.545 J0.354
X-6.862 Y13.221 Z-1.54 I0.545 J-0.354
X-7.953 Y13.929 Z-1.611 I-0.545 J0.354
X-6.862 Y13.221 Z-1.683 I0.545 J-0.354
X-7.953 Y13.929 Z-1.754 I-0.545 J0.354
X-6.862 Y13.221 Z-1.825 I0.545 J-0.354
X-7.953 Y13.929 Z-1.897 I-0.545 J0.354
X-6.862 Y13.221 Z-1.968 I0.545 J-0.354
X-7.953 Y13.929 Z-2.039 I-0.545 J0.354
X-6.862 Y13.221 Z-2.111 I0.545 J-0.354
X-7.953 Y13.929 Z-2.182 I-0.545 J0.354
X-6.862 Y13.221 Z-2.253 I0.545 J-0.354
X-7.953 Y13.929 Z-2.325 I-0.545 J0.354
X-6.862 Y13.221 Z-2.396 I0.545 J-0.354
X-7.953 Y13.929 Z-2.467 I-0.545 J0.354
X-6.862 Y13.221 Z-2.538 I0.545 J-0.354
X-7.953 Y13.929 Z-2.61 I-0.545 J0.354
X-6.862 Y13.221 Z-2.681 I0.545 J-0.354
X-7.953 Y13.929 Z-2.752 I-0.545 J0.354
X-6.862 Y13.221 Z-2.824 I0.545 J-0.354
X-7.953 Y13.929 Z-2.895 I-0.545 J0.354
X-6.862 Y13.221 Z-2.966 I0.545 J-0.354
X-7.953 Y13.929 Z-3.038 I-0.545 J0.354
X-6.862 Y13.221 Z-3.109 I0.545 J-0.354
X-7.953 Y13.929 Z-3.18 I-0.545 J0.354
X-6.887 Y13.185 Z-3.25 I0.545 J-0.354
X-7.927 Y13.965 I-0.52 J0.39
X-6.887 Y13.185 I0.52 J-0.39
G0 Z15

M9
M30
