(WHEEL)
(T11  D=2 CR=0 - ZMIN=-4.5 - FLAT END MILL)
G90 G94 G91.1 G40 G49 G17
G21

(2MM FLAT HOLE TOP)
M5
M9
T11
(DIAMOND OR SPIRAL)
S20000 M3
G54
M8
G0 X-21.576 Y4.658
G43 Z15 H1
Z2
G1 Z0.1 F100
G3 X-22.424 Y5.642 Z0.029 I-0.424 J0.492 F1000
X-21.576 Y4.658 Z-0.043 I0.424 J-0.492
X-22.424 Y5.642 Z-0.114 I-0.424 J0.492
X-21.576 Y4.658 Z-0.185 I0.424 J-0.492
X-22.424 Y5.642 Z-0.257 I-0.424 J0.492
X-21.576 Y4.658 Z-0.328 I0.424 J-0.492
X-22.424 Y5.642 Z-0.399 I-0.424 J0.492
X-21.576 Y4.658 Z-0.47 I0.424 J-0.492
X-22.424 Y5.642 Z-0.542 I-0.424 J0.492
X-21.576 Y4.658 Z-0.613 I0.424 J-0.492
X-22.424 Y5.642 Z-0.684 I-0.424 J0.492
X-21.576 Y4.658 Z-0.756 I0.424 J-0.492
X-22.424 Y5.642 Z-0.827 I-0.424 J0.492
X-21.576 Y4.658 Z-0.898 I0.424 J-0.492
X-22.424 Y5.642 Z-0.97 I-0.424 J0.492
X-21.576 Y4.658 Z-1.041 I0.424 J-0.492
X-22.424 Y5.642 Z-1.112 I-0.424 J0.492
X-21.576 Y4.658 Z-1.184 I0.424 J-0.492
X-22.424 Y5.642 Z-1.255 I-0.424 J0.492
X-21.576 Y4.658 Z-1.326 I0.424 J-0.492
X-22.424 Y5.642 Z-1.397 I-0.424 J0.492
X-21.576 Y4.658 Z-1.469 I0.424 J-0.492
X-22.424 Y5.642 Z-1.54 I-0.424 J0.492
X-21.576 Y4.658 Z-1.611 I0.424 J-0.492
X-22.424 Y5.642 Z-1.683 I-0.424 J0.492
X-21.576 Y4.658 Z-1.754 I0.424 J-0.492
X-22.424 Y5.642 Z-1.825 I-0.424 J0.492
X-21.576 Y4.658 Z-1.897 I0.424 J-0.492
X-22.424 Y5.642 Z-1.968 I-0.424 J0.492
X-21.576 Y4.658 Z-2.039 I0.424 J-0.492
X-22.424 Y5.642 Z-2.111 I-0.424 J0.492
X-21.576 Y4.658 Z-2.182 I0.424 J-0.492
X-22.424 Y5.642 Z-2.253 I-0.424 J0.492
X-21.576 Y4.658 Z-2.325 I0.424 J-0.492
X-22.424 Y5.642 Z-2.396 I-0.424 J0.492
X-21.576 Y4.658 Z-2.467 I0.424 J-0.492
X-22.424 Y5.642 Z-2.538 I-0.424 J0.492
X-21.576 Y4.658 Z-2.61 I0.424 J-0.492
X-22.424 Y5.642 Z-2.681 I-0.424 J0.492
X-21.576 Y4.658 Z-2.752 I0.424 J-0.492
X-22.424 Y5.642 Z-2.824 I-0.424 J0.492
X-21.576 Y4.658 Z-2.895 I0.424 J-0.492
X-22.424 Y5.642 Z-2.966 I-0.424 J0.492
X-21.576 Y4.658 Z-3.038 I0.424 J-0.492
X-22.424 Y5.642 Z-3.109 I-0.424 J0.492
X-21.576 Y4.658 Z-3.18 I0.424 J-0.492
X-22.39 Y5.67 Z-3.25 I-0.424 J0.492
X-21.61 Y4.63 I0.39 J-0.52
X-22.39 Y5.67 I-0.39 J0.52
G0 Z15

(2MM FLAT HOLE THROUGH)
M8
G0 X-22.192 Y5.311
Z15
Z1
G1 Z-1.25 F100
Z-3.15
G3 X-21.808 Y4.989 Z-3.177 I0.192 J-0.161 F1000
X-22.192 Y5.311 Z-3.205 I-0.192 J0.161
X-21.808 Y4.989 Z-3.232 I0.192 J-0.161
X-22.192 Y5.311 Z-3.26 I-0.192 J0.161
X-21.808 Y4.989 Z-3.287 I0.192 J-0.161
X-22.192 Y5.311 Z-3.315 I-0.192 J0.161
X-21.808 Y4.989 Z-3.342 I0.192 J-0.161
X-22.192 Y5.311 Z-3.369 I-0.192 J0.161
X-21.808 Y4.989 Z-3.397 I0.192 J-0.161
X-22.192 Y5.311 Z-3.424 I-0.192 J0.161
X-21.808 Y4.989 Z-3.452 I0.192 J-0.161
X-22.192 Y5.311 Z-3.479 I-0.192 J0.161
X-21.808 Y4.989 Z-3.507 I0.192 J-0.161
X-22.192 Y5.311 Z-3.534 I-0.192 J0.161
X-21.808 Y4.989 Z-3.561 I0.192 J-0.161
X-22.192 Y5.311 Z-3.589 I-0.192 J0.161
X-21.808 Y4.989 Z-3.616 I0.192 J-0.161
X-22.192 Y5.311 Z-3.644 I-0.192 J0.161
X-21.808 Y4.989 Z-3.671 I0.192 J-0.161
X-22.192 Y5.311 Z-3.699 I-0.192 J0.161
X-21.808 Y4.989 Z-3.726 I0.192 J-0.161
X-22.192 Y5.311 Z-3.753 I-0.192 J0.161
X-21.808 Y4.989 Z-3.781 I0.192 J-0.161
X-22.192 Y5.311 Z-3.808 I-0.192 J0.161
X-21.808 Y4.989 Z-3.836 I0.192 J-0.161
X-22.192 Y5.311 Z-3.863 I-0.192 J0.161
X-21.808 Y4.989 Z-3.891 I0.192 J-0.161
X-22.192 Y5.311 Z-3.918 I-0.192 J0.161
X-21.808 Y4.989 Z-3.945 I0.192 J-0.161
X-22.192 Y5.311 Z-3.973 I-0.192 J0.161
X-21.808 Y4.989 Z-4 I0.192 J-0.161
X-22.192 Y5.311 Z-4.028 I-0.192 J0.161
X-21.808 Y4.989 Z-4.055 I0.192 J-0.161
X-22.192 Y5.311 Z-4.083 I-0.192 J0.161
X-21.808 Y4.989 Z-4.11 I0.192 J-0.161
X-22.192 Y5.311 Z-4.137 I-0.192 J0.161
X-21.808 Y4.989 Z-4.165 I0.192 J-0.161
X-22.192 Y5.311 Z-4.192 I-0.192 J0.161
X-21.808 Y4.989 Z-4.22 I0.192 J-0.161
X-22.192 Y5.311 Z-4.247 I-0.192 J0.161
X-21.808 Y4.989 Z-4.274 I0.192 J-0.161
X-22.192 Y5.311 Z-4.302 I-0.192 J0.161
X-21.808 Y4.989 Z-4.329 I0.192 J-0.161
X-22.192 Y5.311 Z-4.357 I-0.192 J0.161
X-21.808 Y4.989 Z-4.384 I0.192 J-0.161
X-22.192 Y5.311 Z-4.412 I-0.192 J0.161
X-21.808 Y4.989 Z-4.439 I0.192 J-0.161
X-22.192 Y5.311 Z-4.466 I-0.192 J0.161
X-21.808 Y4.989 Z-4.494 I0.192 J-0.161
X-21.75 Y5.15 Z-4.5 I-0.192 J0.161
X-22.25 I-0.25 J0
X-21.75 I0.25 J0
G0 Z15

M9
M30
