(WHEEL)
(T11  D=2 CR=0 - ZMIN=-4.5 - FLAT END MILL)
G90 G94 G91.1 G40 G49 G17
G21

(2MM FLAT HOLE THROUGH)
M5
M9
T11
(DIAMOND OR SPIRAL)
S20000 M3
G54
M8
G0 X-36.753 Y13.383
G43 Z15 H1
Z1
G1 Z-1.25 F100
Z-3.15
G3 X-36.432 Y13.767 Z-3.177 I0.161 J0.192 F1000
X-36.753 Y13.383 Z-3.205 I-0.161 J-0.192
X-36.432 Y13.767 Z-3.232 I0.161 J0.192
X-36.753 Y13.383 Z-3.26 I-0.161 J-0.192
X-36.432 Y13.767 Z-3.287 I0.161 J0.192
X-36.753 Y13.383 Z-3.315 I-0.161 J-0.192
X-36.432 Y13.767 Z-3.342 I0.161 J0.192
X-36.753 Y13.383 Z-3.369 I-0.161 J-0.192
X-36.432 Y13.767 Z-3.397 I0.161 J0.192
X-36.753 Y13.383 Z-3.424 I-0.161 J-0.192
X-36.432 Y13.767 Z-3.452 I0.161 J0.192
X-36.753 Y13.383 Z-3.479 I-0.161 J-0.192
X-36.432 Y13.767 Z-3.507 I0.161 J0.192
X-36.753 Y13.383 Z-3.534 I-0.161 J-0.192
X-36.432 Y13.767 Z-3.561 I0.161 J0.192
X-36.753 Y13.383 Z-3.589 I-0.161 J-0.192
X-36.432 Y13.767 Z-3.616 I0.161 J0.192
X-36.753 Y13.383 Z-3.644 I-0.161 J-0.192
X-36.432 Y13.767 Z-3.671 I0.161 J0.192
X-36.753 Y13.383 Z-3.699 I-0.161 J-0.192
X-36.432 Y13.767 Z-3.726 I0.161 J0.192
X-36.753 Y13.383 Z-3.753 I-0.161 J-0.192
X-36.432 Y13.767 Z-3.781 I0.161 J0.192
X-36.753 Y13.383 Z-3.808 I-0.161 J-0.192
X-36.432 Y13.767 Z-3.836 I0.161 J0.192
X-36.753 Y13.383 Z-3.863 I-0.161 J-0.192
X-36.432 Y13.767 Z-3.891 I0.161 J0.192
X-36.753 Y13.383 Z-3.918 I-0.161 J-0.192
X-36.432 Y13.767 Z-3.945 I0.161 J0.192
X-36.753 Y13.383 Z-3.973 I-0.161 J-0.192
X-36.432 Y13.767 Z-4 I0.161 J0.192
X-36.753 Y13.383 Z-4.028 I-0.161 J-0.192
X-36.432 Y13.767 Z-4.055 I0.161 J0.192
X-36.753 Y13.383 Z-4.083 I-0.161 J-0.192
X-36.432 Y13.767 Z-4.11 I0.161 J0.192
X-36.753 Y13.383 Z-4.137 I-0.161 J-0.192
X-36.432 Y13.767 Z-4.165 I0.161 J0.192
X-36.753 Y13.383 Z-4.192 I-0.161 J-0.192
X-36.432 Y13.767 Z-4.22 I0.161 J0.192
X-36.753 Y13.383 Z-4.247 I-0.161 J-0.192
X-36.432 Y13.767 Z-4.274 I0.161 J0.192
X-36.753 Y13.383 Z-4.302 I-0.161 J-0.192
X-36.432 Y13.767 Z-4.329 I0.161 J0.192
X-36.753 Y13.383 Z-4.357 I-0.161 J-0.192
X-36.432 Y13.767 Z-4.384 I0.161 J0.192
X-36.753 Y13.383 Z-4.412 I-0.161 J-0.192
X-36.432 Y13.767 Z-4.439 I0.161 J0.192
X-36.753 Y13.383 Z-4.466 I-0.161 J-0.192
X-36.432 Y13.767 Z-4.494 I0.161 J0.192
X-36.592 Y13.825 Z-4.5 I-0.161 J-0.192
Y13.325 I0 J-0.25
Y13.825 I0 J0.25
G0 Z5
X-36.753 Y30.233
Z1
G1 Z-1.25 F100
Z-3.15
G3 X-36.432 Y30.617 Z-3.177 I0.161 J0.192 F1000
X-36.753 Y30.233 Z-3.205 I-0.161 J-0.192
X-36.432 Y30.617 Z-3.232 I0.161 J0.192
X-36.753 Y30.233 Z-3.26 I-0.161 J-0.192
X-36.432 Y30.617 Z-3.287 I0.161 J0.192
X-36.753 Y30.233 Z-3.315 I-0.161 J-0.192
X-36.432 Y30.617 Z-3.342 I0.161 J0.192
X-36.753 Y30.233 Z-3.369 I-0.161 J-0.192
X-36.432 Y30.617 Z-3.397 I0.161 J0.192
X-36.753 Y30.233 Z-3.424 I-0.161 J-0.192
X-36.432 Y30.617 Z-3.452 I0.161 J0.192
X-36.753 Y30.233 Z-3.479 I-0.161 J-0.192
X-36.432 Y30.617 Z-3.507 I0.161 J0.192
X-36.753 Y30.233 Z-3.534 I-0.161 J-0.192
X-36.432 Y30.617 Z-3.561 I0.161 J0.192
X-36.753 Y30.233 Z-3.589 I-0.161 J-0.192
X-36.432 Y30.617 Z-3.616 I0.161 J0.192
X-36.753 Y30.233 Z-3.644 I-0.161 J-0.192
X-36.432 Y30.617 Z-3.671 I0.161 J0.192
X-36.753 Y30.233 Z-3.699 I-0.161 J-0.192
X-36.432 Y30.617 Z-3.726 I0.161 J0.192
X-36.753 Y30.233 Z-3.753 I-0.161 J-0.192
X-36.432 Y30.617 Z-3.781 I0.161 J0.192
X-36.753 Y30.233 Z-3.808 I-0.161 J-0.192
X-36.432 Y30.617 Z-3.836 I0.161 J0.192
X-36.753 Y30.233 Z-3.863 I-0.161 J-0.192
X-36.432 Y30.617 Z-3.891 I0.161 J0.192
X-36.753 Y30.233 Z-3.918 I-0.161 J-0.192
X-36.432 Y30.617 Z-3.945 I0.161 J0.192
X-36.753 Y30.233 Z-3.973 I-0.161 J-0.192
X-36.432 Y30.617 Z-4 I0.161 J0.192
X-36.753 Y30.233 Z-4.028 I-0.161 J-0.192
X-36.432 Y30.617 Z-4.055 I0.161 J0.192
X-36.753 Y30.233 Z-4.083 I-0.161 J-0.192
X-36.432 Y30.617 Z-4.11 I0.161 J0.192
X-36.753 Y30.233 Z-4.137 I-0.161 J-0.192
X-36.432 Y30.617 Z-4.165 I0.161 J0.192
X-36.753 Y30.233 Z-4.192 I-0.161 J-0.192
X-36.432 Y30.617 Z-4.22 I0.161 J0.192
X-36.753 Y30.233 Z-4.247 I-0.161 J-0.192
X-36.432 Y30.617 Z-4.274 I0.161 J0.192
X-36.753 Y30.233 Z-4.302 I-0.161 J-0.192
X-36.432 Y30.617 Z-4.329 I0.161 J0.192
X-36.753 Y30.233 Z-4.357 I-0.161 J-0.192
X-36.432 Y30.617 Z-4.384 I0.161 J0.192
X-36.753 Y30.233 Z-4.412 I-0.161 J-0.192
X-36.432 Y30.617 Z-4.439 I0.161 J0.192
X-36.753 Y30.233 Z-4.466 I-0.161 J-0.192
X-36.432 Y30.617 Z-4.494 I0.161 J0.192
X-36.592 Y30.675 Z-4.5 I-0.161 J-0.192
Y30.175 I0 J-0.25
Y30.675 I0 J0.25
G0 Z5
X-21.75 Y38.836
Z1
G1 Z-1.25 F100
Z-3.15
G3 X-22.25 Y38.864 Z-3.177 I-0.25 J0.014 F1000
X-21.75 Y38.836 Z-3.205 I0.25 J-0.014
X-22.25 Y38.864 Z-3.232 I-0.25 J0.014
X-21.75 Y38.836 Z-3.26 I0.25 J-0.014
X-22.25 Y38.864 Z-3.287 I-0.25 J0.014
X-21.75 Y38.836 Z-3.315 I0.25 J-0.014
X-22.25 Y38.864 Z-3.342 I-0.25 J0.014
X-21.75 Y38.836 Z-3.369 I0.25 J-0.014
X-22.25 Y38.864 Z-3.397 I-0.25 J0.014
X-21.75 Y38.836 Z-3.424 I0.25 J-0.014
X-22.25 Y38.864 Z-3.452 I-0.25 J0.014
X-21.75 Y38.836 Z-3.479 I0.25 J-0.014
X-22.25 Y38.864 Z-3.507 I-0.25 J0.014
X-21.75 Y38.836 Z-3.534 I0.25 J-0.014
X-22.25 Y38.864 Z-3.561 I-0.25 J0.014
X-21.75 Y38.836 Z-3.589 I0.25 J-0.014
X-22.25 Y38.864 Z-3.616 I-0.25 J0.014
X-21.75 Y38.836 Z-3.644 I0.25 J-0.014
X-22.25 Y38.864 Z-3.671 I-0.25 J0.014
X-21.75 Y38.836 Z-3.699 I0.25 J-0.014
X-22.25 Y38.864 Z-3.726 I-0.25 J0.014
X-21.75 Y38.836 Z-3.753 I0.25 J-0.014
X-22.25 Y38.864 Z-3.781 I-0.25 J0.014
X-21.75 Y38.836 Z-3.808 I0.25 J-0.014
X-22.25 Y38.864 Z-3.836 I-0.25 J0.014
X-21.75 Y38.836 Z-3.863 I0.25 J-0.014
X-22.25 Y38.864 Z-3.891 I-0.25 J0.014
X-21.75 Y38.836 Z-3.918 I0.25 J-0.014
X-22.25 Y38.864 Z-3.945 I-0.25 J0.014
X-21.75 Y38.836 Z-3.973 I0.25 J-0.014
X-22.25 Y38.864 Z-4 I-0.25 J0.014
X-21.75 Y38.836 Z-4.028 I0.25 J-0.014
X-22.25 Y38.864 Z-4.055 I-0.25 J0.014
X-21.75 Y38.836 Z-4.083 I0.25 J-0.014
X-22.25 Y38.864 Z-4.11 I-0.25 J0.014
X-21.75 Y38.836 Z-4.137 I0.25 J-0.014
X-22.25 Y38.864 Z-4.165 I-0.25 J0.014
X-21.75 Y38.836 Z-4.192 I0.25 J-0.014
X-22.25 Y38.864 Z-4.22 I-0.25 J0.014
X-21.75 Y38.836 Z-4.247 I0.25 J-0.014
X-22.25 Y38.864 Z-4.274 I-0.25 J0.014
X-21.75 Y38.836 Z-4.302 I0.25 J-0.014
X-22.25 Y38.864 Z-4.329 I-0.25 J0.014
X-21.75 Y38.836 Z-4.357 I0.25 J-0.014
X-22.25 Y38.864 Z-4.384 I-0.25 J0.014
X-21.75 Y38.836 Z-4.412 I0.25 J-0.014
X-22.25 Y38.864 Z-4.439 I-0.25 J0.014
X-21.75 Y38.836 Z-4.466 I0.25 J-0.014
X-22.25 Y38.864 Z-4.494 I-0.25 J0.014
X-22.2 Y38.7 Z-4.5 I0.25 J-0.014
X-21.8 Y39 I0.2 J0.15
X-22.2 Y38.7 I-0.2 J-0.15
G0 Z5
X-7.464 Y30.668
Z1
G1 Z-1.25 F100
Z-3.15
G3 X-7.351 Y30.182 Z-3.177 I0.057 J-0.243 F1000
X-7.464 Y30.668 Z-3.205 I-0.057 J0.243
X-7.351 Y30.182 Z-3.232 I0.057 J-0.243
X-7.464 Y30.668 Z-3.26 I-0.057 J0.243
X-7.351 Y30.182 Z-3.287 I0.057 J-0.243
X-7.464 Y30.668 Z-3.315 I-0.057 J0.243
X-7.351 Y30.182 Z-3.342 I0.057 J-0.243
X-7.464 Y30.668 Z-3.369 I-0.057 J0.243
X-7.351 Y30.182 Z-3.397 I0.057 J-0.243
X-7.464 Y30.668 Z-3.424 I-0.057 J0.243
X-7.351 Y30.182 Z-3.452 I0.057 J-0.243
X-7.464 Y30.668 Z-3.479 I-0.057 J0.243
X-7.351 Y30.182 Z-3.507 I0.057 J-0.243
X-7.464 Y30.668 Z-3.534 I-0.057 J0.243
X-7.351 Y30.182 Z-3.561 I0.057 J-0.243
X-7.464 Y30.668 Z-3.589 I-0.057 J0.243
X-7.351 Y30.182 Z-3.616 I0.057 J-0.243
X-7.464 Y30.668 Z-3.644 I-0.057 J0.243
X-7.351 Y30.182 Z-3.671 I0.057 J-0.243
X-7.464 Y30.668 Z-3.699 I-0.057 J0.243
X-7.351 Y30.182 Z-3.726 I0.057 J-0.243
X-7.464 Y30.668 Z-3.753 I-0.057 J0.243
X-7.351 Y30.182 Z-3.781 I0.057 J-0.243
X-7.464 Y30.668 Z-3.808 I-0.057 J0.243
X-7.351 Y30.182 Z-3.836 I0.057 J-0.243
X-7.464 Y30.668 Z-3.863 I-0.057 J0.243
X-7.351 Y30.182 Z-3.891 I0.057 J-0.243
X-7.464 Y30.668 Z-3.918 I-0.057 J0.243
X-7.351 Y30.182 Z-3.945 I0.057 J-0.243
X-7.464 Y30.668 Z-3.973 I-0.057 J0.243
X-7.351 Y30.182 Z-4 I0.057 J-0.243
X-7.464 Y30.668 Z-4.028 I-0.057 J0.243
X-7.351 Y30.182 Z-4.055 I0.057 J-0.243
X-7.464 Y30.668 Z-4.083 I-0.057 J0.243
X-7.351 Y30.182 Z-4.11 I0.057 J-0.243
X-7.464 Y30.668 Z-4.137 I-0.057 J0.243
X-7.351 Y30.182 Z-4.165 I0.057 J-0.243
X-7.464 Y30.668 Z-4.192 I-0.057 J0.243
X-7.351 Y30.182 Z-4.22 I0.057 J-0.243
X-7.464 Y30.668 Z-4.247 I-0.057 J0.243
X-7.351 Y30.182 Z-4.274 I0.057 J-0.243
X-7.464 Y30.668 Z-4.302 I-0.057 J0.243
X-7.351 Y30.182 Z-4.329 I0.057 J-0.243
X-7.464 Y30.668 Z-4.357 I-0.057 J0.243
X-7.351 Y30.182 Z-4.384 I0.057 J-0.243
X-7.464 Y30.668 Z-4.412 I-0.057 J0.243
X-7.351 Y30.182 Z-4.439 I0.057 J-0.243
X-7.464 Y30.668 Z-4.466 I-0.057 J0.243
X-7.351 Y30.182 Z-4.494 I0.057 J-0.243
X-7.207 Y30.275 Z-4.5 I-0.057 J0.243
X-7.607 Y30.575 I-0.2 J0.15
X-7.207 Y30.275 I0.2 J-0.15
G0 Z5
X-7.568 Y13.383
Z1
G1 Z-1.25 F100
Z-3.15
G3 X-7.247 Y13.767 Z-3.177 I0.161 J0.192 F1000
X-7.568 Y13.383 Z-3.205 I-0.161 J-0.192
X-7.247 Y13.767 Z-3.232 I0.161 J0.192
X-7.568 Y13.383 Z-3.26 I-0.161 J-0.192
X-7.247 Y13.767 Z-3.287 I0.161 J0.192
X-7.568 Y13.383 Z-3.315 I-0.161 J-0.192
X-7.247 Y13.767 Z-3.342 I0.161 J0.192
X-7.568 Y13.383 Z-3.369 I-0.161 J-0.192
X-7.247 Y13.767 Z-3.397 I0.161 J0.192
X-7.568 Y13.383 Z-3.424 I-0.161 J-0.192
X-7.247 Y13.767 Z-3.452 I0.161 J0.192
X-7.568 Y13.383 Z-3.479 I-0.161 J-0.192
X-7.247 Y13.767 Z-3.507 I0.161 J0.192
X-7.568 Y13.383 Z-3.534 I-0.161 J-0.192
X-7.247 Y13.767 Z-3.561 I0.161 J0.192
X-7.568 Y13.383 Z-3.589 I-0.161 J-0.192
X-7.247 Y13.767 Z-3.616 I0.161 J0.192
X-7.568 Y13.383 Z-3.644 I-0.161 J-0.192
X-7.247 Y13.767 Z-3.671 I0.161 J0.192
X-7.568 Y13.383 Z-3.699 I-0.161 J-0.192
X-7.247 Y13.767 Z-3.726 I0.161 J0.192
X-7.568 Y13.383 Z-3.753 I-0.161 J-0.192
X-7.247 Y13.767 Z-3.781 I0.161 J0.192
X-7.568 Y13.383 Z-3.808 I-0.161 J-0.192
X-7.247 Y13.767 Z-3.836 I0.161 J0.192
X-7.568 Y13.383 Z-3.863 I-0.161 J-0.192
X-7.247 Y13.767 Z-3.891 I0.161 J0.192
X-7.568 Y13.383 Z-3.918 I-0.161 J-0.192
X-7.247 Y13.767 Z-3.945 I0.161 J0.192
X-7.568 Y13.383 Z-3.973 I-0.161 J-0.192
X-7.247 Y13.767 Z-4 I0.161 J0.192
X-7.568 Y13.383 Z-4.028 I-0.161 J-0.192
X-7.247 Y13.767 Z-4.055 I0.161 J0.192
X-7.568 Y13.383 Z-4.083 I-0.161 J-0.192
X-7.247 Y13.767 Z-4.11 I0.161 J0.192
X-7.568 Y13.383 Z-4.137 I-0.161 J-0.192
X-7.247 Y13.767 Z-4.165 I0.161 J0.192
X-7.568 Y13.383 Z-4.192 I-0.161 J-0.192
X-7.247 Y13.767 Z-4.22 I0.161 J0.192
X-7.568 Y13.383 Z-4.247 I-0.161 J-0.192
X-7.247 Y13.767 Z-4.274 I0.161 J0.192
X-7.568 Y13.383 Z-4.302 I-0.161 J-0.192
X-7.247 Y13.767 Z-4.329 I0.161 J0.192
X-7.568 Y13.383 Z-4.357 I-0.161 J-0.192
X-7.247 Y13.767 Z-4.384 I0.161 J0.192
X-7.568 Y13.383 Z-4.412 I-0.161 J-0.192
X-7.247 Y13.767 Z-4.439 I0.161 J0.192
X-7.568 Y13.383 Z-4.466 I-0.161 J-0.192
X-7.247 Y13.767 Z-4.494 I0.161 J0.192
X-7.407 Y13.825 Z-4.5 I-0.161 J-0.192
Y13.325 I0 J-0.25
Y13.825 I0 J0.25
G0 Z5
X-22.161 Y4.958
Z1
G1 Z-1.25 F100
Z-3.15
G3 X-21.839 Y5.342 Z-3.177 I0.161 J0.192 F1000
X-22.161 Y4.958 Z-3.205 I-0.161 J-0.192
X-21.839 Y5.342 Z-3.232 I0.161 J0.192
X-22.161 Y4.958 Z-3.26 I-0.161 J-0.192
X-21.839 Y5.342 Z-3.287 I0.161 J0.192
X-22.161 Y4.958 Z-3.315 I-0.161 J-0.192
X-21.839 Y5.342 Z-3.342 I0.161 J0.192
X-22.161 Y4.958 Z-3.369 I-0.161 J-0.192
X-21.839 Y5.342 Z-3.397 I0.161 J0.192
X-22.161 Y4.958 Z-3.424 I-0.161 J-0.192
X-21.839 Y5.342 Z-3.452 I0.161 J0.192
X-22.161 Y4.958 Z-3.479 I-0.161 J-0.192
X-21.839 Y5.342 Z-3.507 I0.161 J0.192
X-22.161 Y4.958 Z-3.534 I-0.161 J-0.192
X-21.839 Y5.342 Z-3.561 I0.161 J0.192
X-22.161 Y4.958 Z-3.589 I-0.161 J-0.192
X-21.839 Y5.342 Z-3.616 I0.161 J0.192
X-22.161 Y4.958 Z-3.644 I-0.161 J-0.192
X-21.839 Y5.342 Z-3.671 I0.161 J0.192
X-22.161 Y4.958 Z-3.699 I-0.161 J-0.192
X-21.839 Y5.342 Z-3.726 I0.161 J0.192
X-22.161 Y4.958 Z-3.753 I-0.161 J-0.192
X-21.839 Y5.342 Z-3.781 I0.161 J0.192
X-22.161 Y4.958 Z-3.808 I-0.161 J-0.192
X-21.839 Y5.342 Z-3.836 I0.161 J0.192
X-22.161 Y4.958 Z-3.863 I-0.161 J-0.192
X-21.839 Y5.342 Z-3.891 I0.161 J0.192
X-22.161 Y4.958 Z-3.918 I-0.161 J-0.192
X-21.839 Y5.342 Z-3.945 I0.161 J0.192
X-22.161 Y4.958 Z-3.973 I-0.161 J-0.192
X-21.839 Y5.342 Z-4 I0.161 J0.192
X-22.161 Y4.958 Z-4.028 I-0.161 J-0.192
X-21.839 Y5.342 Z-4.055 I0.161 J0.192
X-22.161 Y4.958 Z-4.083 I-0.161 J-0.192
X-21.839 Y5.342 Z-4.11 I0.161 J0.192
X-22.161 Y4.958 Z-4.137 I-0.161 J-0.192
X-21.839 Y5.342 Z-4.165 I0.161 J0.192
X-22.161 Y4.958 Z-4.192 I-0.161 J-0.192
X-21.839 Y5.342 Z-4.22 I0.161 J0.192
X-22.161 Y4.958 Z-4.247 I-0.161 J-0.192
X-21.839 Y5.342 Z-4.274 I0.161 J0.192
X-22.161 Y4.958 Z-4.302 I-0.161 J-0.192
X-21.839 Y5.342 Z-4.329 I0.161 J0.192
X-22.161 Y4.958 Z-4.357 I-0.161 J-0.192
X-21.839 Y5.342 Z-4.384 I0.161 J0.192
X-22.161 Y4.958 Z-4.412 I-0.161 J-0.192
X-21.839 Y5.342 Z-4.439 I0.161 J0.192
X-22.161 Y4.958 Z-4.466 I-0.161 J-0.192
X-21.839 Y5.342 Z-4.494 I0.161 J0.192
X-22 Y5.4 Z-4.5 I-0.161 J-0.192
Y4.9 I0 J-0.25
Y5.4 I0 J0.25
G0 Z15

M9
M30
