(WHEEL)
(T11  D=2 CR=0 - ZMIN=-4.5 - FLAT END MILL)
G90 G94 G91.1 G40 G49 G17
G21

(2MM FLAT CENTER HOLE)
M5
M9
T11
(DIAMOND OR SPIRAL)
S20000 M3
G54
M8
G0 X-22.76 Y22.65
G43 Z15 H1
Z2
G1 Z0.1 F100
G3 X-21.24 Y21.35 Z-0.01 I0.76 J-0.65 F1000
X-22.76 Y22.65 Z-0.119 I-0.76 J0.65
X-21.24 Y21.35 Z-0.229 I0.76 J-0.65
X-22.76 Y22.65 Z-0.339 I-0.76 J0.65
X-21.24 Y21.35 Z-0.449 I0.76 J-0.65
X-22.76 Y22.65 Z-0.558 I-0.76 J0.65
X-21.24 Y21.35 Z-0.668 I0.76 J-0.65
X-22.76 Y22.65 Z-0.778 I-0.76 J0.65
X-21.24 Y21.35 Z-0.887 I0.76 J-0.65
X-22.76 Y22.65 Z-0.997 I-0.76 J0.65
X-21.24 Y21.35 Z-1.107 I0.76 J-0.65
X-22.76 Y22.65 Z-1.216 I-0.76 J0.65
X-21.24 Y21.35 Z-1.326 I0.76 J-0.65
X-22.76 Y22.65 Z-1.436 I-0.76 J0.65
X-21.24 Y21.35 Z-1.546 I0.76 J-0.65
X-22.76 Y22.65 Z-1.655 I-0.76 J0.65
X-21.24 Y21.35 Z-1.765 I0.76 J-0.65
X-22.76 Y22.65 Z-1.875 I-0.76 J0.65
X-21.24 Y21.35 Z-1.984 I0.76 J-0.65
X-22.76 Y22.65 Z-2.094 I-0.76 J0.65
X-21.24 Y21.35 Z-2.204 I0.76 J-0.65
X-22.76 Y22.65 Z-2.314 I-0.76 J0.65
X-21.24 Y21.35 Z-2.423 I0.76 J-0.65
X-22.76 Y22.65 Z-2.533 I-0.76 J0.65
X-21.24 Y21.35 Z-2.643 I0.76 J-0.65
X-22.76 Y22.65 Z-2.752 I-0.76 J0.65
X-21.24 Y21.35 Z-2.862 I0.76 J-0.65
X-22.76 Y22.65 Z-2.972 I-0.76 J0.65
X-21.24 Y21.35 Z-3.081 I0.76 J-0.65
X-22.76 Y22.65 Z-3.191 I-0.76 J0.65
X-21.24 Y21.35 Z-3.301 I0.76 J-0.65
X-22.76 Y22.65 Z-3.411 I-0.76 J0.65
X-21.24 Y21.35 Z-3.52 I0.76 J-0.65
X-22.76 Y22.65 Z-3.63 I-0.76 J0.65
X-21.24 Y21.35 Z-3.74 I0.76 J-0.65
X-22.76 Y22.65 Z-3.849 I-0.76 J0.65
X-21.24 Y21.35 Z-3.959 I0.76 J-0.65
X-22.76 Y22.65 Z-4.069 I-0.76 J0.65
X-21.24 Y21.35 Z-4.179 I0.76 J-0.65
X-22.76 Y22.65 Z-4.288 I-0.76 J0.65
X-21.24 Y21.35 Z-4.398 I0.76 J-0.65
X-22.6 Y22.8 Z-4.5 I-0.76 J0.65
X-21.4 Y21.2 I0.6 J-0.8
X-22.6 Y22.8 I-0.6 J0.8
G0 Z15

(2MM FLAT CENTER SLOT)
M8
G0 X-18.319 Y19.875
Z15
Z2
G1 Z0.1 F500
X-25.681 Y24.125 Z-0.136 F1000
X-18.319 Y19.875 Z-0.373
X-25.681 Y24.125 Z-0.609
X-18.319 Y19.875 Z-0.845
X-25.681 Y24.125 Z-1.082
X-18.319 Y19.875 Z-1.318
X-25.681 Y24.125 Z-1.555
X-18.319 Y19.875 Z-1.791
X-25.681 Y24.125 Z-2.027
X-18.319 Y19.875 Z-2.264
X-25.681 Y24.125 Z-2.5
X-18.319 Y19.875
G0 Z15

M9
M30
