(WHEEL)
(T11  D=2 CR=0 - ZMIN=-14.3 - FLAT END MILL)
G90 G94 G91.1 G40 G49 G17
G21

(2MM FLAT WOOD HOLES)
M5
M9
T11
(DIAMOND OR SPIRAL)
S20000 M3
G54
M8
G0 X-36.718 Y30.507
G43 Z15 H1
Z-2.3
G1 Z-4.2 F100
G3 X-36.467 Y30.343 Z-4.241 I0.126 J-0.082 F1000
X-36.718 Y30.507 Z-4.282 I-0.126 J0.082
X-36.467 Y30.343 Z-4.324 I0.126 J-0.082
X-36.718 Y30.507 Z-4.365 I-0.126 J0.082
X-36.467 Y30.343 Z-4.406 I0.126 J-0.082
X-36.718 Y30.507 Z-4.447 I-0.126 J0.082
X-36.467 Y30.343 Z-4.489 I0.126 J-0.082
X-36.718 Y30.507 Z-4.53 I-0.126 J0.082
X-36.467 Y30.343 Z-4.571 I0.126 J-0.082
X-36.718 Y30.507 Z-4.612 I-0.126 J0.082
X-36.467 Y30.343 Z-4.654 I0.126 J-0.082
X-36.718 Y30.507 Z-4.695 I-0.126 J0.082
X-36.467 Y30.343 Z-4.736 I0.126 J-0.082
X-36.718 Y30.507 Z-4.777 I-0.126 J0.082
X-36.467 Y30.343 Z-4.818 I0.126 J-0.082
X-36.718 Y30.507 Z-4.86 I-0.126 J0.082
X-36.467 Y30.343 Z-4.901 I0.126 J-0.082
X-36.718 Y30.507 Z-4.942 I-0.126 J0.082
X-36.467 Y30.343 Z-4.983 I0.126 J-0.082
X-36.718 Y30.507 Z-5.025 I-0.126 J0.082
X-36.467 Y30.343 Z-5.066 I0.126 J-0.082
X-36.718 Y30.507 Z-5.107 I-0.126 J0.082
X-36.467 Y30.343 Z-5.148 I0.126 J-0.082
X-36.718 Y30.507 Z-5.189 I-0.126 J0.082
X-36.467 Y30.343 Z-5.231 I0.126 J-0.082
X-36.718 Y30.507 Z-5.272 I-0.126 J0.082
X-36.467 Y30.343 Z-5.313 I0.126 J-0.082
X-36.718 Y30.507 Z-5.354 I-0.126 J0.082
X-36.467 Y30.343 Z-5.396 I0.126 J-0.082
X-36.718 Y30.507 Z-5.437 I-0.126 J0.082
X-36.467 Y30.343 Z-5.478 I0.126 J-0.082
X-36.718 Y30.507 Z-5.519 I-0.126 J0.082
X-36.467 Y30.343 Z-5.561 I0.126 J-0.082
X-36.718 Y30.507 Z-5.602 I-0.126 J0.082
X-36.467 Y30.343 Z-5.643 I0.126 J-0.082
X-36.718 Y30.507 Z-5.684 I-0.126 J0.082
X-36.467 Y30.343 Z-5.725 I0.126 J-0.082
X-36.718 Y30.507 Z-5.767 I-0.126 J0.082
X-36.467 Y30.343 Z-5.808 I0.126 J-0.082
X-36.718 Y30.507 Z-5.849 I-0.126 J0.082
X-36.467 Y30.343 Z-5.89 I0.126 J-0.082
X-36.718 Y30.507 Z-5.932 I-0.126 J0.082
X-36.467 Y30.343 Z-5.973 I0.126 J-0.082
X-36.718 Y30.507 Z-6.014 I-0.126 J0.082
X-36.467 Y30.343 Z-6.055 I0.126 J-0.082
X-36.718 Y30.507 Z-6.096 I-0.126 J0.082
X-36.467 Y30.343 Z-6.138 I0.126 J-0.082
X-36.718 Y30.507 Z-6.179 I-0.126 J0.082
X-36.467 Y30.343 Z-6.22 I0.126 J-0.082
X-36.718 Y30.507 Z-6.261 I-0.126 J0.082
X-36.467 Y30.343 Z-6.303 I0.126 J-0.082
X-36.718 Y30.507 Z-6.344 I-0.126 J0.082
X-36.467 Y30.343 Z-6.385 I0.126 J-0.082
X-36.718 Y30.507 Z-6.426 I-0.126 J0.082
X-36.467 Y30.343 Z-6.468 I0.126 J-0.082
X-36.718 Y30.507 Z-6.509 I-0.126 J0.082
X-36.467 Y30.343 Z-6.55 I0.126 J-0.082
X-36.718 Y30.507 Z-6.591 I-0.126 J0.082
X-36.467 Y30.343 Z-6.632 I0.126 J-0.082
X-36.718 Y30.507 Z-6.674 I-0.126 J0.082
X-36.467 Y30.343 Z-6.715 I0.126 J-0.082
X-36.718 Y30.507 Z-6.756 I-0.126 J0.082
X-36.467 Y30.343 Z-6.797 I0.126 J-0.082
X-36.718 Y30.507 Z-6.839 I-0.126 J0.082
X-36.467 Y30.343 Z-6.88 I0.126 J-0.082
X-36.718 Y30.507 Z-6.921 I-0.126 J0.082
X-36.467 Y30.343 Z-6.962 I0.126 J-0.082
X-36.718 Y30.507 Z-7.004 I-0.126 J0.082
X-36.467 Y30.343 Z-7.045 I0.126 J-0.082
X-36.718 Y30.507 Z-7.086 I-0.126 J0.082
X-36.467 Y30.343 Z-7.127 I0.126 J-0.082
X-36.718 Y30.507 Z-7.168 I-0.126 J0.082
X-36.467 Y30.343 Z-7.21 I0.126 J-0.082
X-36.718 Y30.507 Z-7.251 I-0.126 J0.082
X-36.467 Y30.343 Z-7.292 I0.126 J-0.082
X-36.718 Y30.507 Z-7.333 I-0.126 J0.082
X-36.467 Y30.343 Z-7.375 I0.126 J-0.082
X-36.718 Y30.507 Z-7.416 I-0.126 J0.082
X-36.467 Y30.343 Z-7.457 I0.126 J-0.082
X-36.718 Y30.507 Z-7.498 I-0.126 J0.082
X-36.467 Y30.343 Z-7.539 I0.126 J-0.082
X-36.718 Y30.507 Z-7.581 I-0.126 J0.082
X-36.467 Y30.343 Z-7.622 I0.126 J-0.082
X-36.718 Y30.507 Z-7.663 I-0.126 J0.082
X-36.467 Y30.343 Z-7.704 I0.126 J-0.082
X-36.718 Y30.507 Z-7.746 I-0.126 J0.082
X-36.467 Y30.343 Z-7.787 I0.126 J-0.082
X-36.718 Y30.507 Z-7.828 I-0.126 J0.082
X-36.467 Y30.343 Z-7.869 I0.126 J-0.082
X-36.718 Y30.507 Z-7.911 I-0.126 J0.082
X-36.467 Y30.343 Z-7.952 I0.126 J-0.082
X-36.718 Y30.507 Z-7.993 I-0.126 J0.082
X-36.467 Y30.343 Z-8.034 I0.126 J-0.082
X-36.718 Y30.507 Z-8.075 I-0.126 J0.082
X-36.467 Y30.343 Z-8.117 I0.126 J-0.082
X-36.718 Y30.507 Z-8.158 I-0.126 J0.082
X-36.467 Y30.343 Z-8.199 I0.126 J-0.082
X-36.718 Y30.507 Z-8.24 I-0.126 J0.082
X-36.467 Y30.343 Z-8.282 I0.126 J-0.082
X-36.718 Y30.507 Z-8.323 I-0.126 J0.082
X-36.467 Y30.343 Z-8.364 I0.126 J-0.082
X-36.718 Y30.507 Z-8.405 I-0.126 J0.082
X-36.467 Y30.343 Z-8.446 I0.126 J-0.082
X-36.718 Y30.507 Z-8.488 I-0.126 J0.082
X-36.467 Y30.343 Z-8.529 I0.126 J-0.082
X-36.718 Y30.507 Z-8.57 I-0.126 J0.082
X-36.467 Y30.343 Z-8.611 I0.126 J-0.082
X-36.718 Y30.507 Z-8.653 I-0.126 J0.082
X-36.467 Y30.343 Z-8.694 I0.126 J-0.082
X-36.718 Y30.507 Z-8.735 I-0.126 J0.082
X-36.467 Y30.343 Z-8.776 I0.126 J-0.082
X-36.718 Y30.507 Z-8.818 I-0.126 J0.082
X-36.467 Y30.343 Z-8.859 I0.126 J-0.082
X-36.718 Y30.507 Z-8.9 I-0.126 J0.082
X-36.467 Y30.343 Z-8.941 I0.126 J-0.082
X-36.718 Y30.507 Z-8.982 I-0.126 J0.082
X-36.467 Y30.343 Z-9.024 I0.126 J-0.082
X-36.718 Y30.507 Z-9.065 I-0.126 J0.082
X-36.467 Y30.343 Z-9.106 I0.126 J-0.082
X-36.718 Y30.507 Z-9.147 I-0.126 J0.082
X-36.467 Y30.343 Z-9.189 I0.126 J-0.082
X-36.718 Y30.507 Z-9.23 I-0.126 J0.082
X-36.467 Y30.343 Z-9.271 I0.126 J-0.082
X-36.718 Y30.507 Z-9.312 I-0.126 J0.082
X-36.467 Y30.343 Z-9.354 I0.126 J-0.082
X-36.718 Y30.507 Z-9.395 I-0.126 J0.082
X-36.467 Y30.343 Z-9.436 I0.126 J-0.082
X-36.718 Y30.507 Z-9.477 I-0.126 J0.082
X-36.467 Y30.343 Z-9.518 I0.126 J-0.082
X-36.718 Y30.507 Z-9.56 I-0.126 J0.082
X-36.467 Y30.343 Z-9.601 I0.126 J-0.082
X-36.718 Y30.507 Z-9.642 I-0.126 J0.082
X-36.467 Y30.343 Z-9.683 I0.126 J-0.082
X-36.718 Y30.507 Z-9.725 I-0.126 J0.082
X-36.467 Y30.343 Z-9.766 I0.126 J-0.082
X-36.718 Y30.507 Z-9.807 I-0.126 J0.082
X-36.467 Y30.343 Z-9.848 I0.126 J-0.082
X-36.718 Y30.507 Z-9.889 I-0.126 J0.082
X-36.467 Y30.343 Z-9.931 I0.126 J-0.082
X-36.718 Y30.507 Z-9.972 I-0.126 J0.082
X-36.467 Y30.343 Z-10.013 I0.126 J-0.082
X-36.718 Y30.507 Z-10.054 I-0.126 J0.082
X-36.467 Y30.343 Z-10.096 I0.126 J-0.082
X-36.718 Y30.507 Z-10.137 I-0.126 J0.082
X-36.467 Y30.343 Z-10.178 I0.126 J-0.082
X-36.718 Y30.507 Z-10.219 I-0.126 J0.082
X-36.467 Y30.343 Z-10.261 I0.126 J-0.082
X-36.718 Y30.507 Z-10.302 I-0.126 J0.082
X-36.467 Y30.343 Z-10.343 I0.126 J-0.082
X-36.718 Y30.507 Z-10.384 I-0.126 J0.082
X-36.467 Y30.343 Z-10.425 I0.126 J-0.082
X-36.718 Y30.507 Z-10.467 I-0.126 J0.082
X-36.467 Y30.343 Z-10.508 I0.126 J-0.082
X-36.718 Y30.507 Z-10.549 I-0.126 J0.082
X-36.467 Y30.343 Z-10.59 I0.126 J-0.082
X-36.718 Y30.507 Z-10.632 I-0.126 J0.082
X-36.467 Y30.343 Z-10.673 I0.126 J-0.082
X-36.718 Y30.507 Z-10.714 I-0.126 J0.082
X-36.467 Y30.343 Z-10.755 I0.126 J-0.082
X-36.718 Y30.507 Z-10.796 I-0.126 J0.082
X-36.467 Y30.343 Z-10.838 I0.126 J-0.082
X-36.718 Y30.507 Z-10.879 I-0.126 J0.082
X-36.467 Y30.343 Z-10.92 I0.126 J-0.082
X-36.718 Y30.507 Z-10.961 I-0.126 J0.082
X-36.467 Y30.343 Z-11.003 I0.126 J-0.082
X-36.718 Y30.507 Z-11.044 I-0.126 J0.082
X-36.467 Y30.343 Z-11.085 I0.126 J-0.082
X-36.718 Y30.507 Z-11.126 I-0.126 J0.082
X-36.467 Y30.343 Z-11.168 I0.126 J-0.082
X-36.718 Y30.507 Z-11.209 I-0.126 J0.082
X-36.467 Y30.343 Z-11.25 I0.126 J-0.082
X-36.718 Y30.507 Z-11.291 I-0.126 J0.082
X-36.467 Y30.343 Z-11.332 I0.126 J-0.082
X-36.718 Y30.507 Z-11.374 I-0.126 J0.082
X-36.467 Y30.343 Z-11.415 I0.126 J-0.082
X-36.718 Y30.507 Z-11.456 I-0.126 J0.082
X-36.467 Y30.343 Z-11.497 I0.126 J-0.082
X-36.718 Y30.507 Z-11.539 I-0.126 J0.082
X-36.467 Y30.343 Z-11.58 I0.126 J-0.082
X-36.718 Y30.507 Z-11.621 I-0.126 J0.082
X-36.467 Y30.343 Z-11.662 I0.126 J-0.082
X-36.718 Y30.507 Z-11.704 I-0.126 J0.082
X-36.467 Y30.343 Z-11.745 I0.126 J-0.082
X-36.718 Y30.507 Z-11.786 I-0.126 J0.082
X-36.467 Y30.343 Z-11.827 I0.126 J-0.082
X-36.718 Y30.507 Z-11.868 I-0.126 J0.082
X-36.467 Y30.343 Z-11.91 I0.126 J-0.082
X-36.718 Y30.507 Z-11.951 I-0.126 J0.082
X-36.467 Y30.343 Z-11.992 I0.126 J-0.082
X-36.718 Y30.507 Z-12.033 I-0.126 J0.082
X-36.467 Y30.343 Z-12.075 I0.126 J-0.082
X-36.718 Y30.507 Z-12.116 I-0.126 J0.082
X-36.467 Y30.343 Z-12.157 I0.126 J-0.082
X-36.718 Y30.507 Z-12.198 I-0.126 J0.082
X-36.467 Y30.343 Z-12.239 I0.126 J-0.082
X-36.718 Y30.507 Z-12.281 I-0.126 J0.082
X-36.467 Y30.343 Z-12.322 I0.126 J-0.082
X-36.718 Y30.507 Z-12.363 I-0.126 J0.082
X-36.467 Y30.343 Z-12.404 I0.126 J-0.082
X-36.718 Y30.507 Z-12.446 I-0.126 J0.082
X-36.467 Y30.343 Z-12.487 I0.126 J-0.082
X-36.718 Y30.507 Z-12.528 I-0.126 J0.082
X-36.467 Y30.343 Z-12.569 I0.126 J-0.082
X-36.718 Y30.507 Z-12.611 I-0.126 J0.082
X-36.467 Y30.343 Z-12.652 I0.126 J-0.082
X-36.718 Y30.507 Z-12.693 I-0.126 J0.082
X-36.467 Y30.343 Z-12.734 I0.126 J-0.082
X-36.718 Y30.507 Z-12.775 I-0.126 J0.082
X-36.467 Y30.343 Z-12.817 I0.126 J-0.082
X-36.718 Y30.507 Z-12.858 I-0.126 J0.082
X-36.467 Y30.343 Z-12.899 I0.126 J-0.082
X-36.718 Y30.507 Z-12.94 I-0.126 J0.082
X-36.467 Y30.343 Z-12.982 I0.126 J-0.082
X-36.718 Y30.507 Z-13.023 I-0.126 J0.082
X-36.467 Y30.343 Z-13.064 I0.126 J-0.082
X-36.718 Y30.507 Z-13.105 I-0.126 J0.082
X-36.467 Y30.343 Z-13.146 I0.126 J-0.082
X-36.718 Y30.507 Z-13.188 I-0.126 J0.082
X-36.467 Y30.343 Z-13.229 I0.126 J-0.082
X-36.718 Y30.507 Z-13.27 I-0.126 J0.082
X-36.467 Y30.343 Z-13.311 I0.126 J-0.082
X-36.718 Y30.507 Z-13.353 I-0.126 J0.082
X-36.467 Y30.343 Z-13.394 I0.126 J-0.082
X-36.718 Y30.507 Z-13.435 I-0.126 J0.082
X-36.467 Y30.343 Z-13.476 I0.126 J-0.082
X-36.718 Y30.507 Z-13.518 I-0.126 J0.082
X-36.467 Y30.343 Z-13.559 I0.126 J-0.082
X-36.718 Y30.507 Z-13.6 I-0.126 J0.082
X-36.467 Y30.343 Z-13.641 I0.126 J-0.082
X-36.718 Y30.507 Z-13.682 I-0.126 J0.082
X-36.467 Y30.343 Z-13.724 I0.126 J-0.082
X-36.718 Y30.507 Z-13.765 I-0.126 J0.082
X-36.467 Y30.343 Z-13.806 I0.126 J-0.082
X-36.718 Y30.507 Z-13.847 I-0.126 J0.082
X-36.467 Y30.343 Z-13.889 I0.126 J-0.082
X-36.718 Y30.507 Z-13.93 I-0.126 J0.082
X-36.467 Y30.343 Z-13.971 I0.126 J-0.082
X-36.718 Y30.507 Z-14.012 I-0.126 J0.082
X-36.467 Y30.343 Z-14.054 I0.126 J-0.082
X-36.718 Y30.507 Z-14.095 I-0.126 J0.082
X-36.467 Y30.343 Z-14.136 I0.126 J-0.082
X-36.718 Y30.507 Z-14.177 I-0.126 J0.082
X-36.467 Y30.343 Z-14.218 I0.126 J-0.082
X-36.718 Y30.507 Z-14.26 I-0.126 J0.082
X-36.472 Y30.335 Z-14.3 I0.126 J-0.082
X-36.712 Y30.515 I-0.12 J0.09
X-36.472 Y30.335 I0.12 J-0.09
G0 Z5
X-36.583 Y13.425
Z-2.3
G1 Z-4.2 F100
G3 X-36.602 Y13.725 Z-4.241 I-0.01 J0.15 F1000
X-36.583 Y13.425 Z-4.282 I0.01 J-0.15
X-36.602 Y13.725 Z-4.324 I-0.01 J0.15
X-36.583 Y13.425 Z-4.365 I0.01 J-0.15
X-36.602 Y13.725 Z-4.406 I-0.01 J0.15
X-36.583 Y13.425 Z-4.447 I0.01 J-0.15
X-36.602 Y13.725 Z-4.489 I-0.01 J0.15
X-36.583 Y13.425 Z-4.53 I0.01 J-0.15
X-36.602 Y13.725 Z-4.571 I-0.01 J0.15
X-36.583 Y13.425 Z-4.612 I0.01 J-0.15
X-36.602 Y13.725 Z-4.654 I-0.01 J0.15
X-36.583 Y13.425 Z-4.695 I0.01 J-0.15
X-36.602 Y13.725 Z-4.736 I-0.01 J0.15
X-36.583 Y13.425 Z-4.777 I0.01 J-0.15
X-36.602 Y13.725 Z-4.818 I-0.01 J0.15
X-36.583 Y13.425 Z-4.86 I0.01 J-0.15
X-36.602 Y13.725 Z-4.901 I-0.01 J0.15
X-36.583 Y13.425 Z-4.942 I0.01 J-0.15
X-36.602 Y13.725 Z-4.983 I-0.01 J0.15
X-36.583 Y13.425 Z-5.025 I0.01 J-0.15
X-36.602 Y13.725 Z-5.066 I-0.01 J0.15
X-36.583 Y13.425 Z-5.107 I0.01 J-0.15
X-36.602 Y13.725 Z-5.148 I-0.01 J0.15
X-36.583 Y13.425 Z-5.189 I0.01 J-0.15
X-36.602 Y13.725 Z-5.231 I-0.01 J0.15
X-36.583 Y13.425 Z-5.272 I0.01 J-0.15
X-36.602 Y13.725 Z-5.313 I-0.01 J0.15
X-36.583 Y13.425 Z-5.354 I0.01 J-0.15
X-36.602 Y13.725 Z-5.396 I-0.01 J0.15
X-36.583 Y13.425 Z-5.437 I0.01 J-0.15
X-36.602 Y13.725 Z-5.478 I-0.01 J0.15
X-36.583 Y13.425 Z-5.519 I0.01 J-0.15
X-36.602 Y13.725 Z-5.561 I-0.01 J0.15
X-36.583 Y13.425 Z-5.602 I0.01 J-0.15
X-36.602 Y13.725 Z-5.643 I-0.01 J0.15
X-36.583 Y13.425 Z-5.684 I0.01 J-0.15
X-36.602 Y13.725 Z-5.725 I-0.01 J0.15
X-36.583 Y13.425 Z-5.767 I0.01 J-0.15
X-36.602 Y13.725 Z-5.808 I-0.01 J0.15
X-36.583 Y13.425 Z-5.849 I0.01 J-0.15
X-36.602 Y13.725 Z-5.89 I-0.01 J0.15
X-36.583 Y13.425 Z-5.932 I0.01 J-0.15
X-36.602 Y13.725 Z-5.973 I-0.01 J0.15
X-36.583 Y13.425 Z-6.014 I0.01 J-0.15
X-36.602 Y13.725 Z-6.055 I-0.01 J0.15
X-36.583 Y13.425 Z-6.096 I0.01 J-0.15
X-36.602 Y13.725 Z-6.138 I-0.01 J0.15
X-36.583 Y13.425 Z-6.179 I0.01 J-0.15
X-36.602 Y13.725 Z-6.22 I-0.01 J0.15
X-36.583 Y13.425 Z-6.261 I0.01 J-0.15
X-36.602 Y13.725 Z-6.303 I-0.01 J0.15
X-36.583 Y13.425 Z-6.344 I0.01 J-0.15
X-36.602 Y13.725 Z-6.385 I-0.01 J0.15
X-36.583 Y13.425 Z-6.426 I0.01 J-0.15
X-36.602 Y13.725 Z-6.468 I-0.01 J0.15
X-36.583 Y13.425 Z-6.509 I0.01 J-0.15
X-36.602 Y13.725 Z-6.55 I-0.01 J0.15
X-36.583 Y13.425 Z-6.591 I0.01 J-0.15
X-36.602 Y13.725 Z-6.632 I-0.01 J0.15
X-36.583 Y13.425 Z-6.674 I0.01 J-0.15
X-36.602 Y13.725 Z-6.715 I-0.01 J0.15
X-36.583 Y13.425 Z-6.756 I0.01 J-0.15
X-36.602 Y13.725 Z-6.797 I-0.01 J0.15
X-36.583 Y13.425 Z-6.839 I0.01 J-0.15
X-36.602 Y13.725 Z-6.88 I-0.01 J0.15
X-36.583 Y13.425 Z-6.921 I0.01 J-0.15
X-36.602 Y13.725 Z-6.962 I-0.01 J0.15
X-36.583 Y13.425 Z-7.004 I0.01 J-0.15
X-36.602 Y13.725 Z-7.045 I-0.01 J0.15
X-36.583 Y13.425 Z-7.086 I0.01 J-0.15
X-36.602 Y13.725 Z-7.127 I-0.01 J0.15
X-36.583 Y13.425 Z-7.168 I0.01 J-0.15
X-36.602 Y13.725 Z-7.21 I-0.01 J0.15
X-36.583 Y13.425 Z-7.251 I0.01 J-0.15
X-36.602 Y13.725 Z-7.292 I-0.01 J0.15
X-36.583 Y13.425 Z-7.333 I0.01 J-0.15
X-36.602 Y13.725 Z-7.375 I-0.01 J0.15
X-36.583 Y13.425 Z-7.416 I0.01 J-0.15
X-36.602 Y13.725 Z-7.457 I-0.01 J0.15
X-36.583 Y13.425 Z-7.498 I0.01 J-0.15
X-36.602 Y13.725 Z-7.539 I-0.01 J0.15
X-36.583 Y13.425 Z-7.581 I0.01 J-0.15
X-36.602 Y13.725 Z-7.622 I-0.01 J0.15
X-36.583 Y13.425 Z-7.663 I0.01 J-0.15
X-36.602 Y13.725 Z-7.704 I-0.01 J0.15
X-36.583 Y13.425 Z-7.746 I0.01 J-0.15
X-36.602 Y13.725 Z-7.787 I-0.01 J0.15
X-36.583 Y13.425 Z-7.828 I0.01 J-0.15
X-36.602 Y13.725 Z-7.869 I-0.01 J0.15
X-36.583 Y13.425 Z-7.911 I0.01 J-0.15
X-36.602 Y13.725 Z-7.952 I-0.01 J0.15
X-36.583 Y13.425 Z-7.993 I0.01 J-0.15
X-36.602 Y13.725 Z-8.034 I-0.01 J0.15
X-36.583 Y13.425 Z-8.075 I0.01 J-0.15
X-36.602 Y13.725 Z-8.117 I-0.01 J0.15
X-36.583 Y13.425 Z-8.158 I0.01 J-0.15
X-36.602 Y13.725 Z-8.199 I-0.01 J0.15
X-36.583 Y13.425 Z-8.24 I0.01 J-0.15
X-36.602 Y13.725 Z-8.282 I-0.01 J0.15
X-36.583 Y13.425 Z-8.323 I0.01 J-0.15
X-36.602 Y13.725 Z-8.364 I-0.01 J0.15
X-36.583 Y13.425 Z-8.405 I0.01 J-0.15
X-36.602 Y13.725 Z-8.446 I-0.01 J0.15
X-36.583 Y13.425 Z-8.488 I0.01 J-0.15
X-36.602 Y13.725 Z-8.529 I-0.01 J0.15
X-36.583 Y13.425 Z-8.57 I0.01 J-0.15
X-36.602 Y13.725 Z-8.611 I-0.01 J0.15
X-36.583 Y13.425 Z-8.653 I0.01 J-0.15
X-36.602 Y13.725 Z-8.694 I-0.01 J0.15
X-36.583 Y13.425 Z-8.735 I0.01 J-0.15
X-36.602 Y13.725 Z-8.776 I-0.01 J0.15
X-36.583 Y13.425 Z-8.818 I0.01 J-0.15
X-36.602 Y13.725 Z-8.859 I-0.01 J0.15
X-36.583 Y13.425 Z-8.9 I0.01 J-0.15
X-36.602 Y13.725 Z-8.941 I-0.01 J0.15
X-36.583 Y13.425 Z-8.982 I0.01 J-0.15
X-36.602 Y13.725 Z-9.024 I-0.01 J0.15
X-36.583 Y13.425 Z-9.065 I0.01 J-0.15
X-36.602 Y13.725 Z-9.106 I-0.01 J0.15
X-36.583 Y13.425 Z-9.147 I0.01 J-0.15
X-36.602 Y13.725 Z-9.189 I-0.01 J0.15
X-36.583 Y13.425 Z-9.23 I0.01 J-0.15
X-36.602 Y13.725 Z-9.271 I-0.01 J0.15
X-36.583 Y13.425 Z-9.312 I0.01 J-0.15
X-36.602 Y13.725 Z-9.354 I-0.01 J0.15
X-36.583 Y13.425 Z-9.395 I0.01 J-0.15
X-36.602 Y13.725 Z-9.436 I-0.01 J0.15
X-36.583 Y13.425 Z-9.477 I0.01 J-0.15
X-36.602 Y13.725 Z-9.518 I-0.01 J0.15
X-36.583 Y13.425 Z-9.56 I0.01 J-0.15
X-36.602 Y13.725 Z-9.601 I-0.01 J0.15
X-36.583 Y13.425 Z-9.642 I0.01 J-0.15
X-36.602 Y13.725 Z-9.683 I-0.01 J0.15
X-36.583 Y13.425 Z-9.725 I0.01 J-0.15
X-36.602 Y13.725 Z-9.766 I-0.01 J0.15
X-36.583 Y13.425 Z-9.807 I0.01 J-0.15
X-36.602 Y13.725 Z-9.848 I-0.01 J0.15
X-36.583 Y13.425 Z-9.889 I0.01 J-0.15
X-36.602 Y13.725 Z-9.931 I-0.01 J0.15
X-36.583 Y13.425 Z-9.972 I0.01 J-0.15
X-36.602 Y13.725 Z-10.013 I-0.01 J0.15
X-36.583 Y13.425 Z-10.054 I0.01 J-0.15
X-36.602 Y13.725 Z-10.096 I-0.01 J0.15
X-36.583 Y13.425 Z-10.137 I0.01 J-0.15
X-36.602 Y13.725 Z-10.178 I-0.01 J0.15
X-36.583 Y13.425 Z-10.219 I0.01 J-0.15
X-36.602 Y13.725 Z-10.261 I-0.01 J0.15
X-36.583 Y13.425 Z-10.302 I0.01 J-0.15
X-36.602 Y13.725 Z-10.343 I-0.01 J0.15
X-36.583 Y13.425 Z-10.384 I0.01 J-0.15
X-36.602 Y13.725 Z-10.425 I-0.01 J0.15
X-36.583 Y13.425 Z-10.467 I0.01 J-0.15
X-36.602 Y13.725 Z-10.508 I-0.01 J0.15
X-36.583 Y13.425 Z-10.549 I0.01 J-0.15
X-36.602 Y13.725 Z-10.59 I-0.01 J0.15
X-36.583 Y13.425 Z-10.632 I0.01 J-0.15
X-36.602 Y13.725 Z-10.673 I-0.01 J0.15
X-36.583 Y13.425 Z-10.714 I0.01 J-0.15
X-36.602 Y13.725 Z-10.755 I-0.01 J0.15
X-36.583 Y13.425 Z-10.796 I0.01 J-0.15
X-36.602 Y13.725 Z-10.838 I-0.01 J0.15
X-36.583 Y13.425 Z-10.879 I0.01 J-0.15
X-36.602 Y13.725 Z-10.92 I-0.01 J0.15
X-36.583 Y13.425 Z-10.961 I0.01 J-0.15
X-36.602 Y13.725 Z-11.003 I-0.01 J0.15
X-36.583 Y13.425 Z-11.044 I0.01 J-0.15
X-36.602 Y13.725 Z-11.085 I-0.01 J0.15
X-36.583 Y13.425 Z-11.126 I0.01 J-0.15
X-36.602 Y13.725 Z-11.168 I-0.01 J0.15
X-36.583 Y13.425 Z-11.209 I0.01 J-0.15
X-36.602 Y13.725 Z-11.25 I-0.01 J0.15
X-36.583 Y13.425 Z-11.291 I0.01 J-0.15
X-36.602 Y13.725 Z-11.332 I-0.01 J0.15
X-36.583 Y13.425 Z-11.374 I0.01 J-0.15
X-36.602 Y13.725 Z-11.415 I-0.01 J0.15
X-36.583 Y13.425 Z-11.456 I0.01 J-0.15
X-36.602 Y13.725 Z-11.497 I-0.01 J0.15
X-36.583 Y13.425 Z-11.539 I0.01 J-0.15
X-36.602 Y13.725 Z-11.58 I-0.01 J0.15
X-36.583 Y13.425 Z-11.621 I0.01 J-0.15
X-36.602 Y13.725 Z-11.662 I-0.01 J0.15
X-36.583 Y13.425 Z-11.704 I0.01 J-0.15
X-36.602 Y13.725 Z-11.745 I-0.01 J0.15
X-36.583 Y13.425 Z-11.786 I0.01 J-0.15
X-36.602 Y13.725 Z-11.827 I-0.01 J0.15
X-36.583 Y13.425 Z-11.868 I0.01 J-0.15
X-36.602 Y13.725 Z-11.91 I-0.01 J0.15
X-36.583 Y13.425 Z-11.951 I0.01 J-0.15
X-36.602 Y13.725 Z-11.992 I-0.01 J0.15
X-36.583 Y13.425 Z-12.033 I0.01 J-0.15
X-36.602 Y13.725 Z-12.075 I-0.01 J0.15
X-36.583 Y13.425 Z-12.116 I0.01 J-0.15
X-36.602 Y13.725 Z-12.157 I-0.01 J0.15
X-36.583 Y13.425 Z-12.198 I0.01 J-0.15
X-36.602 Y13.725 Z-12.239 I-0.01 J0.15
X-36.583 Y13.425 Z-12.281 I0.01 J-0.15
X-36.602 Y13.725 Z-12.322 I-0.01 J0.15
X-36.583 Y13.425 Z-12.363 I0.01 J-0.15
X-36.602 Y13.725 Z-12.404 I-0.01 J0.15
X-36.583 Y13.425 Z-12.446 I0.01 J-0.15
X-36.602 Y13.725 Z-12.487 I-0.01 J0.15
X-36.583 Y13.425 Z-12.528 I0.01 J-0.15
X-36.602 Y13.725 Z-12.569 I-0.01 J0.15
X-36.583 Y13.425 Z-12.611 I0.01 J-0.15
X-36.602 Y13.725 Z-12.652 I-0.01 J0.15
X-36.583 Y13.425 Z-12.693 I0.01 J-0.15
X-36.602 Y13.725 Z-12.734 I-0.01 J0.15
X-36.583 Y13.425 Z-12.775 I0.01 J-0.15
X-36.602 Y13.725 Z-12.817 I-0.01 J0.15
X-36.583 Y13.425 Z-12.858 I0.01 J-0.15
X-36.602 Y13.725 Z-12.899 I-0.01 J0.15
X-36.583 Y13.425 Z-12.94 I0.01 J-0.15
X-36.602 Y13.725 Z-12.982 I-0.01 J0.15
X-36.583 Y13.425 Z-13.023 I0.01 J-0.15
X-36.602 Y13.725 Z-13.064 I-0.01 J0.15
X-36.583 Y13.425 Z-13.105 I0.01 J-0.15
X-36.602 Y13.725 Z-13.146 I-0.01 J0.15
X-36.583 Y13.425 Z-13.188 I0.01 J-0.15
X-36.602 Y13.725 Z-13.229 I-0.01 J0.15
X-36.583 Y13.425 Z-13.27 I0.01 J-0.15
X-36.602 Y13.725 Z-13.311 I-0.01 J0.15
X-36.583 Y13.425 Z-13.353 I0.01 J-0.15
X-36.602 Y13.725 Z-13.394 I-0.01 J0.15
X-36.583 Y13.425 Z-13.435 I0.01 J-0.15
X-36.602 Y13.725 Z-13.476 I-0.01 J0.15
X-36.583 Y13.425 Z-13.518 I0.01 J-0.15
X-36.602 Y13.725 Z-13.559 I-0.01 J0.15
X-36.583 Y13.425 Z-13.6 I0.01 J-0.15
X-36.602 Y13.725 Z-13.641 I-0.01 J0.15
X-36.583 Y13.425 Z-13.682 I0.01 J-0.15
X-36.602 Y13.725 Z-13.724 I-0.01 J0.15
X-36.583 Y13.425 Z-13.765 I0.01 J-0.15
X-36.602 Y13.725 Z-13.806 I-0.01 J0.15
X-36.583 Y13.425 Z-13.847 I0.01 J-0.15
X-36.602 Y13.725 Z-13.889 I-0.01 J0.15
X-36.583 Y13.425 Z-13.93 I0.01 J-0.15
X-36.602 Y13.725 Z-13.971 I-0.01 J0.15
X-36.583 Y13.425 Z-14.012 I0.01 J-0.15
X-36.602 Y13.725 Z-14.054 I-0.01 J0.15
X-36.583 Y13.425 Z-14.095 I0.01 J-0.15
X-36.602 Y13.725 Z-14.136 I-0.01 J0.15
X-36.583 Y13.425 Z-14.177 I0.01 J-0.15
X-36.602 Y13.725 Z-14.218 I-0.01 J0.15
X-36.583 Y13.425 Z-14.26 I0.01 J-0.15
X-36.592 Y13.725 Z-14.3 I-0.01 J0.15
Y13.425 I0 J-0.15
Y13.725 I0 J0.15
G0 Z5
X-21.99 Y5
Z-2.3
G1 Z-4.2 F100
G3 X-22.01 Y5.3 Z-4.241 I-0.01 J0.15 F1000
X-21.99 Y5 Z-4.282 I0.01 J-0.15
X-22.01 Y5.3 Z-4.324 I-0.01 J0.15
X-21.99 Y5 Z-4.365 I0.01 J-0.15
X-22.01 Y5.3 Z-4.406 I-0.01 J0.15
X-21.99 Y5 Z-4.447 I0.01 J-0.15
X-22.01 Y5.3 Z-4.489 I-0.01 J0.15
X-21.99 Y5 Z-4.53 I0.01 J-0.15
X-22.01 Y5.3 Z-4.571 I-0.01 J0.15
X-21.99 Y5 Z-4.612 I0.01 J-0.15
X-22.01 Y5.3 Z-4.654 I-0.01 J0.15
X-21.99 Y5 Z-4.695 I0.01 J-0.15
X-22.01 Y5.3 Z-4.736 I-0.01 J0.15
X-21.99 Y5 Z-4.777 I0.01 J-0.15
X-22.01 Y5.3 Z-4.818 I-0.01 J0.15
X-21.99 Y5 Z-4.86 I0.01 J-0.15
X-22.01 Y5.3 Z-4.901 I-0.01 J0.15
X-21.99 Y5 Z-4.942 I0.01 J-0.15
X-22.01 Y5.3 Z-4.983 I-0.01 J0.15
X-21.99 Y5 Z-5.025 I0.01 J-0.15
X-22.01 Y5.3 Z-5.066 I-0.01 J0.15
X-21.99 Y5 Z-5.107 I0.01 J-0.15
X-22.01 Y5.3 Z-5.148 I-0.01 J0.15
X-21.99 Y5 Z-5.189 I0.01 J-0.15
X-22.01 Y5.3 Z-5.231 I-0.01 J0.15
X-21.99 Y5 Z-5.272 I0.01 J-0.15
X-22.01 Y5.3 Z-5.313 I-0.01 J0.15
X-21.99 Y5 Z-5.354 I0.01 J-0.15
X-22.01 Y5.3 Z-5.396 I-0.01 J0.15
X-21.99 Y5 Z-5.437 I0.01 J-0.15
X-22.01 Y5.3 Z-5.478 I-0.01 J0.15
X-21.99 Y5 Z-5.519 I0.01 J-0.15
X-22.01 Y5.3 Z-5.561 I-0.01 J0.15
X-21.99 Y5 Z-5.602 I0.01 J-0.15
X-22.01 Y5.3 Z-5.643 I-0.01 J0.15
X-21.99 Y5 Z-5.684 I0.01 J-0.15
X-22.01 Y5.3 Z-5.725 I-0.01 J0.15
X-21.99 Y5 Z-5.767 I0.01 J-0.15
X-22.01 Y5.3 Z-5.808 I-0.01 J0.15
X-21.99 Y5 Z-5.849 I0.01 J-0.15
X-22.01 Y5.3 Z-5.89 I-0.01 J0.15
X-21.99 Y5 Z-5.932 I0.01 J-0.15
X-22.01 Y5.3 Z-5.973 I-0.01 J0.15
X-21.99 Y5 Z-6.014 I0.01 J-0.15
X-22.01 Y5.3 Z-6.055 I-0.01 J0.15
X-21.99 Y5 Z-6.096 I0.01 J-0.15
X-22.01 Y5.3 Z-6.138 I-0.01 J0.15
X-21.99 Y5 Z-6.179 I0.01 J-0.15
X-22.01 Y5.3 Z-6.22 I-0.01 J0.15
X-21.99 Y5 Z-6.261 I0.01 J-0.15
X-22.01 Y5.3 Z-6.303 I-0.01 J0.15
X-21.99 Y5 Z-6.344 I0.01 J-0.15
X-22.01 Y5.3 Z-6.385 I-0.01 J0.15
X-21.99 Y5 Z-6.426 I0.01 J-0.15
X-22.01 Y5.3 Z-6.468 I-0.01 J0.15
X-21.99 Y5 Z-6.509 I0.01 J-0.15
X-22.01 Y5.3 Z-6.55 I-0.01 J0.15
X-21.99 Y5 Z-6.591 I0.01 J-0.15
X-22.01 Y5.3 Z-6.632 I-0.01 J0.15
X-21.99 Y5 Z-6.674 I0.01 J-0.15
X-22.01 Y5.3 Z-6.715 I-0.01 J0.15
X-21.99 Y5 Z-6.756 I0.01 J-0.15
X-22.01 Y5.3 Z-6.797 I-0.01 J0.15
X-21.99 Y5 Z-6.839 I0.01 J-0.15
X-22.01 Y5.3 Z-6.88 I-0.01 J0.15
X-21.99 Y5 Z-6.921 I0.01 J-0.15
X-22.01 Y5.3 Z-6.962 I-0.01 J0.15
X-21.99 Y5 Z-7.004 I0.01 J-0.15
X-22.01 Y5.3 Z-7.045 I-0.01 J0.15
X-21.99 Y5 Z-7.086 I0.01 J-0.15
X-22.01 Y5.3 Z-7.127 I-0.01 J0.15
X-21.99 Y5 Z-7.168 I0.01 J-0.15
X-22.01 Y5.3 Z-7.21 I-0.01 J0.15
X-21.99 Y5 Z-7.251 I0.01 J-0.15
X-22.01 Y5.3 Z-7.292 I-0.01 J0.15
X-21.99 Y5 Z-7.333 I0.01 J-0.15
X-22.01 Y5.3 Z-7.375 I-0.01 J0.15
X-21.99 Y5 Z-7.416 I0.01 J-0.15
X-22.01 Y5.3 Z-7.457 I-0.01 J0.15
X-21.99 Y5 Z-7.498 I0.01 J-0.15
X-22.01 Y5.3 Z-7.539 I-0.01 J0.15
X-21.99 Y5 Z-7.581 I0.01 J-0.15
X-22.01 Y5.3 Z-7.622 I-0.01 J0.15
X-21.99 Y5 Z-7.663 I0.01 J-0.15
X-22.01 Y5.3 Z-7.704 I-0.01 J0.15
X-21.99 Y5 Z-7.746 I0.01 J-0.15
X-22.01 Y5.3 Z-7.787 I-0.01 J0.15
X-21.99 Y5 Z-7.828 I0.01 J-0.15
X-22.01 Y5.3 Z-7.869 I-0.01 J0.15
X-21.99 Y5 Z-7.911 I0.01 J-0.15
X-22.01 Y5.3 Z-7.952 I-0.01 J0.15
X-21.99 Y5 Z-7.993 I0.01 J-0.15
X-22.01 Y5.3 Z-8.034 I-0.01 J0.15
X-21.99 Y5 Z-8.075 I0.01 J-0.15
X-22.01 Y5.3 Z-8.117 I-0.01 J0.15
X-21.99 Y5 Z-8.158 I0.01 J-0.15
X-22.01 Y5.3 Z-8.199 I-0.01 J0.15
X-21.99 Y5 Z-8.24 I0.01 J-0.15
X-22.01 Y5.3 Z-8.282 I-0.01 J0.15
X-21.99 Y5 Z-8.323 I0.01 J-0.15
X-22.01 Y5.3 Z-8.364 I-0.01 J0.15
X-21.99 Y5 Z-8.405 I0.01 J-0.15
X-22.01 Y5.3 Z-8.446 I-0.01 J0.15
X-21.99 Y5 Z-8.488 I0.01 J-0.15
X-22.01 Y5.3 Z-8.529 I-0.01 J0.15
X-21.99 Y5 Z-8.57 I0.01 J-0.15
X-22.01 Y5.3 Z-8.611 I-0.01 J0.15
X-21.99 Y5 Z-8.653 I0.01 J-0.15
X-22.01 Y5.3 Z-8.694 I-0.01 J0.15
X-21.99 Y5 Z-8.735 I0.01 J-0.15
X-22.01 Y5.3 Z-8.776 I-0.01 J0.15
X-21.99 Y5 Z-8.818 I0.01 J-0.15
X-22.01 Y5.3 Z-8.859 I-0.01 J0.15
X-21.99 Y5 Z-8.9 I0.01 J-0.15
X-22.01 Y5.3 Z-8.941 I-0.01 J0.15
X-21.99 Y5 Z-8.982 I0.01 J-0.15
X-22.01 Y5.3 Z-9.024 I-0.01 J0.15
X-21.99 Y5 Z-9.065 I0.01 J-0.15
X-22.01 Y5.3 Z-9.106 I-0.01 J0.15
X-21.99 Y5 Z-9.147 I0.01 J-0.15
X-22.01 Y5.3 Z-9.189 I-0.01 J0.15
X-21.99 Y5 Z-9.23 I0.01 J-0.15
X-22.01 Y5.3 Z-9.271 I-0.01 J0.15
X-21.99 Y5 Z-9.312 I0.01 J-0.15
X-22.01 Y5.3 Z-9.354 I-0.01 J0.15
X-21.99 Y5 Z-9.395 I0.01 J-0.15
X-22.01 Y5.3 Z-9.436 I-0.01 J0.15
X-21.99 Y5 Z-9.477 I0.01 J-0.15
X-22.01 Y5.3 Z-9.518 I-0.01 J0.15
X-21.99 Y5 Z-9.56 I0.01 J-0.15
X-22.01 Y5.3 Z-9.601 I-0.01 J0.15
X-21.99 Y5 Z-9.642 I0.01 J-0.15
X-22.01 Y5.3 Z-9.683 I-0.01 J0.15
X-21.99 Y5 Z-9.725 I0.01 J-0.15
X-22.01 Y5.3 Z-9.766 I-0.01 J0.15
X-21.99 Y5 Z-9.807 I0.01 J-0.15
X-22.01 Y5.3 Z-9.848 I-0.01 J0.15
X-21.99 Y5 Z-9.889 I0.01 J-0.15
X-22.01 Y5.3 Z-9.931 I-0.01 J0.15
X-21.99 Y5 Z-9.972 I0.01 J-0.15
X-22.01 Y5.3 Z-10.013 I-0.01 J0.15
X-21.99 Y5 Z-10.054 I0.01 J-0.15
X-22.01 Y5.3 Z-10.096 I-0.01 J0.15
X-21.99 Y5 Z-10.137 I0.01 J-0.15
X-22.01 Y5.3 Z-10.178 I-0.01 J0.15
X-21.99 Y5 Z-10.219 I0.01 J-0.15
X-22.01 Y5.3 Z-10.261 I-0.01 J0.15
X-21.99 Y5 Z-10.302 I0.01 J-0.15
X-22.01 Y5.3 Z-10.343 I-0.01 J0.15
X-21.99 Y5 Z-10.384 I0.01 J-0.15
X-22.01 Y5.3 Z-10.425 I-0.01 J0.15
X-21.99 Y5 Z-10.467 I0.01 J-0.15
X-22.01 Y5.3 Z-10.508 I-0.01 J0.15
X-21.99 Y5 Z-10.549 I0.01 J-0.15
X-22.01 Y5.3 Z-10.59 I-0.01 J0.15
X-21.99 Y5 Z-10.632 I0.01 J-0.15
X-22.01 Y5.3 Z-10.673 I-0.01 J0.15
X-21.99 Y5 Z-10.714 I0.01 J-0.15
X-22.01 Y5.3 Z-10.755 I-0.01 J0.15
X-21.99 Y5 Z-10.796 I0.01 J-0.15
X-22.01 Y5.3 Z-10.838 I-0.01 J0.15
X-21.99 Y5 Z-10.879 I0.01 J-0.15
X-22.01 Y5.3 Z-10.92 I-0.01 J0.15
X-21.99 Y5 Z-10.961 I0.01 J-0.15
X-22.01 Y5.3 Z-11.003 I-0.01 J0.15
X-21.99 Y5 Z-11.044 I0.01 J-0.15
X-22.01 Y5.3 Z-11.085 I-0.01 J0.15
X-21.99 Y5 Z-11.126 I0.01 J-0.15
X-22.01 Y5.3 Z-11.168 I-0.01 J0.15
X-21.99 Y5 Z-11.209 I0.01 J-0.15
X-22.01 Y5.3 Z-11.25 I-0.01 J0.15
X-21.99 Y5 Z-11.291 I0.01 J-0.15
X-22.01 Y5.3 Z-11.332 I-0.01 J0.15
X-21.99 Y5 Z-11.374 I0.01 J-0.15
X-22.01 Y5.3 Z-11.415 I-0.01 J0.15
X-21.99 Y5 Z-11.456 I0.01 J-0.15
X-22.01 Y5.3 Z-11.497 I-0.01 J0.15
X-21.99 Y5 Z-11.539 I0.01 J-0.15
X-22.01 Y5.3 Z-11.58 I-0.01 J0.15
X-21.99 Y5 Z-11.621 I0.01 J-0.15
X-22.01 Y5.3 Z-11.662 I-0.01 J0.15
X-21.99 Y5 Z-11.704 I0.01 J-0.15
X-22.01 Y5.3 Z-11.745 I-0.01 J0.15
X-21.99 Y5 Z-11.786 I0.01 J-0.15
X-22.01 Y5.3 Z-11.827 I-0.01 J0.15
X-21.99 Y5 Z-11.868 I0.01 J-0.15
X-22.01 Y5.3 Z-11.91 I-0.01 J0.15
X-21.99 Y5 Z-11.951 I0.01 J-0.15
X-22.01 Y5.3 Z-11.992 I-0.01 J0.15
X-21.99 Y5 Z-12.033 I0.01 J-0.15
X-22.01 Y5.3 Z-12.075 I-0.01 J0.15
X-21.99 Y5 Z-12.116 I0.01 J-0.15
X-22.01 Y5.3 Z-12.157 I-0.01 J0.15
X-21.99 Y5 Z-12.198 I0.01 J-0.15
X-22.01 Y5.3 Z-12.239 I-0.01 J0.15
X-21.99 Y5 Z-12.281 I0.01 J-0.15
X-22.01 Y5.3 Z-12.322 I-0.01 J0.15
X-21.99 Y5 Z-12.363 I0.01 J-0.15
X-22.01 Y5.3 Z-12.404 I-0.01 J0.15
X-21.99 Y5 Z-12.446 I0.01 J-0.15
X-22.01 Y5.3 Z-12.487 I-0.01 J0.15
X-21.99 Y5 Z-12.528 I0.01 J-0.15
X-22.01 Y5.3 Z-12.569 I-0.01 J0.15
X-21.99 Y5 Z-12.611 I0.01 J-0.15
X-22.01 Y5.3 Z-12.652 I-0.01 J0.15
X-21.99 Y5 Z-12.693 I0.01 J-0.15
X-22.01 Y5.3 Z-12.734 I-0.01 J0.15
X-21.99 Y5 Z-12.775 I0.01 J-0.15
X-22.01 Y5.3 Z-12.817 I-0.01 J0.15
X-21.99 Y5 Z-12.858 I0.01 J-0.15
X-22.01 Y5.3 Z-12.899 I-0.01 J0.15
X-21.99 Y5 Z-12.94 I0.01 J-0.15
X-22.01 Y5.3 Z-12.982 I-0.01 J0.15
X-21.99 Y5 Z-13.023 I0.01 J-0.15
X-22.01 Y5.3 Z-13.064 I-0.01 J0.15
X-21.99 Y5 Z-13.105 I0.01 J-0.15
X-22.01 Y5.3 Z-13.146 I-0.01 J0.15
X-21.99 Y5 Z-13.188 I0.01 J-0.15
X-22.01 Y5.3 Z-13.229 I-0.01 J0.15
X-21.99 Y5 Z-13.27 I0.01 J-0.15
X-22.01 Y5.3 Z-13.311 I-0.01 J0.15
X-21.99 Y5 Z-13.353 I0.01 J-0.15
X-22.01 Y5.3 Z-13.394 I-0.01 J0.15
X-21.99 Y5 Z-13.435 I0.01 J-0.15
X-22.01 Y5.3 Z-13.476 I-0.01 J0.15
X-21.99 Y5 Z-13.518 I0.01 J-0.15
X-22.01 Y5.3 Z-13.559 I-0.01 J0.15
X-21.99 Y5 Z-13.6 I0.01 J-0.15
X-22.01 Y5.3 Z-13.641 I-0.01 J0.15
X-21.99 Y5 Z-13.682 I0.01 J-0.15
X-22.01 Y5.3 Z-13.724 I-0.01 J0.15
X-21.99 Y5 Z-13.765 I0.01 J-0.15
X-22.01 Y5.3 Z-13.806 I-0.01 J0.15
X-21.99 Y5 Z-13.847 I0.01 J-0.15
X-22.01 Y5.3 Z-13.889 I-0.01 J0.15
X-21.99 Y5 Z-13.93 I0.01 J-0.15
X-22.01 Y5.3 Z-13.971 I-0.01 J0.15
X-21.99 Y5 Z-14.012 I0.01 J-0.15
X-22.01 Y5.3 Z-14.054 I-0.01 J0.15
X-21.99 Y5 Z-14.095 I0.01 J-0.15
X-22.01 Y5.3 Z-14.136 I-0.01 J0.15
X-21.99 Y5 Z-14.177 I0.01 J-0.15
X-22.01 Y5.3 Z-14.218 I-0.01 J0.15
X-21.99 Y5 Z-14.26 I0.01 J-0.15
X-22 Y5.3 Z-14.3 I-0.01 J0.15
Y5 I0 J-0.15
Y5.3 I0 J0.15
G0 Z5
X-7.533 Y13.657
Z-2.3
G1 Z-4.2 F100
G3 X-7.282 Y13.493 Z-4.241 I0.126 J-0.082 F1000
X-7.533 Y13.657 Z-4.282 I-0.126 J0.082
X-7.282 Y13.493 Z-4.324 I0.126 J-0.082
X-7.533 Y13.657 Z-4.365 I-0.126 J0.082
X-7.282 Y13.493 Z-4.406 I0.126 J-0.082
X-7.533 Y13.657 Z-4.447 I-0.126 J0.082
X-7.282 Y13.493 Z-4.489 I0.126 J-0.082
X-7.533 Y13.657 Z-4.53 I-0.126 J0.082
X-7.282 Y13.493 Z-4.571 I0.126 J-0.082
X-7.533 Y13.657 Z-4.612 I-0.126 J0.082
X-7.282 Y13.493 Z-4.654 I0.126 J-0.082
X-7.533 Y13.657 Z-4.695 I-0.126 J0.082
X-7.282 Y13.493 Z-4.736 I0.126 J-0.082
X-7.533 Y13.657 Z-4.777 I-0.126 J0.082
X-7.282 Y13.493 Z-4.818 I0.126 J-0.082
X-7.533 Y13.657 Z-4.86 I-0.126 J0.082
X-7.282 Y13.493 Z-4.901 I0.126 J-0.082
X-7.533 Y13.657 Z-4.942 I-0.126 J0.082
X-7.282 Y13.493 Z-4.983 I0.126 J-0.082
X-7.533 Y13.657 Z-5.025 I-0.126 J0.082
X-7.282 Y13.493 Z-5.066 I0.126 J-0.082
X-7.533 Y13.657 Z-5.107 I-0.126 J0.082
X-7.282 Y13.493 Z-5.148 I0.126 J-0.082
X-7.533 Y13.657 Z-5.189 I-0.126 J0.082
X-7.282 Y13.493 Z-5.231 I0.126 J-0.082
X-7.533 Y13.657 Z-5.272 I-0.126 J0.082
X-7.282 Y13.493 Z-5.313 I0.126 J-0.082
X-7.533 Y13.657 Z-5.354 I-0.126 J0.082
X-7.282 Y13.493 Z-5.396 I0.126 J-0.082
X-7.533 Y13.657 Z-5.437 I-0.126 J0.082
X-7.282 Y13.493 Z-5.478 I0.126 J-0.082
X-7.533 Y13.657 Z-5.519 I-0.126 J0.082
X-7.282 Y13.493 Z-5.561 I0.126 J-0.082
X-7.533 Y13.657 Z-5.602 I-0.126 J0.082
X-7.282 Y13.493 Z-5.643 I0.126 J-0.082
X-7.533 Y13.657 Z-5.684 I-0.126 J0.082
X-7.282 Y13.493 Z-5.725 I0.126 J-0.082
X-7.533 Y13.657 Z-5.767 I-0.126 J0.082
X-7.282 Y13.493 Z-5.808 I0.126 J-0.082
X-7.533 Y13.657 Z-5.849 I-0.126 J0.082
X-7.282 Y13.493 Z-5.89 I0.126 J-0.082
X-7.533 Y13.657 Z-5.932 I-0.126 J0.082
X-7.282 Y13.493 Z-5.973 I0.126 J-0.082
X-7.533 Y13.657 Z-6.014 I-0.126 J0.082
X-7.282 Y13.493 Z-6.055 I0.126 J-0.082
X-7.533 Y13.657 Z-6.096 I-0.126 J0.082
X-7.282 Y13.493 Z-6.138 I0.126 J-0.082
X-7.533 Y13.657 Z-6.179 I-0.126 J0.082
X-7.282 Y13.493 Z-6.22 I0.126 J-0.082
X-7.533 Y13.657 Z-6.261 I-0.126 J0.082
X-7.282 Y13.493 Z-6.303 I0.126 J-0.082
X-7.533 Y13.657 Z-6.344 I-0.126 J0.082
X-7.282 Y13.493 Z-6.385 I0.126 J-0.082
X-7.533 Y13.657 Z-6.426 I-0.126 J0.082
X-7.282 Y13.493 Z-6.468 I0.126 J-0.082
X-7.533 Y13.657 Z-6.509 I-0.126 J0.082
X-7.282 Y13.493 Z-6.55 I0.126 J-0.082
X-7.533 Y13.657 Z-6.591 I-0.126 J0.082
X-7.282 Y13.493 Z-6.632 I0.126 J-0.082
X-7.533 Y13.657 Z-6.674 I-0.126 J0.082
X-7.282 Y13.493 Z-6.715 I0.126 J-0.082
X-7.533 Y13.657 Z-6.756 I-0.126 J0.082
X-7.282 Y13.493 Z-6.797 I0.126 J-0.082
X-7.533 Y13.657 Z-6.839 I-0.126 J0.082
X-7.282 Y13.493 Z-6.88 I0.126 J-0.082
X-7.533 Y13.657 Z-6.921 I-0.126 J0.082
X-7.282 Y13.493 Z-6.962 I0.126 J-0.082
X-7.533 Y13.657 Z-7.004 I-0.126 J0.082
X-7.282 Y13.493 Z-7.045 I0.126 J-0.082
X-7.533 Y13.657 Z-7.086 I-0.126 J0.082
X-7.282 Y13.493 Z-7.127 I0.126 J-0.082
X-7.533 Y13.657 Z-7.168 I-0.126 J0.082
X-7.282 Y13.493 Z-7.21 I0.126 J-0.082
X-7.533 Y13.657 Z-7.251 I-0.126 J0.082
X-7.282 Y13.493 Z-7.292 I0.126 J-0.082
X-7.533 Y13.657 Z-7.333 I-0.126 J0.082
X-7.282 Y13.493 Z-7.375 I0.126 J-0.082
X-7.533 Y13.657 Z-7.416 I-0.126 J0.082
X-7.282 Y13.493 Z-7.457 I0.126 J-0.082
X-7.533 Y13.657 Z-7.498 I-0.126 J0.082
X-7.282 Y13.493 Z-7.539 I0.126 J-0.082
X-7.533 Y13.657 Z-7.581 I-0.126 J0.082
X-7.282 Y13.493 Z-7.622 I0.126 J-0.082
X-7.533 Y13.657 Z-7.663 I-0.126 J0.082
X-7.282 Y13.493 Z-7.704 I0.126 J-0.082
X-7.533 Y13.657 Z-7.746 I-0.126 J0.082
X-7.282 Y13.493 Z-7.787 I0.126 J-0.082
X-7.533 Y13.657 Z-7.828 I-0.126 J0.082
X-7.282 Y13.493 Z-7.869 I0.126 J-0.082
X-7.533 Y13.657 Z-7.911 I-0.126 J0.082
X-7.282 Y13.493 Z-7.952 I0.126 J-0.082
X-7.533 Y13.657 Z-7.993 I-0.126 J0.082
X-7.282 Y13.493 Z-8.034 I0.126 J-0.082
X-7.533 Y13.657 Z-8.075 I-0.126 J0.082
X-7.282 Y13.493 Z-8.117 I0.126 J-0.082
X-7.533 Y13.657 Z-8.158 I-0.126 J0.082
X-7.282 Y13.493 Z-8.199 I0.126 J-0.082
X-7.533 Y13.657 Z-8.24 I-0.126 J0.082
X-7.282 Y13.493 Z-8.282 I0.126 J-0.082
X-7.533 Y13.657 Z-8.323 I-0.126 J0.082
X-7.282 Y13.493 Z-8.364 I0.126 J-0.082
X-7.533 Y13.657 Z-8.405 I-0.126 J0.082
X-7.282 Y13.493 Z-8.446 I0.126 J-0.082
X-7.533 Y13.657 Z-8.488 I-0.126 J0.082
X-7.282 Y13.493 Z-8.529 I0.126 J-0.082
X-7.533 Y13.657 Z-8.57 I-0.126 J0.082
X-7.282 Y13.493 Z-8.611 I0.126 J-0.082
X-7.533 Y13.657 Z-8.653 I-0.126 J0.082
X-7.282 Y13.493 Z-8.694 I0.126 J-0.082
X-7.533 Y13.657 Z-8.735 I-0.126 J0.082
X-7.282 Y13.493 Z-8.776 I0.126 J-0.082
X-7.533 Y13.657 Z-8.818 I-0.126 J0.082
X-7.282 Y13.493 Z-8.859 I0.126 J-0.082
X-7.533 Y13.657 Z-8.9 I-0.126 J0.082
X-7.282 Y13.493 Z-8.941 I0.126 J-0.082
X-7.533 Y13.657 Z-8.982 I-0.126 J0.082
X-7.282 Y13.493 Z-9.024 I0.126 J-0.082
X-7.533 Y13.657 Z-9.065 I-0.126 J0.082
X-7.282 Y13.493 Z-9.106 I0.126 J-0.082
X-7.533 Y13.657 Z-9.147 I-0.126 J0.082
X-7.282 Y13.493 Z-9.189 I0.126 J-0.082
X-7.533 Y13.657 Z-9.23 I-0.126 J0.082
X-7.282 Y13.493 Z-9.271 I0.126 J-0.082
X-7.533 Y13.657 Z-9.312 I-0.126 J0.082
X-7.282 Y13.493 Z-9.354 I0.126 J-0.082
X-7.533 Y13.657 Z-9.395 I-0.126 J0.082
X-7.282 Y13.493 Z-9.436 I0.126 J-0.082
X-7.533 Y13.657 Z-9.477 I-0.126 J0.082
X-7.282 Y13.493 Z-9.518 I0.126 J-0.082
X-7.533 Y13.657 Z-9.56 I-0.126 J0.082
X-7.282 Y13.493 Z-9.601 I0.126 J-0.082
X-7.533 Y13.657 Z-9.642 I-0.126 J0.082
X-7.282 Y13.493 Z-9.683 I0.126 J-0.082
X-7.533 Y13.657 Z-9.725 I-0.126 J0.082
X-7.282 Y13.493 Z-9.766 I0.126 J-0.082
X-7.533 Y13.657 Z-9.807 I-0.126 J0.082
X-7.282 Y13.493 Z-9.848 I0.126 J-0.082
X-7.533 Y13.657 Z-9.889 I-0.126 J0.082
X-7.282 Y13.493 Z-9.931 I0.126 J-0.082
X-7.533 Y13.657 Z-9.972 I-0.126 J0.082
X-7.282 Y13.493 Z-10.013 I0.126 J-0.082
X-7.533 Y13.657 Z-10.054 I-0.126 J0.082
X-7.282 Y13.493 Z-10.096 I0.126 J-0.082
X-7.533 Y13.657 Z-10.137 I-0.126 J0.082
X-7.282 Y13.493 Z-10.178 I0.126 J-0.082
X-7.533 Y13.657 Z-10.219 I-0.126 J0.082
X-7.282 Y13.493 Z-10.261 I0.126 J-0.082
X-7.533 Y13.657 Z-10.302 I-0.126 J0.082
X-7.282 Y13.493 Z-10.343 I0.126 J-0.082
X-7.533 Y13.657 Z-10.384 I-0.126 J0.082
X-7.282 Y13.493 Z-10.425 I0.126 J-0.082
X-7.533 Y13.657 Z-10.467 I-0.126 J0.082
X-7.282 Y13.493 Z-10.508 I0.126 J-0.082
X-7.533 Y13.657 Z-10.549 I-0.126 J0.082
X-7.282 Y13.493 Z-10.59 I0.126 J-0.082
X-7.533 Y13.657 Z-10.632 I-0.126 J0.082
X-7.282 Y13.493 Z-10.673 I0.126 J-0.082
X-7.533 Y13.657 Z-10.714 I-0.126 J0.082
X-7.282 Y13.493 Z-10.755 I0.126 J-0.082
X-7.533 Y13.657 Z-10.796 I-0.126 J0.082
X-7.282 Y13.493 Z-10.838 I0.126 J-0.082
X-7.533 Y13.657 Z-10.879 I-0.126 J0.082
X-7.282 Y13.493 Z-10.92 I0.126 J-0.082
X-7.533 Y13.657 Z-10.961 I-0.126 J0.082
X-7.282 Y13.493 Z-11.003 I0.126 J-0.082
X-7.533 Y13.657 Z-11.044 I-0.126 J0.082
X-7.282 Y13.493 Z-11.085 I0.126 J-0.082
X-7.533 Y13.657 Z-11.126 I-0.126 J0.082
X-7.282 Y13.493 Z-11.168 I0.126 J-0.082
X-7.533 Y13.657 Z-11.209 I-0.126 J0.082
X-7.282 Y13.493 Z-11.25 I0.126 J-0.082
X-7.533 Y13.657 Z-11.291 I-0.126 J0.082
X-7.282 Y13.493 Z-11.332 I0.126 J-0.082
X-7.533 Y13.657 Z-11.374 I-0.126 J0.082
X-7.282 Y13.493 Z-11.415 I0.126 J-0.082
X-7.533 Y13.657 Z-11.456 I-0.126 J0.082
X-7.282 Y13.493 Z-11.497 I0.126 J-0.082
X-7.533 Y13.657 Z-11.539 I-0.126 J0.082
X-7.282 Y13.493 Z-11.58 I0.126 J-0.082
X-7.533 Y13.657 Z-11.621 I-0.126 J0.082
X-7.282 Y13.493 Z-11.662 I0.126 J-0.082
X-7.533 Y13.657 Z-11.704 I-0.126 J0.082
X-7.282 Y13.493 Z-11.745 I0.126 J-0.082
X-7.533 Y13.657 Z-11.786 I-0.126 J0.082
X-7.282 Y13.493 Z-11.827 I0.126 J-0.082
X-7.533 Y13.657 Z-11.868 I-0.126 J0.082
X-7.282 Y13.493 Z-11.91 I0.126 J-0.082
X-7.533 Y13.657 Z-11.951 I-0.126 J0.082
X-7.282 Y13.493 Z-11.992 I0.126 J-0.082
X-7.533 Y13.657 Z-12.033 I-0.126 J0.082
X-7.282 Y13.493 Z-12.075 I0.126 J-0.082
X-7.533 Y13.657 Z-12.116 I-0.126 J0.082
X-7.282 Y13.493 Z-12.157 I0.126 J-0.082
X-7.533 Y13.657 Z-12.198 I-0.126 J0.082
X-7.282 Y13.493 Z-12.239 I0.126 J-0.082
X-7.533 Y13.657 Z-12.281 I-0.126 J0.082
X-7.282 Y13.493 Z-12.322 I0.126 J-0.082
X-7.533 Y13.657 Z-12.363 I-0.126 J0.082
X-7.282 Y13.493 Z-12.404 I0.126 J-0.082
X-7.533 Y13.657 Z-12.446 I-0.126 J0.082
X-7.282 Y13.493 Z-12.487 I0.126 J-0.082
X-7.533 Y13.657 Z-12.528 I-0.126 J0.082
X-7.282 Y13.493 Z-12.569 I0.126 J-0.082
X-7.533 Y13.657 Z-12.611 I-0.126 J0.082
X-7.282 Y13.493 Z-12.652 I0.126 J-0.082
X-7.533 Y13.657 Z-12.693 I-0.126 J0.082
X-7.282 Y13.493 Z-12.734 I0.126 J-0.082
X-7.533 Y13.657 Z-12.775 I-0.126 J0.082
X-7.282 Y13.493 Z-12.817 I0.126 J-0.082
X-7.533 Y13.657 Z-12.858 I-0.126 J0.082
X-7.282 Y13.493 Z-12.899 I0.126 J-0.082
X-7.533 Y13.657 Z-12.94 I-0.126 J0.082
X-7.282 Y13.493 Z-12.982 I0.126 J-0.082
X-7.533 Y13.657 Z-13.023 I-0.126 J0.082
X-7.282 Y13.493 Z-13.064 I0.126 J-0.082
X-7.533 Y13.657 Z-13.105 I-0.126 J0.082
X-7.282 Y13.493 Z-13.146 I0.126 J-0.082
X-7.533 Y13.657 Z-13.188 I-0.126 J0.082
X-7.282 Y13.493 Z-13.229 I0.126 J-0.082
X-7.533 Y13.657 Z-13.27 I-0.126 J0.082
X-7.282 Y13.493 Z-13.311 I0.126 J-0.082
X-7.533 Y13.657 Z-13.353 I-0.126 J0.082
X-7.282 Y13.493 Z-13.394 I0.126 J-0.082
X-7.533 Y13.657 Z-13.435 I-0.126 J0.082
X-7.282 Y13.493 Z-13.476 I0.126 J-0.082
X-7.533 Y13.657 Z-13.518 I-0.126 J0.082
X-7.282 Y13.493 Z-13.559 I0.126 J-0.082
X-7.533 Y13.657 Z-13.6 I-0.126 J0.082
X-7.282 Y13.493 Z-13.641 I0.126 J-0.082
X-7.533 Y13.657 Z-13.682 I-0.126 J0.082
X-7.282 Y13.493 Z-13.724 I0.126 J-0.082
X-7.533 Y13.657 Z-13.765 I-0.126 J0.082
X-7.282 Y13.493 Z-13.806 I0.126 J-0.082
X-7.533 Y13.657 Z-13.847 I-0.126 J0.082
X-7.282 Y13.493 Z-13.889 I0.126 J-0.082
X-7.533 Y13.657 Z-13.93 I-0.126 J0.082
X-7.282 Y13.493 Z-13.971 I0.126 J-0.082
X-7.533 Y13.657 Z-14.012 I-0.126 J0.082
X-7.282 Y13.493 Z-14.054 I0.126 J-0.082
X-7.533 Y13.657 Z-14.095 I-0.126 J0.082
X-7.282 Y13.493 Z-14.136 I0.126 J-0.082
X-7.533 Y13.657 Z-14.177 I-0.126 J0.082
X-7.282 Y13.493 Z-14.218 I0.126 J-0.082
X-7.533 Y13.657 Z-14.26 I-0.126 J0.082
X-7.287 Y13.485 Z-14.3 I0.126 J-0.082
X-7.527 Y13.665 I-0.12 J0.09
X-7.287 Y13.485 I0.12 J-0.09
G0 Z5
X-7.533 Y30.507
Z-2.3
G1 Z-4.2 F100
G3 X-7.282 Y30.343 Z-4.241 I0.126 J-0.082 F1000
X-7.533 Y30.507 Z-4.282 I-0.126 J0.082
X-7.282 Y30.343 Z-4.324 I0.126 J-0.082
X-7.533 Y30.507 Z-4.365 I-0.126 J0.082
X-7.282 Y30.343 Z-4.406 I0.126 J-0.082
X-7.533 Y30.507 Z-4.447 I-0.126 J0.082
X-7.282 Y30.343 Z-4.489 I0.126 J-0.082
X-7.533 Y30.507 Z-4.53 I-0.126 J0.082
X-7.282 Y30.343 Z-4.571 I0.126 J-0.082
X-7.533 Y30.507 Z-4.612 I-0.126 J0.082
X-7.282 Y30.343 Z-4.654 I0.126 J-0.082
X-7.533 Y30.507 Z-4.695 I-0.126 J0.082
X-7.282 Y30.343 Z-4.736 I0.126 J-0.082
X-7.533 Y30.507 Z-4.777 I-0.126 J0.082
X-7.282 Y30.343 Z-4.818 I0.126 J-0.082
X-7.533 Y30.507 Z-4.86 I-0.126 J0.082
X-7.282 Y30.343 Z-4.901 I0.126 J-0.082
X-7.533 Y30.507 Z-4.942 I-0.126 J0.082
X-7.282 Y30.343 Z-4.983 I0.126 J-0.082
X-7.533 Y30.507 Z-5.025 I-0.126 J0.082
X-7.282 Y30.343 Z-5.066 I0.126 J-0.082
X-7.533 Y30.507 Z-5.107 I-0.126 J0.082
X-7.282 Y30.343 Z-5.148 I0.126 J-0.082
X-7.533 Y30.507 Z-5.189 I-0.126 J0.082
X-7.282 Y30.343 Z-5.231 I0.126 J-0.082
X-7.533 Y30.507 Z-5.272 I-0.126 J0.082
X-7.282 Y30.343 Z-5.313 I0.126 J-0.082
X-7.533 Y30.507 Z-5.354 I-0.126 J0.082
X-7.282 Y30.343 Z-5.396 I0.126 J-0.082
X-7.533 Y30.507 Z-5.437 I-0.126 J0.082
X-7.282 Y30.343 Z-5.478 I0.126 J-0.082
X-7.533 Y30.507 Z-5.519 I-0.126 J0.082
X-7.282 Y30.343 Z-5.561 I0.126 J-0.082
X-7.533 Y30.507 Z-5.602 I-0.126 J0.082
X-7.282 Y30.343 Z-5.643 I0.126 J-0.082
X-7.533 Y30.507 Z-5.684 I-0.126 J0.082
X-7.282 Y30.343 Z-5.725 I0.126 J-0.082
X-7.533 Y30.507 Z-5.767 I-0.126 J0.082
X-7.282 Y30.343 Z-5.808 I0.126 J-0.082
X-7.533 Y30.507 Z-5.849 I-0.126 J0.082
X-7.282 Y30.343 Z-5.89 I0.126 J-0.082
X-7.533 Y30.507 Z-5.932 I-0.126 J0.082
X-7.282 Y30.343 Z-5.973 I0.126 J-0.082
X-7.533 Y30.507 Z-6.014 I-0.126 J0.082
X-7.282 Y30.343 Z-6.055 I0.126 J-0.082
X-7.533 Y30.507 Z-6.096 I-0.126 J0.082
X-7.282 Y30.343 Z-6.138 I0.126 J-0.082
X-7.533 Y30.507 Z-6.179 I-0.126 J0.082
X-7.282 Y30.343 Z-6.22 I0.126 J-0.082
X-7.533 Y30.507 Z-6.261 I-0.126 J0.082
X-7.282 Y30.343 Z-6.303 I0.126 J-0.082
X-7.533 Y30.507 Z-6.344 I-0.126 J0.082
X-7.282 Y30.343 Z-6.385 I0.126 J-0.082
X-7.533 Y30.507 Z-6.426 I-0.126 J0.082
X-7.282 Y30.343 Z-6.468 I0.126 J-0.082
X-7.533 Y30.507 Z-6.509 I-0.126 J0.082
X-7.282 Y30.343 Z-6.55 I0.126 J-0.082
X-7.533 Y30.507 Z-6.591 I-0.126 J0.082
X-7.282 Y30.343 Z-6.632 I0.126 J-0.082
X-7.533 Y30.507 Z-6.674 I-0.126 J0.082
X-7.282 Y30.343 Z-6.715 I0.126 J-0.082
X-7.533 Y30.507 Z-6.756 I-0.126 J0.082
X-7.282 Y30.343 Z-6.797 I0.126 J-0.082
X-7.533 Y30.507 Z-6.839 I-0.126 J0.082
X-7.282 Y30.343 Z-6.88 I0.126 J-0.082
X-7.533 Y30.507 Z-6.921 I-0.126 J0.082
X-7.282 Y30.343 Z-6.962 I0.126 J-0.082
X-7.533 Y30.507 Z-7.004 I-0.126 J0.082
X-7.282 Y30.343 Z-7.045 I0.126 J-0.082
X-7.533 Y30.507 Z-7.086 I-0.126 J0.082
X-7.282 Y30.343 Z-7.127 I0.126 J-0.082
X-7.533 Y30.507 Z-7.168 I-0.126 J0.082
X-7.282 Y30.343 Z-7.21 I0.126 J-0.082
X-7.533 Y30.507 Z-7.251 I-0.126 J0.082
X-7.282 Y30.343 Z-7.292 I0.126 J-0.082
X-7.533 Y30.507 Z-7.333 I-0.126 J0.082
X-7.282 Y30.343 Z-7.375 I0.126 J-0.082
X-7.533 Y30.507 Z-7.416 I-0.126 J0.082
X-7.282 Y30.343 Z-7.457 I0.126 J-0.082
X-7.533 Y30.507 Z-7.498 I-0.126 J0.082
X-7.282 Y30.343 Z-7.539 I0.126 J-0.082
X-7.533 Y30.507 Z-7.581 I-0.126 J0.082
X-7.282 Y30.343 Z-7.622 I0.126 J-0.082
X-7.533 Y30.507 Z-7.663 I-0.126 J0.082
X-7.282 Y30.343 Z-7.704 I0.126 J-0.082
X-7.533 Y30.507 Z-7.746 I-0.126 J0.082
X-7.282 Y30.343 Z-7.787 I0.126 J-0.082
X-7.533 Y30.507 Z-7.828 I-0.126 J0.082
X-7.282 Y30.343 Z-7.869 I0.126 J-0.082
X-7.533 Y30.507 Z-7.911 I-0.126 J0.082
X-7.282 Y30.343 Z-7.952 I0.126 J-0.082
X-7.533 Y30.507 Z-7.993 I-0.126 J0.082
X-7.282 Y30.343 Z-8.034 I0.126 J-0.082
X-7.533 Y30.507 Z-8.075 I-0.126 J0.082
X-7.282 Y30.343 Z-8.117 I0.126 J-0.082
X-7.533 Y30.507 Z-8.158 I-0.126 J0.082
X-7.282 Y30.343 Z-8.199 I0.126 J-0.082
X-7.533 Y30.507 Z-8.24 I-0.126 J0.082
X-7.282 Y30.343 Z-8.282 I0.126 J-0.082
X-7.533 Y30.507 Z-8.323 I-0.126 J0.082
X-7.282 Y30.343 Z-8.364 I0.126 J-0.082
X-7.533 Y30.507 Z-8.405 I-0.126 J0.082
X-7.282 Y30.343 Z-8.446 I0.126 J-0.082
X-7.533 Y30.507 Z-8.488 I-0.126 J0.082
X-7.282 Y30.343 Z-8.529 I0.126 J-0.082
X-7.533 Y30.507 Z-8.57 I-0.126 J0.082
X-7.282 Y30.343 Z-8.611 I0.126 J-0.082
X-7.533 Y30.507 Z-8.653 I-0.126 J0.082
X-7.282 Y30.343 Z-8.694 I0.126 J-0.082
X-7.533 Y30.507 Z-8.735 I-0.126 J0.082
X-7.282 Y30.343 Z-8.776 I0.126 J-0.082
X-7.533 Y30.507 Z-8.818 I-0.126 J0.082
X-7.282 Y30.343 Z-8.859 I0.126 J-0.082
X-7.533 Y30.507 Z-8.9 I-0.126 J0.082
X-7.282 Y30.343 Z-8.941 I0.126 J-0.082
X-7.533 Y30.507 Z-8.982 I-0.126 J0.082
X-7.282 Y30.343 Z-9.024 I0.126 J-0.082
X-7.533 Y30.507 Z-9.065 I-0.126 J0.082
X-7.282 Y30.343 Z-9.106 I0.126 J-0.082
X-7.533 Y30.507 Z-9.147 I-0.126 J0.082
X-7.282 Y30.343 Z-9.189 I0.126 J-0.082
X-7.533 Y30.507 Z-9.23 I-0.126 J0.082
X-7.282 Y30.343 Z-9.271 I0.126 J-0.082
X-7.533 Y30.507 Z-9.312 I-0.126 J0.082
X-7.282 Y30.343 Z-9.354 I0.126 J-0.082
X-7.533 Y30.507 Z-9.395 I-0.126 J0.082
X-7.282 Y30.343 Z-9.436 I0.126 J-0.082
X-7.533 Y30.507 Z-9.477 I-0.126 J0.082
X-7.282 Y30.343 Z-9.518 I0.126 J-0.082
X-7.533 Y30.507 Z-9.56 I-0.126 J0.082
X-7.282 Y30.343 Z-9.601 I0.126 J-0.082
X-7.533 Y30.507 Z-9.642 I-0.126 J0.082
X-7.282 Y30.343 Z-9.683 I0.126 J-0.082
X-7.533 Y30.507 Z-9.725 I-0.126 J0.082
X-7.282 Y30.343 Z-9.766 I0.126 J-0.082
X-7.533 Y30.507 Z-9.807 I-0.126 J0.082
X-7.282 Y30.343 Z-9.848 I0.126 J-0.082
X-7.533 Y30.507 Z-9.889 I-0.126 J0.082
X-7.282 Y30.343 Z-9.931 I0.126 J-0.082
X-7.533 Y30.507 Z-9.972 I-0.126 J0.082
X-7.282 Y30.343 Z-10.013 I0.126 J-0.082
X-7.533 Y30.507 Z-10.054 I-0.126 J0.082
X-7.282 Y30.343 Z-10.096 I0.126 J-0.082
X-7.533 Y30.507 Z-10.137 I-0.126 J0.082
X-7.282 Y30.343 Z-10.178 I0.126 J-0.082
X-7.533 Y30.507 Z-10.219 I-0.126 J0.082
X-7.282 Y30.343 Z-10.261 I0.126 J-0.082
X-7.533 Y30.507 Z-10.302 I-0.126 J0.082
X-7.282 Y30.343 Z-10.343 I0.126 J-0.082
X-7.533 Y30.507 Z-10.384 I-0.126 J0.082
X-7.282 Y30.343 Z-10.425 I0.126 J-0.082
X-7.533 Y30.507 Z-10.467 I-0.126 J0.082
X-7.282 Y30.343 Z-10.508 I0.126 J-0.082
X-7.533 Y30.507 Z-10.549 I-0.126 J0.082
X-7.282 Y30.343 Z-10.59 I0.126 J-0.082
X-7.533 Y30.507 Z-10.632 I-0.126 J0.082
X-7.282 Y30.343 Z-10.673 I0.126 J-0.082
X-7.533 Y30.507 Z-10.714 I-0.126 J0.082
X-7.282 Y30.343 Z-10.755 I0.126 J-0.082
X-7.533 Y30.507 Z-10.796 I-0.126 J0.082
X-7.282 Y30.343 Z-10.838 I0.126 J-0.082
X-7.533 Y30.507 Z-10.879 I-0.126 J0.082
X-7.282 Y30.343 Z-10.92 I0.126 J-0.082
X-7.533 Y30.507 Z-10.961 I-0.126 J0.082
X-7.282 Y30.343 Z-11.003 I0.126 J-0.082
X-7.533 Y30.507 Z-11.044 I-0.126 J0.082
X-7.282 Y30.343 Z-11.085 I0.126 J-0.082
X-7.533 Y30.507 Z-11.126 I-0.126 J0.082
X-7.282 Y30.343 Z-11.168 I0.126 J-0.082
X-7.533 Y30.507 Z-11.209 I-0.126 J0.082
X-7.282 Y30.343 Z-11.25 I0.126 J-0.082
X-7.533 Y30.507 Z-11.291 I-0.126 J0.082
X-7.282 Y30.343 Z-11.332 I0.126 J-0.082
X-7.533 Y30.507 Z-11.374 I-0.126 J0.082
X-7.282 Y30.343 Z-11.415 I0.126 J-0.082
X-7.533 Y30.507 Z-11.456 I-0.126 J0.082
X-7.282 Y30.343 Z-11.497 I0.126 J-0.082
X-7.533 Y30.507 Z-11.539 I-0.126 J0.082
X-7.282 Y30.343 Z-11.58 I0.126 J-0.082
X-7.533 Y30.507 Z-11.621 I-0.126 J0.082
X-7.282 Y30.343 Z-11.662 I0.126 J-0.082
X-7.533 Y30.507 Z-11.704 I-0.126 J0.082
X-7.282 Y30.343 Z-11.745 I0.126 J-0.082
X-7.533 Y30.507 Z-11.786 I-0.126 J0.082
X-7.282 Y30.343 Z-11.827 I0.126 J-0.082
X-7.533 Y30.507 Z-11.868 I-0.126 J0.082
X-7.282 Y30.343 Z-11.91 I0.126 J-0.082
X-7.533 Y30.507 Z-11.951 I-0.126 J0.082
X-7.282 Y30.343 Z-11.992 I0.126 J-0.082
X-7.533 Y30.507 Z-12.033 I-0.126 J0.082
X-7.282 Y30.343 Z-12.075 I0.126 J-0.082
X-7.533 Y30.507 Z-12.116 I-0.126 J0.082
X-7.282 Y30.343 Z-12.157 I0.126 J-0.082
X-7.533 Y30.507 Z-12.198 I-0.126 J0.082
X-7.282 Y30.343 Z-12.239 I0.126 J-0.082
X-7.533 Y30.507 Z-12.281 I-0.126 J0.082
X-7.282 Y30.343 Z-12.322 I0.126 J-0.082
X-7.533 Y30.507 Z-12.363 I-0.126 J0.082
X-7.282 Y30.343 Z-12.404 I0.126 J-0.082
X-7.533 Y30.507 Z-12.446 I-0.126 J0.082
X-7.282 Y30.343 Z-12.487 I0.126 J-0.082
X-7.533 Y30.507 Z-12.528 I-0.126 J0.082
X-7.282 Y30.343 Z-12.569 I0.126 J-0.082
X-7.533 Y30.507 Z-12.611 I-0.126 J0.082
X-7.282 Y30.343 Z-12.652 I0.126 J-0.082
X-7.533 Y30.507 Z-12.693 I-0.126 J0.082
X-7.282 Y30.343 Z-12.734 I0.126 J-0.082
X-7.533 Y30.507 Z-12.775 I-0.126 J0.082
X-7.282 Y30.343 Z-12.817 I0.126 J-0.082
X-7.533 Y30.507 Z-12.858 I-0.126 J0.082
X-7.282 Y30.343 Z-12.899 I0.126 J-0.082
X-7.533 Y30.507 Z-12.94 I-0.126 J0.082
X-7.282 Y30.343 Z-12.982 I0.126 J-0.082
X-7.533 Y30.507 Z-13.023 I-0.126 J0.082
X-7.282 Y30.343 Z-13.064 I0.126 J-0.082
X-7.533 Y30.507 Z-13.105 I-0.126 J0.082
X-7.282 Y30.343 Z-13.146 I0.126 J-0.082
X-7.533 Y30.507 Z-13.188 I-0.126 J0.082
X-7.282 Y30.343 Z-13.229 I0.126 J-0.082
X-7.533 Y30.507 Z-13.27 I-0.126 J0.082
X-7.282 Y30.343 Z-13.311 I0.126 J-0.082
X-7.533 Y30.507 Z-13.353 I-0.126 J0.082
X-7.282 Y30.343 Z-13.394 I0.126 J-0.082
X-7.533 Y30.507 Z-13.435 I-0.126 J0.082
X-7.282 Y30.343 Z-13.476 I0.126 J-0.082
X-7.533 Y30.507 Z-13.518 I-0.126 J0.082
X-7.282 Y30.343 Z-13.559 I0.126 J-0.082
X-7.533 Y30.507 Z-13.6 I-0.126 J0.082
X-7.282 Y30.343 Z-13.641 I0.126 J-0.082
X-7.533 Y30.507 Z-13.682 I-0.126 J0.082
X-7.282 Y30.343 Z-13.724 I0.126 J-0.082
X-7.533 Y30.507 Z-13.765 I-0.126 J0.082
X-7.282 Y30.343 Z-13.806 I0.126 J-0.082
X-7.533 Y30.507 Z-13.847 I-0.126 J0.082
X-7.282 Y30.343 Z-13.889 I0.126 J-0.082
X-7.533 Y30.507 Z-13.93 I-0.126 J0.082
X-7.282 Y30.343 Z-13.971 I0.126 J-0.082
X-7.533 Y30.507 Z-14.012 I-0.126 J0.082
X-7.282 Y30.343 Z-14.054 I0.126 J-0.082
X-7.533 Y30.507 Z-14.095 I-0.126 J0.082
X-7.282 Y30.343 Z-14.136 I0.126 J-0.082
X-7.533 Y30.507 Z-14.177 I-0.126 J0.082
X-7.282 Y30.343 Z-14.218 I0.126 J-0.082
X-7.533 Y30.507 Z-14.26 I-0.126 J0.082
X-7.287 Y30.335 Z-14.3 I0.126 J-0.082
X-7.527 Y30.515 I-0.12 J0.09
X-7.287 Y30.335 I0.12 J-0.09
G0 Z5
X-22.126 Y38.932
Z-2.3
G1 Z-4.2 F100
G3 X-21.874 Y38.768 Z-4.241 I0.126 J-0.082 F1000
X-22.126 Y38.932 Z-4.282 I-0.126 J0.082
X-21.874 Y38.768 Z-4.324 I0.126 J-0.082
X-22.126 Y38.932 Z-4.365 I-0.126 J0.082
X-21.874 Y38.768 Z-4.406 I0.126 J-0.082
X-22.126 Y38.932 Z-4.447 I-0.126 J0.082
X-21.874 Y38.768 Z-4.489 I0.126 J-0.082
X-22.126 Y38.932 Z-4.53 I-0.126 J0.082
X-21.874 Y38.768 Z-4.571 I0.126 J-0.082
X-22.126 Y38.932 Z-4.612 I-0.126 J0.082
X-21.874 Y38.768 Z-4.654 I0.126 J-0.082
X-22.126 Y38.932 Z-4.695 I-0.126 J0.082
X-21.874 Y38.768 Z-4.736 I0.126 J-0.082
X-22.126 Y38.932 Z-4.777 I-0.126 J0.082
X-21.874 Y38.768 Z-4.818 I0.126 J-0.082
X-22.126 Y38.932 Z-4.86 I-0.126 J0.082
X-21.874 Y38.768 Z-4.901 I0.126 J-0.082
X-22.126 Y38.932 Z-4.942 I-0.126 J0.082
X-21.874 Y38.768 Z-4.983 I0.126 J-0.082
X-22.126 Y38.932 Z-5.025 I-0.126 J0.082
X-21.874 Y38.768 Z-5.066 I0.126 J-0.082
X-22.126 Y38.932 Z-5.107 I-0.126 J0.082
X-21.874 Y38.768 Z-5.148 I0.126 J-0.082
X-22.126 Y38.932 Z-5.189 I-0.126 J0.082
X-21.874 Y38.768 Z-5.231 I0.126 J-0.082
X-22.126 Y38.932 Z-5.272 I-0.126 J0.082
X-21.874 Y38.768 Z-5.313 I0.126 J-0.082
X-22.126 Y38.932 Z-5.354 I-0.126 J0.082
X-21.874 Y38.768 Z-5.396 I0.126 J-0.082
X-22.126 Y38.932 Z-5.437 I-0.126 J0.082
X-21.874 Y38.768 Z-5.478 I0.126 J-0.082
X-22.126 Y38.932 Z-5.519 I-0.126 J0.082
X-21.874 Y38.768 Z-5.561 I0.126 J-0.082
X-22.126 Y38.932 Z-5.602 I-0.126 J0.082
X-21.874 Y38.768 Z-5.643 I0.126 J-0.082
X-22.126 Y38.932 Z-5.684 I-0.126 J0.082
X-21.874 Y38.768 Z-5.725 I0.126 J-0.082
X-22.126 Y38.932 Z-5.767 I-0.126 J0.082
X-21.874 Y38.768 Z-5.808 I0.126 J-0.082
X-22.126 Y38.932 Z-5.849 I-0.126 J0.082
X-21.874 Y38.768 Z-5.89 I0.126 J-0.082
X-22.126 Y38.932 Z-5.932 I-0.126 J0.082
X-21.874 Y38.768 Z-5.973 I0.126 J-0.082
X-22.126 Y38.932 Z-6.014 I-0.126 J0.082
X-21.874 Y38.768 Z-6.055 I0.126 J-0.082
X-22.126 Y38.932 Z-6.096 I-0.126 J0.082
X-21.874 Y38.768 Z-6.138 I0.126 J-0.082
X-22.126 Y38.932 Z-6.179 I-0.126 J0.082
X-21.874 Y38.768 Z-6.22 I0.126 J-0.082
X-22.126 Y38.932 Z-6.261 I-0.126 J0.082
X-21.874 Y38.768 Z-6.303 I0.126 J-0.082
X-22.126 Y38.932 Z-6.344 I-0.126 J0.082
X-21.874 Y38.768 Z-6.385 I0.126 J-0.082
X-22.126 Y38.932 Z-6.426 I-0.126 J0.082
X-21.874 Y38.768 Z-6.468 I0.126 J-0.082
X-22.126 Y38.932 Z-6.509 I-0.126 J0.082
X-21.874 Y38.768 Z-6.55 I0.126 J-0.082
X-22.126 Y38.932 Z-6.591 I-0.126 J0.082
X-21.874 Y38.768 Z-6.632 I0.126 J-0.082
X-22.126 Y38.932 Z-6.674 I-0.126 J0.082
X-21.874 Y38.768 Z-6.715 I0.126 J-0.082
X-22.126 Y38.932 Z-6.756 I-0.126 J0.082
X-21.874 Y38.768 Z-6.797 I0.126 J-0.082
X-22.126 Y38.932 Z-6.839 I-0.126 J0.082
X-21.874 Y38.768 Z-6.88 I0.126 J-0.082
X-22.126 Y38.932 Z-6.921 I-0.126 J0.082
X-21.874 Y38.768 Z-6.962 I0.126 J-0.082
X-22.126 Y38.932 Z-7.004 I-0.126 J0.082
X-21.874 Y38.768 Z-7.045 I0.126 J-0.082
X-22.126 Y38.932 Z-7.086 I-0.126 J0.082
X-21.874 Y38.768 Z-7.127 I0.126 J-0.082
X-22.126 Y38.932 Z-7.168 I-0.126 J0.082
X-21.874 Y38.768 Z-7.21 I0.126 J-0.082
X-22.126 Y38.932 Z-7.251 I-0.126 J0.082
X-21.874 Y38.768 Z-7.292 I0.126 J-0.082
X-22.126 Y38.932 Z-7.333 I-0.126 J0.082
X-21.874 Y38.768 Z-7.375 I0.126 J-0.082
X-22.126 Y38.932 Z-7.416 I-0.126 J0.082
X-21.874 Y38.768 Z-7.457 I0.126 J-0.082
X-22.126 Y38.932 Z-7.498 I-0.126 J0.082
X-21.874 Y38.768 Z-7.539 I0.126 J-0.082
X-22.126 Y38.932 Z-7.581 I-0.126 J0.082
X-21.874 Y38.768 Z-7.622 I0.126 J-0.082
X-22.126 Y38.932 Z-7.663 I-0.126 J0.082
X-21.874 Y38.768 Z-7.704 I0.126 J-0.082
X-22.126 Y38.932 Z-7.746 I-0.126 J0.082
X-21.874 Y38.768 Z-7.787 I0.126 J-0.082
X-22.126 Y38.932 Z-7.828 I-0.126 J0.082
X-21.874 Y38.768 Z-7.869 I0.126 J-0.082
X-22.126 Y38.932 Z-7.911 I-0.126 J0.082
X-21.874 Y38.768 Z-7.952 I0.126 J-0.082
X-22.126 Y38.932 Z-7.993 I-0.126 J0.082
X-21.874 Y38.768 Z-8.034 I0.126 J-0.082
X-22.126 Y38.932 Z-8.075 I-0.126 J0.082
X-21.874 Y38.768 Z-8.117 I0.126 J-0.082
X-22.126 Y38.932 Z-8.158 I-0.126 J0.082
X-21.874 Y38.768 Z-8.199 I0.126 J-0.082
X-22.126 Y38.932 Z-8.24 I-0.126 J0.082
X-21.874 Y38.768 Z-8.282 I0.126 J-0.082
X-22.126 Y38.932 Z-8.323 I-0.126 J0.082
X-21.874 Y38.768 Z-8.364 I0.126 J-0.082
X-22.126 Y38.932 Z-8.405 I-0.126 J0.082
X-21.874 Y38.768 Z-8.446 I0.126 J-0.082
X-22.126 Y38.932 Z-8.488 I-0.126 J0.082
X-21.874 Y38.768 Z-8.529 I0.126 J-0.082
X-22.126 Y38.932 Z-8.57 I-0.126 J0.082
X-21.874 Y38.768 Z-8.611 I0.126 J-0.082
X-22.126 Y38.932 Z-8.653 I-0.126 J0.082
X-21.874 Y38.768 Z-8.694 I0.126 J-0.082
X-22.126 Y38.932 Z-8.735 I-0.126 J0.082
X-21.874 Y38.768 Z-8.776 I0.126 J-0.082
X-22.126 Y38.932 Z-8.818 I-0.126 J0.082
X-21.874 Y38.768 Z-8.859 I0.126 J-0.082
X-22.126 Y38.932 Z-8.9 I-0.126 J0.082
X-21.874 Y38.768 Z-8.941 I0.126 J-0.082
X-22.126 Y38.932 Z-8.982 I-0.126 J0.082
X-21.874 Y38.768 Z-9.024 I0.126 J-0.082
X-22.126 Y38.932 Z-9.065 I-0.126 J0.082
X-21.874 Y38.768 Z-9.106 I0.126 J-0.082
X-22.126 Y38.932 Z-9.147 I-0.126 J0.082
X-21.874 Y38.768 Z-9.189 I0.126 J-0.082
X-22.126 Y38.932 Z-9.23 I-0.126 J0.082
X-21.874 Y38.768 Z-9.271 I0.126 J-0.082
X-22.126 Y38.932 Z-9.312 I-0.126 J0.082
X-21.874 Y38.768 Z-9.354 I0.126 J-0.082
X-22.126 Y38.932 Z-9.395 I-0.126 J0.082
X-21.874 Y38.768 Z-9.436 I0.126 J-0.082
X-22.126 Y38.932 Z-9.477 I-0.126 J0.082
X-21.874 Y38.768 Z-9.518 I0.126 J-0.082
X-22.126 Y38.932 Z-9.56 I-0.126 J0.082
X-21.874 Y38.768 Z-9.601 I0.126 J-0.082
X-22.126 Y38.932 Z-9.642 I-0.126 J0.082
X-21.874 Y38.768 Z-9.683 I0.126 J-0.082
X-22.126 Y38.932 Z-9.725 I-0.126 J0.082
X-21.874 Y38.768 Z-9.766 I0.126 J-0.082
X-22.126 Y38.932 Z-9.807 I-0.126 J0.082
X-21.874 Y38.768 Z-9.848 I0.126 J-0.082
X-22.126 Y38.932 Z-9.889 I-0.126 J0.082
X-21.874 Y38.768 Z-9.931 I0.126 J-0.082
X-22.126 Y38.932 Z-9.972 I-0.126 J0.082
X-21.874 Y38.768 Z-10.013 I0.126 J-0.082
X-22.126 Y38.932 Z-10.054 I-0.126 J0.082
X-21.874 Y38.768 Z-10.096 I0.126 J-0.082
X-22.126 Y38.932 Z-10.137 I-0.126 J0.082
X-21.874 Y38.768 Z-10.178 I0.126 J-0.082
X-22.126 Y38.932 Z-10.219 I-0.126 J0.082
X-21.874 Y38.768 Z-10.261 I0.126 J-0.082
X-22.126 Y38.932 Z-10.302 I-0.126 J0.082
X-21.874 Y38.768 Z-10.343 I0.126 J-0.082
X-22.126 Y38.932 Z-10.384 I-0.126 J0.082
X-21.874 Y38.768 Z-10.425 I0.126 J-0.082
X-22.126 Y38.932 Z-10.467 I-0.126 J0.082
X-21.874 Y38.768 Z-10.508 I0.126 J-0.082
X-22.126 Y38.932 Z-10.549 I-0.126 J0.082
X-21.874 Y38.768 Z-10.59 I0.126 J-0.082
X-22.126 Y38.932 Z-10.632 I-0.126 J0.082
X-21.874 Y38.768 Z-10.673 I0.126 J-0.082
X-22.126 Y38.932 Z-10.714 I-0.126 J0.082
X-21.874 Y38.768 Z-10.755 I0.126 J-0.082
X-22.126 Y38.932 Z-10.796 I-0.126 J0.082
X-21.874 Y38.768 Z-10.838 I0.126 J-0.082
X-22.126 Y38.932 Z-10.879 I-0.126 J0.082
X-21.874 Y38.768 Z-10.92 I0.126 J-0.082
X-22.126 Y38.932 Z-10.961 I-0.126 J0.082
X-21.874 Y38.768 Z-11.003 I0.126 J-0.082
X-22.126 Y38.932 Z-11.044 I-0.126 J0.082
X-21.874 Y38.768 Z-11.085 I0.126 J-0.082
X-22.126 Y38.932 Z-11.126 I-0.126 J0.082
X-21.874 Y38.768 Z-11.168 I0.126 J-0.082
X-22.126 Y38.932 Z-11.209 I-0.126 J0.082
X-21.874 Y38.768 Z-11.25 I0.126 J-0.082
X-22.126 Y38.932 Z-11.291 I-0.126 J0.082
X-21.874 Y38.768 Z-11.332 I0.126 J-0.082
X-22.126 Y38.932 Z-11.374 I-0.126 J0.082
X-21.874 Y38.768 Z-11.415 I0.126 J-0.082
X-22.126 Y38.932 Z-11.456 I-0.126 J0.082
X-21.874 Y38.768 Z-11.497 I0.126 J-0.082
X-22.126 Y38.932 Z-11.539 I-0.126 J0.082
X-21.874 Y38.768 Z-11.58 I0.126 J-0.082
X-22.126 Y38.932 Z-11.621 I-0.126 J0.082
X-21.874 Y38.768 Z-11.662 I0.126 J-0.082
X-22.126 Y38.932 Z-11.704 I-0.126 J0.082
X-21.874 Y38.768 Z-11.745 I0.126 J-0.082
X-22.126 Y38.932 Z-11.786 I-0.126 J0.082
X-21.874 Y38.768 Z-11.827 I0.126 J-0.082
X-22.126 Y38.932 Z-11.868 I-0.126 J0.082
X-21.874 Y38.768 Z-11.91 I0.126 J-0.082
X-22.126 Y38.932 Z-11.951 I-0.126 J0.082
X-21.874 Y38.768 Z-11.992 I0.126 J-0.082
X-22.126 Y38.932 Z-12.033 I-0.126 J0.082
X-21.874 Y38.768 Z-12.075 I0.126 J-0.082
X-22.126 Y38.932 Z-12.116 I-0.126 J0.082
X-21.874 Y38.768 Z-12.157 I0.126 J-0.082
X-22.126 Y38.932 Z-12.198 I-0.126 J0.082
X-21.874 Y38.768 Z-12.239 I0.126 J-0.082
X-22.126 Y38.932 Z-12.281 I-0.126 J0.082
X-21.874 Y38.768 Z-12.322 I0.126 J-0.082
X-22.126 Y38.932 Z-12.363 I-0.126 J0.082
X-21.874 Y38.768 Z-12.404 I0.126 J-0.082
X-22.126 Y38.932 Z-12.446 I-0.126 J0.082
X-21.874 Y38.768 Z-12.487 I0.126 J-0.082
X-22.126 Y38.932 Z-12.528 I-0.126 J0.082
X-21.874 Y38.768 Z-12.569 I0.126 J-0.082
X-22.126 Y38.932 Z-12.611 I-0.126 J0.082
X-21.874 Y38.768 Z-12.652 I0.126 J-0.082
X-22.126 Y38.932 Z-12.693 I-0.126 J0.082
X-21.874 Y38.768 Z-12.734 I0.126 J-0.082
X-22.126 Y38.932 Z-12.775 I-0.126 J0.082
X-21.874 Y38.768 Z-12.817 I0.126 J-0.082
X-22.126 Y38.932 Z-12.858 I-0.126 J0.082
X-21.874 Y38.768 Z-12.899 I0.126 J-0.082
X-22.126 Y38.932 Z-12.94 I-0.126 J0.082
X-21.874 Y38.768 Z-12.982 I0.126 J-0.082
X-22.126 Y38.932 Z-13.023 I-0.126 J0.082
X-21.874 Y38.768 Z-13.064 I0.126 J-0.082
X-22.126 Y38.932 Z-13.105 I-0.126 J0.082
X-21.874 Y38.768 Z-13.146 I0.126 J-0.082
X-22.126 Y38.932 Z-13.188 I-0.126 J0.082
X-21.874 Y38.768 Z-13.229 I0.126 J-0.082
X-22.126 Y38.932 Z-13.27 I-0.126 J0.082
X-21.874 Y38.768 Z-13.311 I0.126 J-0.082
X-22.126 Y38.932 Z-13.353 I-0.126 J0.082
X-21.874 Y38.768 Z-13.394 I0.126 J-0.082
X-22.126 Y38.932 Z-13.435 I-0.126 J0.082
X-21.874 Y38.768 Z-13.476 I0.126 J-0.082
X-22.126 Y38.932 Z-13.518 I-0.126 J0.082
X-21.874 Y38.768 Z-13.559 I0.126 J-0.082
X-22.126 Y38.932 Z-13.6 I-0.126 J0.082
X-21.874 Y38.768 Z-13.641 I0.126 J-0.082
X-22.126 Y38.932 Z-13.682 I-0.126 J0.082
X-21.874 Y38.768 Z-13.724 I0.126 J-0.082
X-22.126 Y38.932 Z-13.765 I-0.126 J0.082
X-21.874 Y38.768 Z-13.806 I0.126 J-0.082
X-22.126 Y38.932 Z-13.847 I-0.126 J0.082
X-21.874 Y38.768 Z-13.889 I0.126 J-0.082
X-22.126 Y38.932 Z-13.93 I-0.126 J0.082
X-21.874 Y38.768 Z-13.971 I0.126 J-0.082
X-22.126 Y38.932 Z-14.012 I-0.126 J0.082
X-21.874 Y38.768 Z-14.054 I0.126 J-0.082
X-22.126 Y38.932 Z-14.095 I-0.126 J0.082
X-21.874 Y38.768 Z-14.136 I0.126 J-0.082
X-22.126 Y38.932 Z-14.177 I-0.126 J0.082
X-21.874 Y38.768 Z-14.218 I0.126 J-0.082
X-22.126 Y38.932 Z-14.26 I-0.126 J0.082
X-21.88 Y38.76 Z-14.3 I0.126 J-0.082
X-22.12 Y38.94 I-0.12 J0.09
X-21.88 Y38.76 I0.12 J-0.09
G0 Z15

M9
M30
