(WHEEL)
(T11  D=2 CR=0 - ZMIN=-3.65 - FLAT END MILL)
G90 G94 G91.1 G40 G49 G17
G21

(2MM FLAT CENTER HOLE TOP)
M5
M9
T11
(DIAMOND OR SPIRAL)
S20000 M3
G54
M8
G0 X-20.437 Y21.658
G43 Z15 H1
Z2
G1 Z0.1 F100
G3 X-23.563 Y22.342 Z-0.076 I-1.563 J0.342 F1000
X-20.437 Y21.658 Z-0.251 I1.563 J-0.342
X-23.563 Y22.342 Z-0.427 I-1.563 J0.342
X-20.437 Y21.658 Z-0.602 I1.563 J-0.342
X-23.563 Y22.342 Z-0.778 I-1.563 J0.342
X-20.437 Y21.658 Z-0.953 I1.563 J-0.342
X-23.563 Y22.342 Z-1.129 I-1.563 J0.342
X-20.437 Y21.658 Z-1.304 I1.563 J-0.342
X-23.563 Y22.342 Z-1.48 I-1.563 J0.342
X-20.437 Y21.658 Z-1.655 I1.563 J-0.342
X-23.563 Y22.342 Z-1.831 I-1.563 J0.342
X-20.437 Y21.658 Z-2.006 I1.563 J-0.342
X-23.563 Y22.342 Z-2.182 I-1.563 J0.342
X-20.437 Y21.658 Z-2.357 I1.563 J-0.342
X-23.563 Y22.342 Z-2.533 I-1.563 J0.342
X-20.437 Y21.658 Z-2.708 I1.563 J-0.342
X-23.563 Y22.342 Z-2.884 I-1.563 J0.342
X-20.437 Y21.658 Z-3.06 I1.563 J-0.342
X-23.563 Y22.342 Z-3.235 I-1.563 J0.342
X-20.437 Y21.658 Z-3.411 I1.563 J-0.342
X-23.563 Y22.342 Z-3.586 I-1.563 J0.342
X-22.96 Y20.72 Z-3.65 I1.563 J-0.342
X-21.04 Y23.28 I0.96 J1.28
X-22.96 Y20.72 I-0.96 J-1.28
G0 Z15

M9
M30
