(FRAME-FRONT)
(T53  D=1.6 CR=0 TAPER=118DEG - ZMIN=-10.5 - DRILL)
G90 G94 G91.1 G40 G49 G17
G21

(DRILL 1.6MM MOUNT HOLES)
M5
M9
T53
(DIAMOND OR SPIRAL)
S16000 M3
G54
M8
G0 X16.5 Y76.1
G43 Z15 H1
Z5
G98 G73 X16.5 Y76.1 Z-10.5 R2 Q0.4 F60
X3.5
X7.1 Y49.8
Y31.8
X3.5 Y5.5
X16.5
G80
Z15

M9
M30
