(FRAME-FRONT-OUTER)
(T11  D=2 CR=0 - ZMIN=-3.5 - FLAT END MILL)
G90 G94 G91.1 G40 G49 G17
G21

(MILL 2MM CONTOURS)
M5
M9
T11
(DIAMOND OR SPIRAL)
S16000 M3
G54
M8
G0 X0.2 Y-0.3
G43 Z15 H1
Z2
G1 Z-0.675 F60
Y-0.293 Z-0.727
Y-0.273 Z-0.775
Y-0.241 Z-0.816
Y-0.2 Z-0.848
Y-0.152 Z-0.868
Y-0.1 Z-0.875
Y0.1 F120
G3 X0 Y0.3 I-0.2 J0
G2 X-1 Y1.3 I0 J1 F240
G1 Y38.6
G2 X0 Y39.6 I1 J0
G1 X6.7
G2 X7.7 Y38.6 I0 J-1
G1 Y38.3
X9.5
Y43.3
X7.7
Y43
G2 X6.7 Y42 I-1 J0
G1 X0
G2 X-1 Y43 I0 J1
G1 Y80.3
G2 X0 Y81.3 I1 J0
G1 X3.95
G2 X4.95 Y80.3 I0 J-1
G1 Y77.3
G2 X3.95 Y76.3 I-1 J0
G1 X3.65
Y76
X6.35
Y76.3
X6.05
G2 X5.05 Y77.3 I0 J1
G1 Y81.6
G2 X6.05 Y82.6 I1 J0
G1 X13.95
G2 X14.95 Y81.6 I0 J-1
G1 Y77.3
G2 X13.95 Y76.3 I-1 J0
G1 X13.65
Y76
X16.35
Y76.3
X16.05
G2 X15.05 Y77.3 I0 J1
G1 Y80.3
G2 X16.05 Y81.3 I1 J0
G1 X20.5
G2 X21.5 Y80.3 I0 J-1
G1 Y1.3
G2 X20.5 Y0.3 I-1 J0
G1 X16.05
G2 X15.05 Y1.3 I0 J1
G1 Y4.3
G2 X16.05 Y5.3 I1 J0
G1 X16.35
Y5.6
X13.65
Y5.3
X13.95
G2 X14.95 Y4.3 I0 J-1
G1 Y0
G2 X13.95 Y-1 I-1 J0
G1 X6.05
G2 X5.05 Y0 I0 J1
G1 Y4.3
G2 X6.05 Y5.3 I1 J0
G1 X6.35
Y5.6
X3.65
Y5.3
X3.95
G2 X4.95 Y4.3 I0 J-1
G1 Y1.3
G2 X3.95 Y0.3 I-1 J0
G1 X0
G3 X-0.2 Y0.1 I0 J-0.2 F480
G1 Y-0.1
Y-0.152 Z-0.868
Y-0.2 Z-0.848
Y-0.241 Z-0.816
Y-0.273 Z-0.775
Y-0.293 Z-0.727
Y-0.3 Z-0.675
X0.2 F240
Z-1.55 F60
Y-0.293 Z-1.602
Y-0.273 Z-1.65
Y-0.241 Z-1.691
Y-0.2 Z-1.723
Y-0.152 Z-1.743
Y-0.1 Z-1.75
Y0.1 F120
G3 X0 Y0.3 I-0.2 J0
G2 X-1 Y1.3 I0 J1 F240
G1 Y38.6
G2 X0 Y39.6 I1 J0
G1 X6.7
G2 X7.7 Y38.6 I0 J-1
G1 Y38.3
X9.5
Y43.3
X7.7
Y43
G2 X6.7 Y42 I-1 J0
G1 X0
G2 X-1 Y43 I0 J1
G1 Y80.3
G2 X0 Y81.3 I1 J0
G1 X3.95
G2 X4.95 Y80.3 I0 J-1
G1 Y77.3
G2 X3.95 Y76.3 I-1 J0
G1 X3.65
Y76
X6.35
Y76.3
X6.05
G2 X5.05 Y77.3 I0 J1
G1 Y81.6
G2 X6.05 Y82.6 I1 J0
G1 X13.95
G2 X14.95 Y81.6 I0 J-1
G1 Y77.3
G2 X13.95 Y76.3 I-1 J0
G1 X13.65
Y76
X16.35
Y76.3
X16.05
G2 X15.05 Y77.3 I0 J1
G1 Y80.3
G2 X16.05 Y81.3 I1 J0
G1 X20.5
G2 X21.5 Y80.3 I0 J-1
G1 Y1.3
G2 X20.5 Y0.3 I-1 J0
G1 X16.05
G2 X15.05 Y1.3 I0 J1
G1 Y4.3
G2 X16.05 Y5.3 I1 J0
G1 X16.35
Y5.6
X13.65
Y5.3
X13.95
G2 X14.95 Y4.3 I0 J-1
G1 Y0
G2 X13.95 Y-1 I-1 J0
G1 X6.05
G2 X5.05 Y0 I0 J1
G1 Y4.3
G2 X6.05 Y5.3 I1 J0
G1 X6.35
Y5.6
X3.65
Y5.3
X3.95
G2 X4.95 Y4.3 I0 J-1
G1 Y1.3
G2 X3.95 Y0.3 I-1 J0
G1 X0
G3 X-0.2 Y0.1 I0 J-0.2 F480
G1 Y-0.1
Y-0.152 Z-1.743
Y-0.2 Z-1.723
Y-0.241 Z-1.691
Y-0.273 Z-1.65
Y-0.293 Z-1.602
Y-0.3 Z-1.55
X0.2 F240
Z-2.425 F60
Y-0.293 Z-2.477
Y-0.273 Z-2.525
Y-0.241 Z-2.566
Y-0.2 Z-2.598
Y-0.152 Z-2.618
Y-0.1 Z-2.625
Y0.1 F120
G3 X0 Y0.3 I-0.2 J0
G2 X-1 Y1.3 I0 J1 F240
G1 Y38.6
G2 X0 Y39.6 I1 J0
G1 X6.7
G2 X7.7 Y38.6 I0 J-1
G1 Y38.3
X9.5
Y43.3
X7.7
Y43
G2 X6.7 Y42 I-1 J0
G1 X0
G2 X-1 Y43 I0 J1
G1 Y80.3
G2 X0 Y81.3 I1 J0
G1 X3.95
G2 X4.95 Y80.3 I0 J-1
G1 Y77.3
G2 X3.95 Y76.3 I-1 J0
G1 X3.65
Y76
X6.35
Y76.3
X6.05
G2 X5.05 Y77.3 I0 J1
G1 Y81.6
G2 X6.05 Y82.6 I1 J0
G1 X13.95
G2 X14.95 Y81.6 I0 J-1
G1 Y77.3
G2 X13.95 Y76.3 I-1 J0
G1 X13.65
Y76
X16.35
Y76.3
X16.05
G2 X15.05 Y77.3 I0 J1
G1 Y80.3
G2 X16.05 Y81.3 I1 J0
G1 X20.5
G2 X21.5 Y80.3 I0 J-1
G1 Y1.3
G2 X20.5 Y0.3 I-1 J0
G1 X16.05
G2 X15.05 Y1.3 I0 J1
G1 Y4.3
G2 X16.05 Y5.3 I1 J0
G1 X16.35
Y5.6
X13.65
Y5.3
X13.95
G2 X14.95 Y4.3 I0 J-1
G1 Y0
G2 X13.95 Y-1 I-1 J0
G1 X6.05
G2 X5.05 Y0 I0 J1
G1 Y4.3
G2 X6.05 Y5.3 I1 J0
G1 X6.35
Y5.6
X3.65
Y5.3
X3.95
G2 X4.95 Y4.3 I0 J-1
G1 Y1.3
G2 X3.95 Y0.3 I-1 J0
G1 X0
G3 X-0.2 Y0.1 I0 J-0.2 F480
G1 Y-0.1
Y-0.152 Z-2.618
Y-0.2 Z-2.598
Y-0.241 Z-2.566
Y-0.273 Z-2.525
Y-0.293 Z-2.477
Y-0.3 Z-2.425
X0.2 F240
Z-3.3 F60
Y-0.293 Z-3.352
Y-0.273 Z-3.4
Y-0.241 Z-3.441
Y-0.2 Z-3.473
Y-0.152 Z-3.493
Y-0.1 Z-3.5
Y0.1 F120
G3 X0 Y0.3 I-0.2 J0
G2 X-1 Y1.3 I0 J1 F240
G1 Y38.6
G2 X0 Y39.6 I1 J0
G1 X6.7
G2 X7.7 Y38.6 I0 J-1
G1 Y38.3
X9.5
Y43.3
X7.7
Y43
G2 X6.7 Y42 I-1 J0
G1 X0
G2 X-1 Y43 I0 J1
G1 Y80.3
G2 X0 Y81.3 I1 J0
G1 X3.95
G2 X4.95 Y80.3 I0 J-1
G1 Y77.3
G2 X3.95 Y76.3 I-1 J0
G1 X3.65
Y76
X6.35
Y76.3
X6.05
G2 X5.05 Y77.3 I0 J1
G1 Y81.6
G2 X6.05 Y82.6 I1 J0
G1 X13.95
G2 X14.95 Y81.6 I0 J-1
G1 Y77.3
G2 X13.95 Y76.3 I-1 J0
G1 X13.65
Y76
X16.35
Y76.3
X16.05
G2 X15.05 Y77.3 I0 J1
G1 Y80.3
G2 X16.05 Y81.3 I1 J0
G1 X20.5
G2 X21.5 Y80.3 I0 J-1
G1 Y1.3
G2 X20.5 Y0.3 I-1 J0
G1 X16.05
G2 X15.05 Y1.3 I0 J1
G1 Y4.3
G2 X16.05 Y5.3 I1 J0
G1 X16.35
Y5.6
X13.65
Y5.3
X13.95
G2 X14.95 Y4.3 I0 J-1
G1 Y0
G2 X13.95 Y-1 I-1 J0
G1 X6.05
G2 X5.05 Y0 I0 J1
G1 Y4.3
G2 X6.05 Y5.3 I1 J0
G1 X6.35
Y5.6
X3.65
Y5.3
X3.95
G2 X4.95 Y4.3 I0 J-1
G1 Y1.3
G2 X3.95 Y0.3 I-1 J0
G1 X0
G3 X-0.2 Y0.1 I0 J-0.2 F480
G1 Y-0.1
Y-0.152 Z-3.493
Y-0.2 Z-3.473
Y-0.241 Z-3.441
Y-0.273 Z-3.4
Y-0.293 Z-3.352
Y-0.3 Z-3.3
G0 Z5
X6.612 Y9.693
Z2
G1 Z-0.675 F60
X6.613 Y9.686 Z-0.727
Y9.666 Z-0.775
X6.614 Y9.634 Z-0.816
X6.616 Y9.593 Z-0.848
X6.617 Y9.544 Z-0.868
X6.619 Y9.493 Z-0.875
X6.625 Y9.293 F120
G3 X6.832 Y9.099 I0.2 J0.006
G2 X6.864 Y9.1 I0.032 J-0.999 F240
G1 X10.586
G2 X11.29 Y8.81 I0 J-1
X11 Y9.514 I0.71 J0.705
G1 Y26.686
G2 X11.29 Y27.39 I1 J0
X10.586 Y27.1 I-0.704 J0.71
G1 X6.864
G2 X6.16 Y27.39 I0 J1
X6.45 Y26.686 I-0.71 J-0.705
G1 Y9.514
G2 X6.159 Y8.809 I-1 J0
X6.832 Y9.099 I0.706 J-0.709
G3 X7.025 Y9.306 I-0.006 J0.2 F480
G1 X7.019 Y9.506
X7.017 Y9.557 Z-0.868
X7.015 Y9.606 Z-0.848
X7.014 Y9.647 Z-0.816
X7.013 Y9.679 Z-0.775
X7.012 Y9.699 Z-0.727
Y9.706 Z-0.675
X6.612 Y9.693 F240
Z-1.55 F60
X6.613 Y9.686 Z-1.602
Y9.666 Z-1.65
X6.614 Y9.634 Z-1.691
X6.616 Y9.593 Z-1.723
X6.617 Y9.544 Z-1.743
X6.619 Y9.493 Z-1.75
X6.625 Y9.293 F120
G3 X6.832 Y9.099 I0.2 J0.006
G2 X6.864 Y9.1 I0.032 J-0.999 F240
G1 X10.586
G2 X11.29 Y8.81 I0 J-1
X11 Y9.514 I0.71 J0.705
G1 Y26.686
G2 X11.29 Y27.39 I1 J0
X10.586 Y27.1 I-0.704 J0.71
G1 X6.864
G2 X6.16 Y27.39 I0 J1
X6.45 Y26.686 I-0.71 J-0.705
G1 Y9.514
G2 X6.159 Y8.809 I-1 J0
X6.832 Y9.099 I0.706 J-0.709
G3 X7.025 Y9.306 I-0.006 J0.2 F480
G1 X7.019 Y9.506
X7.017 Y9.557 Z-1.743
X7.015 Y9.606 Z-1.723
X7.014 Y9.647 Z-1.691
X7.013 Y9.679 Z-1.65
X7.012 Y9.699 Z-1.602
Y9.706 Z-1.55
X6.612 Y9.693 F240
Z-2.425 F60
X6.613 Y9.686 Z-2.477
Y9.666 Z-2.525
X6.614 Y9.634 Z-2.566
X6.616 Y9.593 Z-2.598
X6.617 Y9.544 Z-2.618
X6.619 Y9.493 Z-2.625
X6.625 Y9.293 F120
G3 X6.832 Y9.099 I0.2 J0.006
G2 X6.864 Y9.1 I0.032 J-0.999 F240
G1 X10.586
G2 X11.29 Y8.81 I0 J-1
X11 Y9.514 I0.71 J0.705
G1 Y26.686
G2 X11.29 Y27.39 I1 J0
X10.586 Y27.1 I-0.704 J0.71
G1 X6.864
G2 X6.16 Y27.39 I0 J1
X6.45 Y26.686 I-0.71 J-0.705
G1 Y9.514
G2 X6.159 Y8.809 I-1 J0
X6.832 Y9.099 I0.706 J-0.709
G3 X7.025 Y9.306 I-0.006 J0.2 F480
G1 X7.019 Y9.506
X7.017 Y9.557 Z-2.618
X7.015 Y9.606 Z-2.598
X7.014 Y9.647 Z-2.566
X7.013 Y9.679 Z-2.525
X7.012 Y9.699 Z-2.477
Y9.706 Z-2.425
X6.612 Y9.693 F240
Z-3.3 F60
X6.613 Y9.686 Z-3.352
Y9.666 Z-3.4
X6.614 Y9.634 Z-3.441
X6.616 Y9.593 Z-3.473
X6.617 Y9.544 Z-3.493
X6.619 Y9.493 Z-3.5
X6.625 Y9.293 F120
G3 X6.832 Y9.099 I0.2 J0.006
G2 X6.864 Y9.1 I0.032 J-0.999 F240
G1 X10.586
G2 X11.29 Y8.81 I0 J-1
X11 Y9.514 I0.71 J0.705
G1 Y26.686
G2 X11.29 Y27.39 I1 J0
X10.586 Y27.1 I-0.704 J0.71
G1 X6.864
G2 X6.16 Y27.39 I0 J1
X6.45 Y26.686 I-0.71 J-0.705
G1 Y9.514
G2 X6.159 Y8.809 I-1 J0
X6.832 Y9.099 I0.706 J-0.709
G3 X7.025 Y9.306 I-0.006 J0.2 F480
G1 X7.019 Y9.506
X7.017 Y9.557 Z-3.493
X7.015 Y9.606 Z-3.473
X7.014 Y9.647 Z-3.441
X7.013 Y9.679 Z-3.4
X7.012 Y9.699 Z-3.352
Y9.706 Z-3.3
G0 Z5
X6.614 Y55.093
Z2
G1 Z-0.675 F60
Y55.086 Z-0.727
X6.615 Y55.066 Z-0.775
X6.616 Y55.034 Z-0.816
X6.617 Y54.993 Z-0.848
X6.619 Y54.945 Z-0.868
X6.62 Y54.893 Z-0.875
X6.627 Y54.693 F120
G3 X6.833 Y54.5 I0.2 J0.006
G2 X6.864 I0.031 J-1 F240
G1 X10.586
G2 X11.29 Y54.21 I0 J-1
X11 Y54.914 I0.71 J0.704
G1 Y72.086
G2 X11.29 Y72.79 I1 J0
X10.586 Y72.5 I-0.704 J0.71
G1 X6.864
G2 X6.16 Y72.79 I0 J1
X6.45 Y72.086 I-0.71 J-0.705
G1 Y54.914
G2 X6.16 Y54.21 I-1 J0
X6.833 Y54.5 I0.705 J-0.71
G3 X7.027 Y54.706 I-0.006 J0.2 F480
G1 X7.02 Y54.906
X7.019 Y54.957 Z-0.868
X7.017 Y55.006 Z-0.848
X7.016 Y55.047 Z-0.816
X7.015 Y55.079 Z-0.775
X7.014 Y55.099 Z-0.727
Y55.105 Z-0.675
X6.614 Y55.093 F240
Z-1.55 F60
Y55.086 Z-1.602
X6.615 Y55.066 Z-1.65
X6.616 Y55.034 Z-1.691
X6.617 Y54.993 Z-1.723
X6.619 Y54.945 Z-1.743
X6.62 Y54.893 Z-1.75
X6.627 Y54.693 F120
G3 X6.833 Y54.5 I0.2 J0.006
G2 X6.864 I0.031 J-1 F240
G1 X10.586
G2 X11.29 Y54.21 I0 J-1
X11 Y54.914 I0.71 J0.704
G1 Y72.086
G2 X11.29 Y72.79 I1 J0
X10.586 Y72.5 I-0.704 J0.71
G1 X6.864
G2 X6.16 Y72.79 I0 J1
X6.45 Y72.086 I-0.71 J-0.705
G1 Y54.914
G2 X6.16 Y54.21 I-1 J0
X6.833 Y54.5 I0.705 J-0.71
G3 X7.027 Y54.706 I-0.006 J0.2 F480
G1 X7.02 Y54.906
X7.019 Y54.957 Z-1.743
X7.017 Y55.006 Z-1.723
X7.016 Y55.047 Z-1.691
X7.015 Y55.079 Z-1.65
X7.014 Y55.099 Z-1.602
Y55.105 Z-1.55
X6.614 Y55.093 F240
Z-2.425 F60
Y55.086 Z-2.477
X6.615 Y55.066 Z-2.525
X6.616 Y55.034 Z-2.566
X6.617 Y54.993 Z-2.598
X6.619 Y54.945 Z-2.618
X6.62 Y54.893 Z-2.625
X6.627 Y54.693 F120
G3 X6.833 Y54.5 I0.2 J0.006
G2 X6.864 I0.031 J-1 F240
G1 X10.586
G2 X11.29 Y54.21 I0 J-1
X11 Y54.914 I0.71 J0.704
G1 Y72.086
G2 X11.29 Y72.79 I1 J0
X10.586 Y72.5 I-0.704 J0.71
G1 X6.864
G2 X6.16 Y72.79 I0 J1
X6.45 Y72.086 I-0.71 J-0.705
G1 Y54.914
G2 X6.16 Y54.21 I-1 J0
X6.833 Y54.5 I0.705 J-0.71
G3 X7.027 Y54.706 I-0.006 J0.2 F480
G1 X7.02 Y54.906
X7.019 Y54.957 Z-2.618
X7.017 Y55.006 Z-2.598
X7.016 Y55.047 Z-2.566
X7.015 Y55.079 Z-2.525
X7.014 Y55.099 Z-2.477
Y55.105 Z-2.425
X6.614 Y55.093 F240
Z-3.3 F60
Y55.086 Z-3.352
X6.615 Y55.066 Z-3.4
X6.616 Y55.034 Z-3.441
X6.617 Y54.993 Z-3.473
X6.619 Y54.945 Z-3.493
X6.62 Y54.893 Z-3.5
X6.627 Y54.693 F120
G3 X6.833 Y54.5 I0.2 J0.006
G2 X6.864 I0.031 J-1 F240
G1 X10.586
G2 X11.29 Y54.21 I0 J-1
X11 Y54.914 I0.71 J0.704
G1 Y72.086
G2 X11.29 Y72.79 I1 J0
X10.586 Y72.5 I-0.704 J0.71
G1 X6.864
G2 X6.16 Y72.79 I0 J1
X6.45 Y72.086 I-0.71 J-0.705
G1 Y54.914
G2 X6.16 Y54.21 I-1 J0
X6.833 Y54.5 I0.705 J-0.71
G3 X7.027 Y54.706 I-0.006 J0.2 F480
G1 X7.02 Y54.906
X7.019 Y54.957 Z-3.493
X7.017 Y55.006 Z-3.473
X7.016 Y55.047 Z-3.441
X7.015 Y55.079 Z-3.4
X7.014 Y55.099 Z-3.352
Y55.105 Z-3.3
G0 Z15

M9
M30
