(FRAME-FRONT-INNER)
(T11  D=2 CR=0 - ZMIN=-2.6 - FLAT END MILL)
G90 G94 G91.1 G40 G49 G17
G21

(POCKETS)
M5
M9
T11
(DIAMOND OR SPIRAL)
S16000 M3
G54
M8
G0 X11.621 Y47.657
G43 Z15 H1
Z5
G1 Z0.699 F120
G3 X11.631 Y47.679 Z0.604 I-0.865 J0.393 F60
X11.654 Y47.741 Z0.532 I-0.875 J0.371
X11.68 Y47.83 Z0.5 I-0.898 J0.309
X9.832 Y48.27 Z0.239 I-0.924 J0.22
X11.68 Y47.83 Z-0.022 I0.924 J-0.22
X9.832 Y48.27 Z-0.283 I-0.924 J0.22
X11.68 Y47.83 Z-0.544 I0.924 J-0.22
X10.867 Y48.994 Z-0.685 I-0.924 J0.22
X9.806 Y48.05 Z-0.825 I-0.111 J-0.944
G1 Y33.025 F240
G3 X10.125 Y32.706 I0.319 J0
G1 X11.179
G3 X11.494 Y33.021 I0 J0.315
G1 Y48.579
G3 X11.179 Y48.894 I-0.315 J0
G1 X10.125
G3 X9.806 Y48.575 I0 J-0.319
G1 Y48.05
G2 X9.356 Y47.375 I-0.731 J0
G3 X8.906 Y46.7 I0.281 J-0.675
G1 Y32.125
G3 X9.225 Y31.806 I0.319 J0
G1 X11.352
G3 X11.926 Y31.985 I0 J1.007
G2 X12.063 Y32.077 I2.624 J-3.785
G3 X12.394 Y32.683 I-0.389 J0.606
G1 Y48.917
G3 X12.063 Y49.523 I-0.72 J0
G2 X11.926 Y49.615 I2.487 J3.877
G3 X11.352 Y49.794 I-0.574 J-0.828
G1 X9.225
G3 X8.906 Y49.475 I0 J-0.319
G1 Y46.7
G2 X8.456 Y46.025 I-0.731 J0
G3 X8.006 Y45.35 I0.281 J-0.675
G1 Y31.085
G3 X8.303 Y30.84 I0.25 J0
G2 X9.863 Y30.947 I1.221 J-6.374
G3 X11.426 Y30.906 I1.563 J29.884
X12.398 Y31.217 I0 J1.675
G2 X12.968 Y31.552 I2.152 J-3.017
G3 X13.294 Y32.065 I-0.243 J0.514
G1 Y49.535
G3 X12.968 Y50.049 I-0.568 J0
G2 X12.398 Y50.383 I1.582 J3.352
G3 X11.426 Y50.694 I-0.973 J-1.364
X9.854 Y50.653 I0 J-29.828
G2 X8.287 Y50.763 I-0.337 J6.386
G3 X8.006 Y50.532 I-0.045 J-0.231
G1 Y45.35
G2 X7.556 Y44.675 I-0.731 J0
G3 X7.106 Y44 I0.281 J-0.675
G1 Y29.612
G3 X7.364 Y29.479 I0.163 J0
G2 X8.137 Y29.893 I1.951 J-2.719
X9 Y30.05 I0.863 J-2.294
X10.446 Y30.028 I0 J-47.43
G3 X11.892 Y30.006 I1.446 J47.408
X12.7 Y30.31 I0 J1.226
G2 X13.884 Y30.926 I1.85 J-2.11
G3 X14.194 Y31.32 I-0.096 J0.395
G1 Y50.28
G3 X13.884 Y50.674 I-0.406 J0
G2 X12.7 Y51.29 I0.666 J2.726
G3 X11.892 Y51.594 I-0.808 J-0.922
X10.446 Y51.572 I0 J-47.43
G2 X9 Y51.55 I-1.446 J47.408
X8.145 Y51.704 I0 J2.445
X7.377 Y52.111 I1.175 J3.146
G3 X7.106 Y51.971 I-0.099 J-0.14
G1 Y44
G2 X6.655 Y43.324 I-0.732 J0
G3 X6.205 Y42.648 I0.282 J-0.676
G1 Y10.424
G3 X6.524 Y10.105 I0.319 J0
G1 X6.776
G3 X7.095 Y10.424 I0 J0.319
G1 X7.05 Y27.2
G2 X9 Y29.15 I1.95 J0
X10.716 Y29.128 I0 J-65.454
G3 X12.432 Y29.105 I1.716 J65.431
X13.079 Y29.41 I0 J0.838
G2 X13.736 Y29.926 I1.5 J-1.234
X14.55 Y30.112 I0.814 J-1.69
X14.663 Y30.109 I0 J-1.807
G3 X14.776 Y30.105 I0.113 J1.803
X15.095 Y30.424 I0 J0.319
G1 Y51.176
G3 X14.776 Y51.495 I-0.319 J0
X14.663 Y51.491 I0 J-1.807
G2 X14.55 Y51.488 I-0.113 J1.803
X13.736 Y51.674 I0 J1.876
X13.079 Y52.19 I0.843 J1.75
G3 X12.432 Y52.495 I-0.647 J-0.532
X10.716 Y52.472 I0 J-65.454
G2 X9 Y52.45 I-1.716 J65.431
X7.05 Y54.4 I0 J1.95
G1 X7.095 Y71.176
G3 X6.776 Y71.495 I-0.319 J0
G1 X6.524
G3 X6.205 Y71.176 I0 J-0.319
G1 Y42.648
G2 X5.753 Y41.97 I-0.735 J0
G3 X5.3 Y41.291 I0.283 J-0.679
G1 Y9.614
G2 X5.009 Y8.909 I-1 J0
X5.714 Y9.2 I0.706 J-0.709
G1 X8
Y27.2
G2 X9 Y28.2 I1 J0
G1 X13.55
G2 X14.55 Y29.2 I1 J0
G1 X16
Y52.4
X14.55
G2 X13.55 Y53.4 I0 J1
G1 X9
G2 X8 Y54.4 I0 J1
G1 Y72.4
X5.714
G2 X5.01 Y72.69 I0 J1
X5.3 Y71.986 I-0.71 J-0.705
G1 Y41.291
G3 X7.195 Y41.194 Z-1 I0.95 J0 F60
G1 X7.911 Y48.147 Z-1.425
G2 X9.806 Y48.05 Z-1.6 I0.945 J-0.097
G1 Y33.025 F240
G3 X10.125 Y32.706 I0.319 J0
G1 X11.179
G3 X11.494 Y33.021 I0 J0.315
G1 Y48.579
G3 X11.179 Y48.894 I-0.315 J0
G1 X10.125
G3 X9.806 Y48.575 I0 J-0.319
G1 Y48.05
G2 X9.356 Y47.375 I-0.731 J0
G3 X8.906 Y46.7 I0.281 J-0.675
G1 Y32.125
G3 X9.225 Y31.806 I0.319 J0
G1 X11.352
G3 X11.926 Y31.985 I0 J1.007
G2 X12.063 Y32.077 I2.624 J-3.785
G3 X12.394 Y32.683 I-0.389 J0.606
G1 Y48.917
G3 X12.063 Y49.523 I-0.72 J0
G2 X11.926 Y49.615 I2.487 J3.877
G3 X11.352 Y49.794 I-0.574 J-0.828
G1 X9.225
G3 X8.906 Y49.475 I0 J-0.319
G1 Y46.7
G2 X8.456 Y46.025 I-0.731 J0
G3 X8.006 Y45.35 I0.281 J-0.675
G1 Y31.085
G3 X8.303 Y30.84 I0.25 J0
G2 X9.863 Y30.947 I1.221 J-6.374
G3 X11.426 Y30.906 I1.563 J29.884
X12.398 Y31.217 I0 J1.675
G2 X12.968 Y31.552 I2.152 J-3.017
G3 X13.294 Y32.065 I-0.243 J0.514
G1 Y49.535
G3 X12.968 Y50.049 I-0.568 J0
G2 X12.398 Y50.383 I1.582 J3.352
G3 X11.426 Y50.694 I-0.973 J-1.364
X9.854 Y50.653 I0 J-29.828
G2 X8.287 Y50.763 I-0.337 J6.386
G3 X8.006 Y50.532 I-0.045 J-0.231
G1 Y45.35
G2 X7.556 Y44.675 I-0.731 J0
G3 X7.106 Y44 I0.281 J-0.675
G1 Y29.612
G3 X7.364 Y29.479 I0.163 J0
G2 X8.137 Y29.893 I1.951 J-2.719
X9 Y30.05 I0.863 J-2.294
X10.446 Y30.028 I0 J-47.43
G3 X11.892 Y30.006 I1.446 J47.408
X12.7 Y30.31 I0 J1.226
G2 X13.884 Y30.926 I1.85 J-2.11
G3 X14.194 Y31.32 I-0.096 J0.395
G1 Y50.28
G3 X13.884 Y50.674 I-0.406 J0
G2 X12.7 Y51.29 I0.666 J2.726
G3 X11.892 Y51.594 I-0.808 J-0.922
X10.446 Y51.572 I0 J-47.43
G2 X9 Y51.55 I-1.446 J47.408
X8.145 Y51.704 I0 J2.445
X7.377 Y52.111 I1.175 J3.146
G3 X7.106 Y51.971 I-0.099 J-0.14
G1 Y44
G2 X6.655 Y43.324 I-0.732 J0
G3 X6.205 Y42.648 I0.282 J-0.676
G1 Y10.424
G3 X6.524 Y10.105 I0.319 J0
G1 X6.776
G3 X7.095 Y10.424 I0 J0.319
G1 X7.05 Y27.2
G2 X9 Y29.15 I1.95 J0
X10.716 Y29.128 I0 J-65.454
G3 X12.432 Y29.105 I1.716 J65.431
X13.079 Y29.41 I0 J0.838
G2 X13.736 Y29.926 I1.5 J-1.234
X14.55 Y30.112 I0.814 J-1.69
X14.663 Y30.109 I0 J-1.807
G3 X14.776 Y30.105 I0.113 J1.803
X15.095 Y30.424 I0 J0.319
G1 Y51.176
G3 X14.776 Y51.495 I-0.319 J0
X14.663 Y51.491 I0 J-1.807
G2 X14.55 Y51.488 I-0.113 J1.803
X13.736 Y51.674 I0 J1.876
X13.079 Y52.19 I0.843 J1.75
G3 X12.432 Y52.495 I-0.647 J-0.532
X10.716 Y52.472 I0 J-65.454
G2 X9 Y52.45 I-1.716 J65.431
X7.05 Y54.4 I0 J1.95
G1 X7.095 Y71.176
G3 X6.776 Y71.495 I-0.319 J0
G1 X6.524
G3 X6.205 Y71.176 I0 J-0.319
G1 Y42.648
G2 X5.753 Y41.97 I-0.735 J0
G3 X5.3 Y41.291 I0.283 J-0.679
G1 Y9.614
G2 X5.009 Y8.909 I-1 J0
X5.714 Y9.2 I0.706 J-0.709
G1 X8
Y27.2
G2 X9 Y28.2 I1 J0
G1 X13.55
G2 X14.55 Y29.2 I1 J0
G1 X16
Y52.4
X14.55
G2 X13.55 Y53.4 I0 J1
G1 X9
G2 X8 Y54.4 I0 J1
G1 Y72.4
X5.714
G2 X5.01 Y72.69 I0 J1
X5.3 Y71.986 I-0.71 J-0.705
G1 Y41.291
G3 X5.324 Y41.195 Z-1.573 I0.2 J0 F480
X5.37 Y41.139 Z-1.5 I0.176 J0.096
X5.392 Y41.123 Z-1.4 I0.13 J0.152
G0 Z15
X12.293 Y42.12
Z5
G1 Z0.699 F120
G3 X12.271 Y42.13 Z0.604 I-0.393 J-0.865 F60
X12.209 Y42.153 Z0.532 I-0.371 J-0.875
X12.12 Y42.179 Z0.5 I-0.309 J-0.898
X11.68 Y40.331 Z0.239 I-0.22 J-0.924
X12.12 Y42.179 Z-0.022 I0.22 J0.924
X11.68 Y40.331 Z-0.283 I-0.22 J-0.924
X12.12 Y42.179 Z-0.544 I0.22 J0.924
X10.956 Y41.366 Z-0.685 I-0.22 J-0.924
X11.9 Y40.305 Z-0.825 I0.944 J-0.111
G1 X12.076 F240
G3 X12.395 Y40.624 I0 J0.319
G1 Y40.976
G3 X12.076 Y41.295 I-0.319 J0
G1 X9.224
G3 X8.905 Y40.976 I0 J-0.319
G1 Y40.624
G3 X9.224 Y40.305 I0.319 J0
G1 X11.9
G2 X12.57 Y39.95 I0 J-0.809
G3 X13.295 Y40.172 I0.328 J0.222
G1 Y41.876
G3 X12.976 Y42.195 I-0.319 J0
G1 X8.324
G3 X8.005 Y41.876 I0 J-0.319
G1 Y39.724
G3 X8.324 Y39.405 I0.319 J0
G1 X12.976
G3 X13.295 Y39.724 I0 J0.319
G1 Y40.172
G2 X13.745 Y40.847 I0.731 J0
G3 X14.195 Y41.522 I-0.281 J0.675
G1 Y42.776
G3 X13.876 Y43.095 I-0.319 J0
G1 X7.424
G3 X7.105 Y42.776 I0 J-0.319
G1 Y38.824
G3 X7.424 Y38.505 I0.319 J0
G1 X13.876
G3 X14.195 Y38.824 I0 J0.319
G1 Y41.522
G2 X14.645 Y42.197 I0.731 J0
G3 X15.095 Y42.872 I-0.281 J0.675
G1 Y43.676
G3 X14.776 Y43.995 I-0.319 J0
G1 X6.524
G3 X6.205 Y43.676 I0 J-0.319
G1 Y37.924
G3 X6.524 Y37.605 I0.319 J0
G1 X14.776
G3 X15.095 Y37.924 I0 J0.319
G1 Y42.872
G2 X15.547 Y43.551 I0.735 J0
G3 X16 Y44.23 I-0.283 J0.679
G1 Y44.9
X5.3
Y36.7
X16
Y44.23
G3 X15.681 Y44.391 I-0.2 J0
G1 X12.571 Y42.102
G2 X12.357 Y42.088 I-0.119 J0.161
G3 X11.443 Y40.422 Z-1.086 I-0.457 J-0.833 F60
X12.357 Y42.088 Z-1.347 I0.457 J0.833
X11.443 Y40.422 Z-1.608 I-0.457 J-0.833
X11.9 Y40.305 Z-1.65 I0.457 J0.833
G1 X12.076 F240
G3 X12.395 Y40.624 I0 J0.319
G1 Y40.976
G3 X12.076 Y41.295 I-0.319 J0
G1 X9.224
G3 X8.905 Y40.976 I0 J-0.319
G1 Y40.624
G3 X9.224 Y40.305 I0.319 J0
G1 X11.9
G2 X12.57 Y39.95 I0 J-0.809
G3 X13.295 Y40.172 I0.328 J0.222
G1 Y41.876
G3 X12.976 Y42.195 I-0.319 J0
G1 X8.324
G3 X8.005 Y41.876 I0 J-0.319
G1 Y39.724
G3 X8.324 Y39.405 I0.319 J0
G1 X12.976
G3 X13.295 Y39.724 I0 J0.319
G1 Y40.172
G2 X13.745 Y40.847 I0.731 J0
G3 X14.195 Y41.522 I-0.281 J0.675
G1 Y42.776
G3 X13.876 Y43.095 I-0.319 J0
G1 X7.424
G3 X7.105 Y42.776 I0 J-0.319
G1 Y38.824
G3 X7.424 Y38.505 I0.319 J0
G1 X13.876
G3 X14.195 Y38.824 I0 J0.319
G1 Y41.522
G2 X14.645 Y42.197 I0.731 J0
G3 X15.095 Y42.872 I-0.281 J0.675
G1 Y43.676
G3 X14.776 Y43.995 I-0.319 J0
G1 X6.524
G3 X6.205 Y43.676 I0 J-0.319
G1 Y37.924
G3 X6.524 Y37.605 I0.319 J0
G1 X14.776
G3 X15.095 Y37.924 I0 J0.319
G1 Y42.872
G2 X15.547 Y43.551 I0.735 J0
G3 X16 Y44.23 I-0.283 J0.679
G1 Y44.9
X5.3
Y36.7
X16
Y44.23
G3 X14.868 Y44.716 Z-1.744 I-0.67 J0 F60
G1 X11.439 Y41.462 Z-2.029
G3 X11.9 Y40.305 Z-2.125 I0.461 J-0.486
G1 X12.076 F240
G3 X12.395 Y40.624 I0 J0.319
G1 Y40.976
G3 X12.076 Y41.295 I-0.319 J0
G1 X9.224
G3 X8.905 Y40.976 I0 J-0.319
G1 Y40.624
G3 X9.224 Y40.305 I0.319 J0
G1 X11.9
G2 X12.57 Y39.95 I0 J-0.809
G3 X13.295 Y40.172 I0.328 J0.222
G1 Y41.876
G3 X12.976 Y42.195 I-0.319 J0
G1 X8.324
G3 X8.005 Y41.876 I0 J-0.319
G1 Y39.724
G3 X8.324 Y39.405 I0.319 J0
G1 X12.976
G3 X13.295 Y39.724 I0 J0.319
G1 Y40.172
G2 X13.745 Y40.847 I0.731 J0
G3 X14.195 Y41.522 I-0.281 J0.675
G1 Y42.776
G3 X13.876 Y43.095 I-0.319 J0
G1 X7.424
G3 X7.105 Y42.776 I0 J-0.319
G1 Y38.824
G3 X7.424 Y38.505 I0.319 J0
G1 X13.876
G3 X14.195 Y38.824 I0 J0.319
G1 Y41.522
G2 X14.645 Y42.197 I0.731 J0
G3 X15.095 Y42.872 I-0.281 J0.675
G1 Y43.676
G3 X14.776 Y43.995 I-0.319 J0
G1 X6.524
G3 X6.205 Y43.676 I0 J-0.319
G1 Y37.924
G3 X6.524 Y37.605 I0.319 J0
G1 X14.776
G3 X15.095 Y37.924 I0 J0.319
G1 Y42.872
G2 X15.547 Y43.551 I0.735 J0
G3 X16 Y44.23 I-0.283 J0.679
G1 Y44.9
X5.3
Y36.7
X16
Y44.23
G3 X14.868 Y44.716 Z-2.219 I-0.67 J0 F60
G1 X11.439 Y41.462 Z-2.504
G3 X11.9 Y40.305 Z-2.6 I0.461 J-0.486
G1 X12.076 F240
G3 X12.395 Y40.624 I0 J0.319
G1 Y40.976
G3 X12.076 Y41.295 I-0.319 J0
G1 X9.224
G3 X8.905 Y40.976 I0 J-0.319
G1 Y40.624
G3 X9.224 Y40.305 I0.319 J0
G1 X11.9
G2 X12.57 Y39.95 I0 J-0.809
G3 X13.295 Y40.172 I0.328 J0.222
G1 Y41.876
G3 X12.976 Y42.195 I-0.319 J0
G1 X8.324
G3 X8.005 Y41.876 I0 J-0.319
G1 Y39.724
G3 X8.324 Y39.405 I0.319 J0
G1 X12.976
G3 X13.295 Y39.724 I0 J0.319
G1 Y40.172
G2 X13.745 Y40.847 I0.731 J0
G3 X14.195 Y41.522 I-0.281 J0.675
G1 Y42.776
G3 X13.876 Y43.095 I-0.319 J0
G1 X7.424
G3 X7.105 Y42.776 I0 J-0.319
G1 Y38.824
G3 X7.424 Y38.505 I0.319 J0
G1 X13.876
G3 X14.195 Y38.824 I0 J0.319
G1 Y41.522
G2 X14.645 Y42.197 I0.731 J0
G3 X15.095 Y42.872 I-0.281 J0.675
G1 Y43.676
G3 X14.776 Y43.995 I-0.319 J0
G1 X6.524
G3 X6.205 Y43.676 I0 J-0.319
G1 Y37.924
G3 X6.524 Y37.605 I0.319 J0
G1 X14.776
G3 X15.095 Y37.924 I0 J0.319
G1 Y42.872
G2 X15.547 Y43.551 I0.735 J0
G3 X16 Y44.23 I-0.283 J0.679
G1 Y44.9
X5.3
Y36.7
X16
Y44.23
G3 X15.976 Y44.325 Z-2.573 I-0.2 J0 F480
X15.93 Y44.382 Z-2.5 I-0.176 J-0.096
X15.908 Y44.398 Z-2.4 I-0.13 J-0.152
G0 Z15

(BOTTOM CONTOUR)
M8
G0 X-1.6 Y1.1
Z15
Z5
G1 Z2 F60
Z-0.55
X-1.593 Z-0.602
X-1.573 Z-0.65
X-1.541 Z-0.691
X-1.5 Z-0.723
X-1.452 Z-0.743
X-1.4 Z-0.75
X-1.2 F120
G3 X-1 Y1.3 I0 J0.2
G1 Y35.8 F240
G2 X0 Y36.8 I1 J0
G1 Y44.8
G2 X-1 Y45.8 I0 J1
G1 Y80.3
G3 X-1.2 Y80.5 I-0.2 J0 F480
G1 X-1.4
X-1.452 Z-0.743
X-1.5 Z-0.723
X-1.541 Z-0.691
X-1.573 Z-0.65
X-1.593 Z-0.602
X-1.6 Z-0.55
G0 Z5
Y1.1
G1 Z1.25 F60
Z-1.3
X-1.593 Z-1.352
X-1.573 Z-1.4
X-1.541 Z-1.441
X-1.5 Z-1.473
X-1.452 Z-1.493
X-1.4 Z-1.5
X-1.2 F120
G3 X-1 Y1.3 I0 J0.2
G1 Y35.8 F240
G2 X0 Y36.8 I1 J0
G1 Y44.8
G2 X-1 Y45.8 I0 J1
G1 Y80.3
G3 X-1.2 Y80.5 I-0.2 J0 F480
G1 X-1.4
X-1.452 Z-1.493
X-1.5 Z-1.473
X-1.541 Z-1.441
X-1.573 Z-1.4
X-1.593 Z-1.352
X-1.6 Z-1.3
G0 Z15

M9
M30
