(FRAME-FRONT-INNER)
(T11  D=2 CR=0 - ZMIN=-2.6 - FLAT END MILL)
G90 G94 G91.1 G40 G49 G17
G21

(DEEP POCKET)
M5
M9
T11
(DIAMOND OR SPIRAL)
S16000 M3
G54
M8
G0 X12.293 Y42.12
G43 Z15 H1
Z5
G1 Z0.699 F120
G3 X12.271 Y42.13 Z0.604 I-0.393 J-0.865 F60
X12.209 Y42.153 Z0.532 I-0.371 J-0.875
X12.12 Y42.179 Z0.5 I-0.309 J-0.898
X11.68 Y40.331 Z0.239 I-0.22 J-0.924
X12.12 Y42.179 Z-0.022 I0.22 J0.924
X11.68 Y40.331 Z-0.283 I-0.22 J-0.924
X12.12 Y42.179 Z-0.544 I0.22 J0.924
X10.956 Y41.366 Z-0.685 I-0.22 J-0.924
X11.9 Y40.305 Z-0.825 I0.944 J-0.111
G1 X12.076 F240
G3 X12.395 Y40.624 I0 J0.319
G1 Y40.976
G3 X12.076 Y41.295 I-0.319 J0
G1 X9.224
G3 X8.905 Y40.976 I0 J-0.319
G1 Y40.624
G3 X9.224 Y40.305 I0.319 J0
G1 X11.9
G2 X12.57 Y39.95 I0 J-0.809
G3 X13.295 Y40.172 I0.328 J0.222
G1 Y41.876
G3 X12.976 Y42.195 I-0.319 J0
G1 X8.324
G3 X8.005 Y41.876 I0 J-0.319
G1 Y39.724
G3 X8.324 Y39.405 I0.319 J0
G1 X12.976
G3 X13.295 Y39.724 I0 J0.319
G1 Y40.172
G2 X13.745 Y40.847 I0.731 J0
G3 X14.195 Y41.522 I-0.281 J0.675
G1 Y42.776
G3 X13.876 Y43.095 I-0.319 J0
G1 X7.424
G3 X7.105 Y42.776 I0 J-0.319
G1 Y38.824
G3 X7.424 Y38.505 I0.319 J0
G1 X13.876
G3 X14.195 Y38.824 I0 J0.319
G1 Y41.522
G2 X14.645 Y42.197 I0.731 J0
G3 X15.095 Y42.872 I-0.281 J0.675
G1 Y43.676
G3 X14.776 Y43.995 I-0.319 J0
G1 X6.524
G3 X6.205 Y43.676 I0 J-0.319
G1 Y37.924
G3 X6.524 Y37.605 I0.319 J0
G1 X14.776
G3 X15.095 Y37.924 I0 J0.319
G1 Y42.872
G2 X15.547 Y43.551 I0.735 J0
G3 X16 Y44.23 I-0.283 J0.679
G1 Y44.9
X5.3
Y36.7
X16
Y44.23
G3 X15.681 Y44.391 I-0.2 J0
G1 X12.571 Y42.102
G2 X12.357 Y42.088 I-0.119 J0.161
G3 X11.443 Y40.422 Z-1.086 I-0.457 J-0.833 F60
X12.357 Y42.088 Z-1.347 I0.457 J0.833
X11.443 Y40.422 Z-1.608 I-0.457 J-0.833
X11.9 Y40.305 Z-1.65 I0.457 J0.833
G1 X12.076 F240
G3 X12.395 Y40.624 I0 J0.319
G1 Y40.976
G3 X12.076 Y41.295 I-0.319 J0
G1 X9.224
G3 X8.905 Y40.976 I0 J-0.319
G1 Y40.624
G3 X9.224 Y40.305 I0.319 J0
G1 X11.9
G2 X12.57 Y39.95 I0 J-0.809
G3 X13.295 Y40.172 I0.328 J0.222
G1 Y41.876
G3 X12.976 Y42.195 I-0.319 J0
G1 X8.324
G3 X8.005 Y41.876 I0 J-0.319
G1 Y39.724
G3 X8.324 Y39.405 I0.319 J0
G1 X12.976
G3 X13.295 Y39.724 I0 J0.319
G1 Y40.172
G2 X13.745 Y40.847 I0.731 J0
G3 X14.195 Y41.522 I-0.281 J0.675
G1 Y42.776
G3 X13.876 Y43.095 I-0.319 J0
G1 X7.424
G3 X7.105 Y42.776 I0 J-0.319
G1 Y38.824
G3 X7.424 Y38.505 I0.319 J0
G1 X13.876
G3 X14.195 Y38.824 I0 J0.319
G1 Y41.522
G2 X14.645 Y42.197 I0.731 J0
G3 X15.095 Y42.872 I-0.281 J0.675
G1 Y43.676
G3 X14.776 Y43.995 I-0.319 J0
G1 X6.524
G3 X6.205 Y43.676 I0 J-0.319
G1 Y37.924
G3 X6.524 Y37.605 I0.319 J0
G1 X14.776
G3 X15.095 Y37.924 I0 J0.319
G1 Y42.872
G2 X15.547 Y43.551 I0.735 J0
G3 X16 Y44.23 I-0.283 J0.679
G1 Y44.9
X5.3
Y36.7
X16
Y44.23
G3 X14.868 Y44.716 Z-1.744 I-0.67 J0 F60
G1 X11.439 Y41.462 Z-2.029
G3 X11.9 Y40.305 Z-2.125 I0.461 J-0.486
G1 X12.076 F240
G3 X12.395 Y40.624 I0 J0.319
G1 Y40.976
G3 X12.076 Y41.295 I-0.319 J0
G1 X9.224
G3 X8.905 Y40.976 I0 J-0.319
G1 Y40.624
G3 X9.224 Y40.305 I0.319 J0
G1 X11.9
G2 X12.57 Y39.95 I0 J-0.809
G3 X13.295 Y40.172 I0.328 J0.222
G1 Y41.876
G3 X12.976 Y42.195 I-0.319 J0
G1 X8.324
G3 X8.005 Y41.876 I0 J-0.319
G1 Y39.724
G3 X8.324 Y39.405 I0.319 J0
G1 X12.976
G3 X13.295 Y39.724 I0 J0.319
G1 Y40.172
G2 X13.745 Y40.847 I0.731 J0
G3 X14.195 Y41.522 I-0.281 J0.675
G1 Y42.776
G3 X13.876 Y43.095 I-0.319 J0
G1 X7.424
G3 X7.105 Y42.776 I0 J-0.319
G1 Y38.824
G3 X7.424 Y38.505 I0.319 J0
G1 X13.876
G3 X14.195 Y38.824 I0 J0.319
G1 Y41.522
G2 X14.645 Y42.197 I0.731 J0
G3 X15.095 Y42.872 I-0.281 J0.675
G1 Y43.676
G3 X14.776 Y43.995 I-0.319 J0
G1 X6.524
G3 X6.205 Y43.676 I0 J-0.319
G1 Y37.924
G3 X6.524 Y37.605 I0.319 J0
G1 X14.776
G3 X15.095 Y37.924 I0 J0.319
G1 Y42.872
G2 X15.547 Y43.551 I0.735 J0
G3 X16 Y44.23 I-0.283 J0.679
G1 Y44.9
X5.3
Y36.7
X16
Y44.23
G3 X14.868 Y44.716 Z-2.219 I-0.67 J0 F60
G1 X11.439 Y41.462 Z-2.504
G3 X11.9 Y40.305 Z-2.6 I0.461 J-0.486
G1 X12.076 F240
G3 X12.395 Y40.624 I0 J0.319
G1 Y40.976
G3 X12.076 Y41.295 I-0.319 J0
G1 X9.224
G3 X8.905 Y40.976 I0 J-0.319
G1 Y40.624
G3 X9.224 Y40.305 I0.319 J0
G1 X11.9
G2 X12.57 Y39.95 I0 J-0.809
G3 X13.295 Y40.172 I0.328 J0.222
G1 Y41.876
G3 X12.976 Y42.195 I-0.319 J0
G1 X8.324
G3 X8.005 Y41.876 I0 J-0.319
G1 Y39.724
G3 X8.324 Y39.405 I0.319 J0
G1 X12.976
G3 X13.295 Y39.724 I0 J0.319
G1 Y40.172
G2 X13.745 Y40.847 I0.731 J0
G3 X14.195 Y41.522 I-0.281 J0.675
G1 Y42.776
G3 X13.876 Y43.095 I-0.319 J0
G1 X7.424
G3 X7.105 Y42.776 I0 J-0.319
G1 Y38.824
G3 X7.424 Y38.505 I0.319 J0
G1 X13.876
G3 X14.195 Y38.824 I0 J0.319
G1 Y41.522
G2 X14.645 Y42.197 I0.731 J0
G3 X15.095 Y42.872 I-0.281 J0.675
G1 Y43.676
G3 X14.776 Y43.995 I-0.319 J0
G1 X6.524
G3 X6.205 Y43.676 I0 J-0.319
G1 Y37.924
G3 X6.524 Y37.605 I0.319 J0
G1 X14.776
G3 X15.095 Y37.924 I0 J0.319
G1 Y42.872
G2 X15.547 Y43.551 I0.735 J0
G3 X16 Y44.23 I-0.283 J0.679
G1 Y44.9
X5.3
Y36.7
X16
Y44.23
G3 X15.976 Y44.325 Z-2.573 I-0.2 J0 F480
X15.93 Y44.382 Z-2.5 I-0.176 J-0.096
X15.908 Y44.398 Z-2.4 I-0.13 J-0.152
G0 Z15

(SHALLOW POCKET)
M8
G0 X10.786 Y50.375
Z15
Z5
G1 Z0.699 F120
G3 X10.764 Y50.384 Z0.604 I-0.393 J-0.865 F60
X10.702 Y50.408 Z0.532 I-0.371 J-0.875
X10.614 Y50.434 Z0.5 I-0.309 J-0.898
X10.173 Y48.585 Z0.239 I-0.22 J-0.924
X10.614 Y50.434 Z-0.022 I0.22 J0.924
X10.173 Y48.585 Z-0.283 I-0.22 J-0.924
X10.614 Y50.434 Z-0.544 I0.22 J0.924
X9.45 Y49.62 Z-0.685 I-0.22 J-0.924
X10.393 Y48.559 Z-0.825 I0.944 J-0.111
G1 X13.021 F240
G3 X13.341 Y48.879 I0 J0.319
G1 Y49.61
G3 X12.994 Y50.035 I-0.434 J0
G2 X12.427 Y50.196 I0.811 J3.94
G3 X12.172 Y50.241 I-0.256 J-0.71
G1 X10.379
G3 X10.123 Y50.196 I0 J-0.754
G2 X8.222 Y49.976 I-1.419 J3.939
G3 X7.959 Y49.742 I-0.027 J-0.234
G1 Y48.879
G3 X8.279 Y48.559 I0.319 J0
G1 X10.393
G2 X11.068 Y48.109 I0 J-0.731
G3 X11.743 Y47.659 I0.675 J0.281
G1 X13.921
G3 X14.241 Y47.979 I0 J0.319
G1 Y50.315
G3 X13.925 Y50.712 I-0.407 J0
G2 X13.543 Y50.831 I0.625 J2.688
G3 X13.333 Y50.888 I-0.368 J-0.938
G2 X12.699 Y51.055 I0.508 J3.213
G3 X12.227 Y51.141 I-0.472 J-1.259
G1 X10.323
G3 X9.851 Y51.055 I0 J-1.345
G2 X7.31 Y51.162 I-1.144 J3.052
G3 X7.059 Y51.004 I-0.075 J-0.158
G1 Y47.979
G3 X7.379 Y47.659 I0.319 J0
G1 X11.743
G2 X12.419 Y47.209 I0 J-0.731
G3 X13.094 Y46.759 I0.675 J0.281
G1 X14.828
G3 X15.141 Y47.072 I0 J0.313
G1 Y51.228
G3 X14.828 Y51.541 I-0.313 J0
X14.689 Y51.536 I0 J-2.223
G2 X14.55 Y51.532 I-0.139 J2.219
X14.2 Y51.569 I0 J1.652
X13.864 Y51.672 I0.453 J2.09
G3 X13.488 Y51.775 I-0.649 J-1.635
G2 X13.022 Y51.895 I0.383 J2.443
G3 X12.208 Y52.041 I-0.814 J-2.201
G1 X10.342
G3 X9.528 Y51.895 I0 J-2.347
G2 X6.615 Y55.198 I-0.819 J2.214
G3 X6.641 Y55.304 I-0.205 J0.106
G1 Y71.31
G3 X6.41 Y71.541 I-0.231 J0
G1 X6.39
G3 X6.159 Y71.31 I0 J-0.231
G1 Y47.072
G3 X6.472 Y46.759 I0.313 J0
G1 X13.094
G2 X13.738 Y46.33 I0 J-0.698
G3 X14.383 Y45.9 I0.645 J0.269
G1 X16
Y52.4
X14.55
G2 X13.937 Y52.61 I0 J1
X12.952 Y52.9 I-0.094 J1.497
G1 X9.598
G2 X7.646 Y53.046 I-0.891 J1.207
X7.5 Y54.998 I1.061 J1.061
G1 Y71.802
G2 X7.236 Y72.4 I1.207 J0.89
G1 X5.714
G2 X5.01 Y72.69 I0 J1
X5.3 Y71.986 I-0.71 J-0.705
G1 Y45.9
X14.383
G3 X15.322 Y46.991 Z-0.95 I0 J0.95 F60
X14.103 Y47.758 Z-1.075 I-0.939 J-0.141
G1 X10.673 Y46.702 Z-1.35
G2 X9.454 Y47.468 Z-1.475 I-0.28 J0.908
X10.393 Y48.559 Z-1.6 I0.939 J0.141
G1 X13.021 F240
G3 X13.341 Y48.879 I0 J0.319
G1 Y49.61
G3 X12.994 Y50.035 I-0.434 J0
G2 X12.427 Y50.196 I0.811 J3.94
G3 X12.172 Y50.241 I-0.256 J-0.71
G1 X10.379
G3 X10.123 Y50.196 I0 J-0.754
G2 X8.222 Y49.976 I-1.419 J3.939
G3 X7.959 Y49.742 I-0.027 J-0.234
G1 Y48.879
G3 X8.279 Y48.559 I0.319 J0
G1 X10.393
G2 X11.068 Y48.109 I0 J-0.731
G3 X11.743 Y47.659 I0.675 J0.281
G1 X13.921
G3 X14.241 Y47.979 I0 J0.319
G1 Y50.315
G3 X13.925 Y50.712 I-0.407 J0
G2 X13.543 Y50.831 I0.625 J2.688
G3 X13.333 Y50.888 I-0.368 J-0.938
G2 X12.699 Y51.055 I0.508 J3.213
G3 X12.227 Y51.141 I-0.472 J-1.259
G1 X10.323
G3 X9.851 Y51.055 I0 J-1.345
G2 X7.31 Y51.162 I-1.144 J3.052
G3 X7.059 Y51.004 I-0.075 J-0.158
G1 Y47.979
G3 X7.379 Y47.659 I0.319 J0
G1 X11.743
G2 X12.419 Y47.209 I0 J-0.731
G3 X13.094 Y46.759 I0.675 J0.281
G1 X14.828
G3 X15.141 Y47.072 I0 J0.313
G1 Y51.228
G3 X14.828 Y51.541 I-0.313 J0
X14.689 Y51.536 I0 J-2.223
G2 X14.55 Y51.532 I-0.139 J2.219
X14.2 Y51.569 I0 J1.652
X13.864 Y51.672 I0.453 J2.09
G3 X13.488 Y51.775 I-0.649 J-1.635
G2 X13.022 Y51.895 I0.383 J2.443
G3 X12.208 Y52.041 I-0.814 J-2.201
G1 X10.342
G3 X9.528 Y51.895 I0 J-2.347
G2 X6.615 Y55.198 I-0.819 J2.214
G3 X6.641 Y55.304 I-0.205 J0.106
G1 Y71.31
G3 X6.41 Y71.541 I-0.231 J0
G1 X6.39
G3 X6.159 Y71.31 I0 J-0.231
G1 Y47.072
G3 X6.472 Y46.759 I0.313 J0
G1 X13.094
G2 X13.738 Y46.33 I0 J-0.698
G3 X14.383 Y45.9 I0.645 J0.269
G1 X16
Y52.4
X14.55
G2 X13.937 Y52.61 I0 J1
X12.952 Y52.9 I-0.094 J1.497
G1 X9.598
G2 X7.646 Y53.046 I-0.891 J1.207
X7.5 Y54.998 I1.061 J1.061
G1 Y71.802
G2 X7.236 Y72.4 I1.207 J0.89
G1 X5.714
G2 X5.01 Y72.69 I0 J1
X5.3 Y71.986 I-0.71 J-0.705
G1 Y45.9
X14.383
G3 X14.479 Y45.924 Z-1.573 I0 J0.2 F480
X14.535 Y45.97 Z-1.5 I-0.096 J0.176
X14.551 Y45.992 Z-1.4 I-0.152 J0.13
G0 Z5
X11.093 Y32.984
G1 Z0.699 F120
G3 X11.076 Y33 Z0.604 I-0.663 J-0.681 F60
X11.026 Y33.043 Z0.532 I-0.645 J-0.697
X10.951 Y33.098 Z0.5 I-0.595 J-0.74
X9.91 Y31.508 Z0.239 I-0.52 J-0.795
X10.951 Y33.098 Z-0.022 I0.52 J0.795
X9.91 Y31.508 Z-0.283 I-0.52 J-0.795
X10.951 Y33.098 Z-0.544 I0.52 J0.795
X9.581 Y32.727 Z-0.685 I-0.52 J-0.795
X10.109 Y31.409 Z-0.825 I0.85 J-0.424
G2 X10.123 Y31.404 I-1.396 J-3.875 F240
G3 X10.379 Y31.359 I0.256 J0.71
G1 X12.172
G3 X12.427 Y31.404 I0 J0.754
G2 X12.994 Y31.565 I1.439 J-3.994
G3 X13.341 Y31.99 I-0.087 J0.425
G1 Y32.721
G3 X13.021 Y33.041 I-0.319 J0
G1 X8.279
G3 X7.959 Y32.721 I0 J-0.319
G1 Y31.901
G3 X8.263 Y31.629 I0.274 J0
G2 X10.109 Y31.409 I0.449 J-4.094
X10.583 Y30.89 I-0.256 J-0.711
G3 X11.14 Y30.459 I0.557 J0.146
G1 X12.227
G3 X12.699 Y30.545 I0 J1.345
G2 X13.333 Y30.712 I1.142 J-3.046
G3 X13.543 Y30.769 I-0.157 J0.995
G2 X13.925 Y30.888 I1.007 J-2.569
G3 X14.241 Y31.285 I-0.092 J0.397
G1 Y33.621
G3 X13.921 Y33.941 I-0.319 J0
G1 X7.379
G3 X7.059 Y33.621 I0 J-0.319
G1 Y30.629
G3 X7.338 Y30.451 I0.196 J0
G2 X9.851 Y30.545 I1.37 J-2.982
G3 X10.323 Y30.459 I0.472 J1.259
G1 X11.14
G2 X11.802 Y29.998 I0 J-0.705
G3 X12.49 Y29.576 I0.61 J0.224
X13.022 Y29.705 I-0.282 J2.33
G2 X13.488 Y29.825 I0.824 J-2.229
G3 X13.864 Y29.928 I-0.273 J1.738
G2 X14.2 Y30.031 I0.789 J-1.988
X14.55 Y30.068 I0.35 J-1.614
X14.689 Y30.064 I0 J-2.223
G3 X14.828 Y30.059 I0.139 J2.219
X15.141 Y30.372 I0 J0.313
G1 Y34.528
G3 X14.828 Y34.841 I-0.313 J0
G1 X6.472
G3 X6.159 Y34.528 I0 J-0.313
G1 Y10.29
G3 X6.39 Y10.059 I0.231 J0
G1 X6.41
G3 X6.641 Y10.29 I0 J0.231
G1 Y26.296
G3 X6.615 Y26.402 I-0.231 J0
G2 X6.684 Y28.728 I2.129 J1.101
X8.707 Y29.878 I2.023 J-1.203
X9.125 Y29.828 I0 J-1.765
X9.528 Y29.705 I-0.866 J-3.554
G3 X10.342 Y29.559 I0.814 J2.201
G1 X12.208
G3 X12.49 Y29.576 I0 J2.347
G2 X13.183 Y29.307 I0.095 J-0.782
G3 X13.857 Y28.993 I0.682 J0.585
G2 X13.937 Y28.99 I-0.014 J-1.5
X14.55 Y29.2 I0.613 J-0.79
G1 X16
Y35.7
X8.707
X5.3
Y9.614
G2 X5.009 Y8.909 I-1 J0
X5.714 Y9.2 I0.706 J-0.709
G1 X7.236
G2 X7.5 Y9.798 I1.471 J-0.293
G1 Y26.602
G2 X7.646 Y28.554 I1.207 J0.891
X9.598 Y28.7 I1.061 J-1.061
G1 X12.952
G2 X13.857 Y28.993 I0.89 J-1.207
G3 X13.921 Y29.136 I0.001 J0.085
G1 X13.665 Y29.415
X11.208 Y31.514
G2 X11.176 Y31.563 I0.065 J0.076
G1 X10.734 Y33.154
G3 X10.662 Y33.225 I-0.096 J-0.027
X10.2 Y31.382 Z-1.086 I-0.231 J-0.921 F60
X10.662 Y33.225 Z-1.347 I0.231 J0.921
X10.109 Y31.409 Z-1.6 I-0.231 J-0.921
G2 X10.123 Y31.404 I-1.396 J-3.875 F240
G3 X10.379 Y31.359 I0.256 J0.71
G1 X12.172
G3 X12.427 Y31.404 I0 J0.754
G2 X12.994 Y31.565 I1.439 J-3.994
G3 X13.341 Y31.99 I-0.087 J0.425
G1 Y32.721
G3 X13.021 Y33.041 I-0.319 J0
G1 X8.279
G3 X7.959 Y32.721 I0 J-0.319
G1 Y31.901
G3 X8.263 Y31.629 I0.274 J0
G2 X10.109 Y31.409 I0.449 J-4.094
X10.583 Y30.89 I-0.256 J-0.711
G3 X11.14 Y30.459 I0.557 J0.146
G1 X12.227
G3 X12.699 Y30.545 I0 J1.345
G2 X13.333 Y30.712 I1.142 J-3.046
G3 X13.543 Y30.769 I-0.157 J0.995
G2 X13.925 Y30.888 I1.007 J-2.569
G3 X14.241 Y31.285 I-0.092 J0.397
G1 Y33.621
G3 X13.921 Y33.941 I-0.319 J0
G1 X7.379
G3 X7.059 Y33.621 I0 J-0.319
G1 Y30.629
G3 X7.338 Y30.451 I0.196 J0
G2 X9.851 Y30.545 I1.37 J-2.982
G3 X10.323 Y30.459 I0.472 J1.259
G1 X11.14
G2 X11.802 Y29.998 I0 J-0.705
G3 X12.49 Y29.576 I0.61 J0.224
X13.022 Y29.705 I-0.282 J2.33
G2 X13.488 Y29.825 I0.824 J-2.229
G3 X13.864 Y29.928 I-0.273 J1.738
G2 X14.2 Y30.031 I0.789 J-1.988
X14.55 Y30.068 I0.35 J-1.614
X14.689 Y30.064 I0 J-2.223
G3 X14.828 Y30.059 I0.139 J2.219
X15.141 Y30.372 I0 J0.313
G1 Y34.528
G3 X14.828 Y34.841 I-0.313 J0
G1 X6.472
G3 X6.159 Y34.528 I0 J-0.313
G1 Y10.29
G3 X6.39 Y10.059 I0.231 J0
G1 X6.41
G3 X6.641 Y10.29 I0 J0.231
G1 Y26.296
G3 X6.615 Y26.402 I-0.231 J0
G2 X6.684 Y28.728 I2.129 J1.101
X8.707 Y29.878 I2.023 J-1.203
X9.125 Y29.828 I0 J-1.765
X9.528 Y29.705 I-0.866 J-3.554
G3 X10.342 Y29.559 I0.814 J2.201
G1 X12.208
G3 X12.49 Y29.576 I0 J2.347
G2 X13.183 Y29.307 I0.095 J-0.782
G3 X13.857 Y28.993 I0.682 J0.585
G2 X13.937 Y28.99 I-0.014 J-1.5
X14.55 Y29.2 I0.613 J-0.79
G1 X16
Y35.7
X8.707
X5.3
Y9.614
G2 X5.009 Y8.909 I-1 J0
X5.714 Y9.2 I0.706 J-0.709
G1 X7.236
G2 X7.5 Y9.798 I1.471 J-0.293
G1 Y26.602
G2 X7.646 Y28.554 I1.207 J0.891
X9.598 Y28.7 I1.061 J-1.061
G1 X12.952
G2 X13.857 Y28.993 I0.89 J-1.207
G3 X13.953 Y29.016 Z-1.573 I0.002 J0.2 F480
X14.01 Y29.062 Z-1.5 I-0.094 J0.176
X14.026 Y29.083 Z-1.4 I-0.151 J0.131
G0 Z15

M9
M30
