(FRAME-FRONT-INNER)
(T11  D=2 CR=0 - ZMIN=-2.6 - FLAT END MILL)
G90 G94 G91.1 G40 G49 G17
G21

(POCKETS)
M5
M9
T11
(DIAMOND OR SPIRAL)
S16000 M3
G54
M8
G0 X11.921 Y47.457
G43 Z15 H1
Z5
G1 Z0.699 F120
G3 X11.931 Y47.479 Z0.604 I-0.865 J0.393 F60
X11.954 Y47.541 Z0.532 I-0.875 J0.371
X11.98 Y47.63 Z0.5 I-0.898 J0.309
X10.132 Y48.07 Z0.239 I-0.924 J0.22
X11.98 Y47.63 Z-0.022 I0.924 J-0.22
X10.132 Y48.07 Z-0.283 I-0.924 J0.22
X11.98 Y47.63 Z-0.544 I0.924 J-0.22
X11.167 Y48.794 Z-0.685 I-0.924 J0.22
X10.106 Y47.85 Z-0.825 I-0.111 J-0.944
G1 Y33.792 F240
G3 X10.594 I0.244 J0
G1 Y47.859
G3 X10.359 Y48.094 I-0.235 J0
G1 X10.341
G3 X10.106 Y47.859 I0 J-0.235
G1 Y47.85
G2 X9.656 Y47.175 I-0.731 J0
G3 X9.206 Y46.5 I0.281 J-0.675
G1 Y32.925
G3 X9.525 Y32.606 I0.319 J0
G1 X11.179
G3 X11.494 Y32.921 I0 J0.315
G1 Y48.679
G3 X11.179 Y48.994 I-0.315 J0
G1 X9.525
G3 X9.206 Y48.675 I0 J-0.319
G1 Y46.5
G2 X8.756 Y45.825 I-0.731 J0
G3 X8.306 Y45.15 I0.281 J-0.675
G1 Y31.97
G3 X8.611 Y31.69 I0.282 J0
G2 X9.981 Y31.727 I1.009 J-11.91
G3 X11.352 Y31.706 I1.371 J45.285
X11.926 Y31.885 I0 J1.008
G2 X12.063 Y31.977 I2.624 J-3.785
G3 X12.394 Y32.583 I-0.389 J0.606
G1 Y49.017
G3 X12.063 Y49.623 I-0.72 J0
G2 X11.926 Y49.715 I2.487 J3.877
G3 X11.352 Y49.894 I-0.574 J-0.828
X9.958 Y49.871 I0 J-42.803
G2 X8.564 Y49.915 I-0.357 J10.942
G3 X8.306 Y49.681 I-0.022 J-0.234
G1 Y45.15
G2 X7.856 Y44.475 I-0.731 J0
G3 X7.406 Y43.8 I0.281 J-0.675
G1 Y30.764
G3 X7.691 Y30.567 I0.211 J0
G2 X9.547 Y30.856 I1.615 J-4.278
G3 X11.426 Y30.806 I1.878 J35.575
X12.398 Y31.117 I0 J1.675
G2 X12.968 Y31.451 I2.152 J-3.017
G3 X13.294 Y31.965 I-0.243 J0.514
G1 Y49.635
G3 X12.968 Y50.148 I-0.568 J0
G2 X12.398 Y50.483 I1.582 J3.352
G3 X11.426 Y50.794 I-0.973 J-1.364
X9.523 Y50.745 I0 J-36.864
G2 X7.645 Y51.05 I-0.232 J4.496
G3 X7.406 Y50.887 I-0.064 J-0.163
G1 Y43.8
G2 X6.956 Y43.125 I-0.731 J0
G3 X6.506 Y42.45 I0.281 J-0.675
G1 Y28.836
G3 X6.738 Y28.76 I0.128 J0
G2 X9.178 Y29.948 I2.349 J-1.723
G3 X11.892 Y29.906 I2.714 J86.616
X12.7 Y30.21 I0 J1.226
G2 X13.884 Y30.826 I1.85 J-2.11
G3 X14.194 Y31.22 I-0.096 J0.395
G1 Y50.38
G3 X13.884 Y50.774 I-0.406 J0
G2 X12.7 Y51.39 I0.666 J2.726
G3 X11.892 Y51.694 I-0.808 J-0.922
X9.177 Y51.652 I0 J-87.103
G2 X6.736 Y52.842 I-0.091 J2.911
G3 X6.506 Y52.767 I-0.103 J-0.075
G1 Y42.45
G2 X6.055 Y41.774 I-0.732 J0
G3 X5.605 Y41.098 I0.282 J-0.676
G1 Y10.324
G3 X5.924 Y10.005 I0.319 J0
G1 X6.776
G3 X7.095 Y10.324 I0 J0.319
G1 X7.05 Y27.1
G2 X9 Y29.05 I1.95 J0
X10.716 Y29.028 I0 J-65.454
G3 X12.432 Y29.005 I1.716 J65.431
X13.079 Y29.31 I0 J0.838
G2 X13.736 Y29.826 I1.5 J-1.234
X14.55 Y30.012 I0.814 J-1.69
X14.663 Y30.009 I0 J-1.807
G3 X14.776 Y30.005 I0.113 J1.803
X15.095 Y30.324 I0 J0.319
G1 Y51.276
G3 X14.776 Y51.595 I-0.319 J0
X14.663 Y51.591 I0 J-1.807
G2 X14.55 Y51.588 I-0.113 J1.803
X13.736 Y51.774 I0 J1.876
X13.079 Y52.29 I0.843 J1.75
G3 X12.432 Y52.595 I-0.647 J-0.532
X10.716 Y52.572 I0 J-65.454
G2 X9 Y52.55 I-1.716 J65.431
X7.05 Y54.5 I0 J1.95
G1 X7.095 Y71.276
G3 X6.776 Y71.595 I-0.319 J0
G1 X5.924
G3 X5.605 Y71.276 I0 J-0.319
G1 Y41.098
G2 X5.153 Y40.42 I-0.735 J0
G3 X4.7 Y39.741 I0.283 J-0.679
G1 Y9.514
G2 X4.409 Y8.809 I-1 J0
X5.114 Y9.1 I0.706 J-0.709
G1 X8
Y27.1
G2 X9 Y28.1 I1 J0
G1 X13.55
G2 X14.55 Y29.1 I1 J0
G1 X16
Y52.5
X14.55
G2 X13.55 Y53.5 I0 J1
G1 X9
G2 X8 Y54.5 I0 J1
G1 Y72.5
X5.114
G2 X4.41 Y72.79 I0 J1
X4.7 Y72.086 I-0.71 J-0.705
G1 Y39.741
G3 X6.583 Y39.56 Z-0.978 I0.95 J0 F60
G1 X8.223 Y48.031 Z-1.447
G2 X10.106 Y47.85 Z-1.6 I0.933 J-0.181
G1 Y33.792 F240
G3 X10.594 I0.244 J0
G1 Y47.859
G3 X10.359 Y48.094 I-0.235 J0
G1 X10.341
G3 X10.106 Y47.859 I0 J-0.235
G1 Y47.85
G2 X9.656 Y47.175 I-0.731 J0
G3 X9.206 Y46.5 I0.281 J-0.675
G1 Y32.925
G3 X9.525 Y32.606 I0.319 J0
G1 X11.179
G3 X11.494 Y32.921 I0 J0.315
G1 Y48.679
G3 X11.179 Y48.994 I-0.315 J0
G1 X9.525
G3 X9.206 Y48.675 I0 J-0.319
G1 Y46.5
G2 X8.756 Y45.825 I-0.731 J0
G3 X8.306 Y45.15 I0.281 J-0.675
G1 Y31.97
G3 X8.611 Y31.69 I0.282 J0
G2 X9.981 Y31.727 I1.009 J-11.91
G3 X11.352 Y31.706 I1.371 J45.285
X11.926 Y31.885 I0 J1.008
G2 X12.063 Y31.977 I2.624 J-3.785
G3 X12.394 Y32.583 I-0.389 J0.606
G1 Y49.017
G3 X12.063 Y49.623 I-0.72 J0
G2 X11.926 Y49.715 I2.487 J3.877
G3 X11.352 Y49.894 I-0.574 J-0.828
X9.958 Y49.871 I0 J-42.803
G2 X8.564 Y49.915 I-0.357 J10.942
G3 X8.306 Y49.681 I-0.022 J-0.234
G1 Y45.15
G2 X7.856 Y44.475 I-0.731 J0
G3 X7.406 Y43.8 I0.281 J-0.675
G1 Y30.764
G3 X7.691 Y30.567 I0.211 J0
G2 X9.547 Y30.856 I1.615 J-4.278
G3 X11.426 Y30.806 I1.878 J35.575
X12.398 Y31.117 I0 J1.675
G2 X12.968 Y31.451 I2.152 J-3.017
G3 X13.294 Y31.965 I-0.243 J0.514
G1 Y49.635
G3 X12.968 Y50.148 I-0.568 J0
G2 X12.398 Y50.483 I1.582 J3.352
G3 X11.426 Y50.794 I-0.973 J-1.364
X9.523 Y50.745 I0 J-36.864
G2 X7.645 Y51.05 I-0.232 J4.496
G3 X7.406 Y50.887 I-0.064 J-0.163
G1 Y43.8
G2 X6.956 Y43.125 I-0.731 J0
G3 X6.506 Y42.45 I0.281 J-0.675
G1 Y28.836
G3 X6.738 Y28.76 I0.128 J0
G2 X9.178 Y29.948 I2.349 J-1.723
G3 X11.892 Y29.906 I2.714 J86.616
X12.7 Y30.21 I0 J1.226
G2 X13.884 Y30.826 I1.85 J-2.11
G3 X14.194 Y31.22 I-0.096 J0.395
G1 Y50.38
G3 X13.884 Y50.774 I-0.406 J0
G2 X12.7 Y51.39 I0.666 J2.726
G3 X11.892 Y51.694 I-0.808 J-0.922
X9.177 Y51.652 I0 J-87.103
G2 X6.736 Y52.842 I-0.091 J2.911
G3 X6.506 Y52.767 I-0.103 J-0.075
G1 Y42.45
G2 X6.055 Y41.774 I-0.732 J0
G3 X5.605 Y41.098 I0.282 J-0.676
G1 Y10.324
G3 X5.924 Y10.005 I0.319 J0
G1 X6.776
G3 X7.095 Y10.324 I0 J0.319
G1 X7.05 Y27.1
G2 X9 Y29.05 I1.95 J0
X10.716 Y29.028 I0 J-65.454
G3 X12.432 Y29.005 I1.716 J65.431
X13.079 Y29.31 I0 J0.838
G2 X13.736 Y29.826 I1.5 J-1.234
X14.55 Y30.012 I0.814 J-1.69
X14.663 Y30.009 I0 J-1.807
G3 X14.776 Y30.005 I0.113 J1.803
X15.095 Y30.324 I0 J0.319
G1 Y51.276
G3 X14.776 Y51.595 I-0.319 J0
X14.663 Y51.591 I0 J-1.807
G2 X14.55 Y51.588 I-0.113 J1.803
X13.736 Y51.774 I0 J1.876
X13.079 Y52.29 I0.843 J1.75
G3 X12.432 Y52.595 I-0.647 J-0.532
X10.716 Y52.572 I0 J-65.454
G2 X9 Y52.55 I-1.716 J65.431
X7.05 Y54.5 I0 J1.95
G1 X7.095 Y71.276
G3 X6.776 Y71.595 I-0.319 J0
G1 X5.924
G3 X5.605 Y71.276 I0 J-0.319
G1 Y41.098
G2 X5.153 Y40.42 I-0.735 J0
G3 X4.7 Y39.741 I0.283 J-0.679
G1 Y9.514
G2 X4.409 Y8.809 I-1 J0
X5.114 Y9.1 I0.706 J-0.709
G1 X8
Y27.1
G2 X9 Y28.1 I1 J0
G1 X13.55
G2 X14.55 Y29.1 I1 J0
G1 X16
Y52.5
X14.55
G2 X13.55 Y53.5 I0 J1
G1 X9
G2 X8 Y54.5 I0 J1
G1 Y72.5
X5.114
G2 X4.41 Y72.79 I0 J1
X4.7 Y72.086 I-0.71 J-0.705
G1 Y39.741
G3 X4.724 Y39.645 Z-1.573 I0.2 J0 F480
X4.77 Y39.589 Z-1.5 I0.176 J0.096
X4.792 Y39.573 Z-1.4 I0.13 J0.152
G0 Z15
X12.193 Y42.02
Z5
G1 Z0.699 F120
G3 X12.171 Y42.03 Z0.604 I-0.393 J-0.865 F60
X12.109 Y42.053 Z0.532 I-0.371 J-0.875
X12.02 Y42.079 Z0.5 I-0.309 J-0.898
X11.58 Y40.231 Z0.239 I-0.22 J-0.924
X12.02 Y42.079 Z-0.022 I0.22 J0.924
X11.58 Y40.231 Z-0.283 I-0.22 J-0.924
X12.02 Y42.079 Z-0.544 I0.22 J0.924
X10.856 Y41.266 Z-0.685 I-0.22 J-0.924
X11.8 Y40.205 Z-0.825 I0.944 J-0.111
G1 X12.076 F240
G3 X12.395 Y40.524 I0 J0.319
G1 Y41.076
G3 X12.076 Y41.395 I-0.319 J0
G1 X8.624
G3 X8.305 Y41.076 I0 J-0.319
G1 Y40.524
G3 X8.624 Y40.205 I0.319 J0
G1 X11.8
G2 X12.499 Y39.779 I0 J-0.787
G3 X13.295 Y39.972 I0.374 J0.193
G1 Y41.976
G3 X12.976 Y42.295 I-0.319 J0
G1 X7.724
G3 X7.405 Y41.976 I0 J-0.319
G1 Y39.624
G3 X7.724 Y39.305 I0.319 J0
G1 X12.976
G3 X13.295 Y39.624 I0 J0.319
G1 Y39.972
G2 X13.745 Y40.647 I0.731 J0
G3 X14.195 Y41.322 I-0.281 J0.675
G1 Y42.876
G3 X13.876 Y43.195 I-0.319 J0
G1 X6.824
G3 X6.505 Y42.876 I0 J-0.319
G1 Y38.724
G3 X6.824 Y38.405 I0.319 J0
G1 X13.876
G3 X14.195 Y38.724 I0 J0.319
G1 Y41.322
G2 X14.645 Y41.997 I0.731 J0
G3 X15.095 Y42.672 I-0.281 J0.675
G1 Y43.776
G3 X14.776 Y44.095 I-0.319 J0
G1 X5.924
G3 X5.605 Y43.776 I0 J-0.319
G1 Y37.824
G3 X5.924 Y37.505 I0.319 J0
G1 X14.776
G3 X15.095 Y37.824 I0 J0.319
G1 Y42.672
G2 X15.547 Y43.351 I0.735 J0
G3 X16 Y44.03 I-0.283 J0.679
G1 Y45
X4.7
Y36.6
X16
Y44.03
G3 X15.687 Y44.195 I-0.2 J0
G1 X12.465 Y41.998
G2 X12.257 Y41.988 I-0.113 J0.165
G3 X11.343 Y40.322 Z-1.086 I-0.457 J-0.833 F60
X12.257 Y41.988 Z-1.347 I0.457 J0.833
X11.343 Y40.322 Z-1.608 I-0.457 J-0.833
X11.8 Y40.205 Z-1.65 I0.457 J0.833
G1 X12.076 F240
G3 X12.395 Y40.524 I0 J0.319
G1 Y41.076
G3 X12.076 Y41.395 I-0.319 J0
G1 X8.624
G3 X8.305 Y41.076 I0 J-0.319
G1 Y40.524
G3 X8.624 Y40.205 I0.319 J0
G1 X11.8
G2 X12.499 Y39.779 I0 J-0.787
G3 X13.295 Y39.972 I0.374 J0.193
G1 Y41.976
G3 X12.976 Y42.295 I-0.319 J0
G1 X7.724
G3 X7.405 Y41.976 I0 J-0.319
G1 Y39.624
G3 X7.724 Y39.305 I0.319 J0
G1 X12.976
G3 X13.295 Y39.624 I0 J0.319
G1 Y39.972
G2 X13.745 Y40.647 I0.731 J0
G3 X14.195 Y41.322 I-0.281 J0.675
G1 Y42.876
G3 X13.876 Y43.195 I-0.319 J0
G1 X6.824
G3 X6.505 Y42.876 I0 J-0.319
G1 Y38.724
G3 X6.824 Y38.405 I0.319 J0
G1 X13.876
G3 X14.195 Y38.724 I0 J0.319
G1 Y41.322
G2 X14.645 Y41.997 I0.731 J0
G3 X15.095 Y42.672 I-0.281 J0.675
G1 Y43.776
G3 X14.776 Y44.095 I-0.319 J0
G1 X5.924
G3 X5.605 Y43.776 I0 J-0.319
G1 Y37.824
G3 X5.924 Y37.505 I0.319 J0
G1 X14.776
G3 X15.095 Y37.824 I0 J0.319
G1 Y42.672
G2 X15.547 Y43.351 I0.735 J0
G3 X16 Y44.03 I-0.283 J0.679
G1 Y45
X4.7
Y36.6
X16
Y44.03
G3 X14.421 Y44.741 Z-1.767 I-0.95 J0 F60
G1 X11.171 Y41.867 Z-2.001
G3 X11.8 Y40.205 Z-2.125 I0.629 J-0.712
G1 X12.076 F240
G3 X12.395 Y40.524 I0 J0.319
G1 Y41.076
G3 X12.076 Y41.395 I-0.319 J0
G1 X8.624
G3 X8.305 Y41.076 I0 J-0.319
G1 Y40.524
G3 X8.624 Y40.205 I0.319 J0
G1 X11.8
G2 X12.499 Y39.779 I0 J-0.787
G3 X13.295 Y39.972 I0.374 J0.193
G1 Y41.976
G3 X12.976 Y42.295 I-0.319 J0
G1 X7.724
G3 X7.405 Y41.976 I0 J-0.319
G1 Y39.624
G3 X7.724 Y39.305 I0.319 J0
G1 X12.976
G3 X13.295 Y39.624 I0 J0.319
G1 Y39.972
G2 X13.745 Y40.647 I0.731 J0
G3 X14.195 Y41.322 I-0.281 J0.675
G1 Y42.876
G3 X13.876 Y43.195 I-0.319 J0
G1 X6.824
G3 X6.505 Y42.876 I0 J-0.319
G1 Y38.724
G3 X6.824 Y38.405 I0.319 J0
G1 X13.876
G3 X14.195 Y38.724 I0 J0.319
G1 Y41.322
G2 X14.645 Y41.997 I0.731 J0
G3 X15.095 Y42.672 I-0.281 J0.675
G1 Y43.776
G3 X14.776 Y44.095 I-0.319 J0
G1 X5.924
G3 X5.605 Y43.776 I0 J-0.319
G1 Y37.824
G3 X5.924 Y37.505 I0.319 J0
G1 X14.776
G3 X15.095 Y37.824 I0 J0.319
G1 Y42.672
G2 X15.547 Y43.351 I0.735 J0
G3 X16 Y44.03 I-0.283 J0.679
G1 Y45
X4.7
Y36.6
X16
Y44.03
G3 X14.421 Y44.741 Z-2.242 I-0.95 J0 F60
G1 X11.171 Y41.867 Z-2.476
G3 X11.8 Y40.205 Z-2.6 I0.629 J-0.712
G1 X12.076 F240
G3 X12.395 Y40.524 I0 J0.319
G1 Y41.076
G3 X12.076 Y41.395 I-0.319 J0
G1 X8.624
G3 X8.305 Y41.076 I0 J-0.319
G1 Y40.524
G3 X8.624 Y40.205 I0.319 J0
G1 X11.8
G2 X12.499 Y39.779 I0 J-0.787
G3 X13.295 Y39.972 I0.374 J0.193
G1 Y41.976
G3 X12.976 Y42.295 I-0.319 J0
G1 X7.724
G3 X7.405 Y41.976 I0 J-0.319
G1 Y39.624
G3 X7.724 Y39.305 I0.319 J0
G1 X12.976
G3 X13.295 Y39.624 I0 J0.319
G1 Y39.972
G2 X13.745 Y40.647 I0.731 J0
G3 X14.195 Y41.322 I-0.281 J0.675
G1 Y42.876
G3 X13.876 Y43.195 I-0.319 J0
G1 X6.824
G3 X6.505 Y42.876 I0 J-0.319
G1 Y38.724
G3 X6.824 Y38.405 I0.319 J0
G1 X13.876
G3 X14.195 Y38.724 I0 J0.319
G1 Y41.322
G2 X14.645 Y41.997 I0.731 J0
G3 X15.095 Y42.672 I-0.281 J0.675
G1 Y43.776
G3 X14.776 Y44.095 I-0.319 J0
G1 X5.924
G3 X5.605 Y43.776 I0 J-0.319
G1 Y37.824
G3 X5.924 Y37.505 I0.319 J0
G1 X14.776
G3 X15.095 Y37.824 I0 J0.319
G1 Y42.672
G2 X15.547 Y43.351 I0.735 J0
G3 X16 Y44.03 I-0.283 J0.679
G1 Y45
X4.7
Y36.6
X16
Y44.03
G3 X15.976 Y44.125 Z-2.573 I-0.2 J0 F480
X15.93 Y44.182 Z-2.5 I-0.176 J-0.096
X15.908 Y44.198 Z-2.4 I-0.13 J-0.152
G0 Z15

(BOTTOM CONTOUR)
M8
G0 X-1.6 Y1.1
Z15
Z5
G1 Z2 F60
Z-0.55
X-1.593 Z-0.602
X-1.573 Z-0.65
X-1.541 Z-0.691
X-1.5 Z-0.723
X-1.452 Z-0.743
X-1.4 Z-0.75
X-1.2 F120
G3 X-1 Y1.3 I0 J0.2
G1 Y35.8 F240
G2 X0 Y36.8 I1 J0
G1 Y44.8
G2 X-1 Y45.8 I0 J1
G1 Y80.3
G3 X-1.2 Y80.5 I-0.2 J0 F480
G1 X-1.4
X-1.452 Z-0.743
X-1.5 Z-0.723
X-1.541 Z-0.691
X-1.573 Z-0.65
X-1.593 Z-0.602
X-1.6 Z-0.55
G0 Z5
Y1.1
G1 Z1.25 F60
Z-1.3
X-1.593 Z-1.352
X-1.573 Z-1.4
X-1.541 Z-1.441
X-1.5 Z-1.473
X-1.452 Z-1.493
X-1.4 Z-1.5
X-1.2 F120
G3 X-1 Y1.3 I0 J0.2
G1 Y35.8 F240
G2 X0 Y36.8 I1 J0
G1 Y44.8
G2 X-1 Y45.8 I0 J1
G1 Y80.3
G3 X-1.2 Y80.5 I-0.2 J0 F480
G1 X-1.4
X-1.452 Z-1.493
X-1.5 Z-1.473
X-1.541 Z-1.441
X-1.573 Z-1.4
X-1.593 Z-1.352
X-1.6 Z-1.3
G0 Z15

M9
M30
