(FRAME-SIDE-LEFT)
(T49  D=4 CR=0 TAPER=45DEG - ZMIN=-2.3 - CHAMFER MILL)
G90 G94 G91.1 G40 G49 G17
G21

(CHAMFER 4MM)
M5
M9
T49
(4 FLUTE FISH)
S14000 M3
G54
M8
G0 X5.5 Y183.1
G43 Z15 H26
Z5
G98 G73 X5.5 Y183.1 Z-2.3 R0.7 Q0.2 F60
X15.5
X19 Y147.8
Y92.8
Y37.8
G80
X17.5 Y29.8 Z5
G73 X17.5 Y29.8 Z-2.1 R0.9 Q0.2 F60
X3.5
X17.5 Y15.8
X3.5
G80
X5.5 Y2.5 Z5
G73 X5.5 Y2.5 Z-2.3 R0.7 Q0.2 F60
X15.5
G80
Z15

M9
M30
