(FRAME-SIDE-LEFT)
(T11  D=2 CR=0 - ZMIN=-3.5 - FLAT END MILL)
G90 G94 G91.1 G40 G49 G17
G21

(CONTOUR INNER HOLES)
M5
M9
T11
(DIAMOND OR SPIRAL)
S16000 M3
G54
M8
G0 X12.5 Y159.711
G43 Z15 H1
Z2
G1 Z-0.625 F60
X12.507 Z-0.677
X12.527 Z-0.725
X12.559 Z-0.766
X12.6 Z-0.798
X12.648 Z-0.818
X12.7 Z-0.825
X12.9 F120
G3 X13.1 Y159.911 I0 J0.2
G1 Y165.8 F240
G3 X10.5 Y168.4 I-2.6 J0
X7.9 Y165.8 I0 J-2.6
G1 Y159.8
G3 X13.1 I2.6 J0
G1 Y159.911
G3 X12.9 Y160.111 I-0.2 J0 F480
G1 X12.7
X12.648 Z-0.818
X12.6 Z-0.798
X12.559 Z-0.766
X12.527 Z-0.725
X12.507 Z-0.677
X12.5 Z-0.625
Y159.711 F240
Z-1.45 F60
X12.507 Z-1.502
X12.527 Z-1.55
X12.559 Z-1.591
X12.6 Z-1.623
X12.648 Z-1.643
X12.7 Z-1.65
X12.9 F120
G3 X13.1 Y159.911 I0 J0.2
G1 Y165.8 F240
G3 X10.5 Y168.4 I-2.6 J0
X7.9 Y165.8 I0 J-2.6
G1 Y159.8
G3 X13.1 I2.6 J0
G1 Y159.911
G3 X12.9 Y160.111 I-0.2 J0 F480
G1 X12.7
X12.648 Z-1.643
X12.6 Z-1.623
X12.559 Z-1.591
X12.527 Z-1.55
X12.507 Z-1.502
X12.5 Z-1.45
Y159.711 F240
Z-2.275 F60
X12.507 Z-2.327
X12.527 Z-2.375
X12.559 Z-2.416
X12.6 Z-2.448
X12.648 Z-2.468
X12.7 Z-2.475
X12.9 F120
G3 X13.1 Y159.911 I0 J0.2
G1 Y165.8 F240
G3 X10.5 Y168.4 I-2.6 J0
X7.9 Y165.8 I0 J-2.6
G1 Y159.8
G3 X13.1 I2.6 J0
G1 Y159.911
G3 X12.9 Y160.111 I-0.2 J0 F480
G1 X12.7
X12.648 Z-2.468
X12.6 Z-2.448
X12.559 Z-2.416
X12.527 Z-2.375
X12.507 Z-2.327
X12.5 Z-2.275
Y159.711 F240
Z-2.788 F60
X12.507 Z-2.839
X12.527 Z-2.888
X12.559 Z-2.929
X12.6 Z-2.961
X12.648 Z-2.981
X12.7 Z-2.987
X12.9 F120
G3 X13.1 Y159.911 I0 J0.2
G1 Y165.8 F240
G3 X10.5 Y168.4 I-2.6 J0
X7.9 Y165.8 I0 J-2.6
G1 Y159.8
G3 X13.1 I2.6 J0
G1 Y159.911
G3 X12.9 Y160.111 I-0.2 J0 F480
G1 X12.7
X12.648 Z-2.981
X12.6 Z-2.961
X12.559 Z-2.929
X12.527 Z-2.888
X12.507 Z-2.839
X12.5 Z-2.788
Y159.711 F240
Z-3.3 F60
X12.507 Z-3.352
X12.527 Z-3.4
X12.559 Z-3.441
X12.6 Z-3.473
X12.648 Z-3.493
X12.7 Z-3.5
X12.9 F120
G3 X13.1 Y159.911 I0 J0.2
G1 Y165.8 F240
G3 X10.5 Y168.4 I-2.6 J0
X7.9 Y165.8 I0 J-2.6
G1 Y159.8
G3 X13.1 I2.6 J0
G1 Y159.911
G3 X12.9 Y160.111 I-0.2 J0 F480
G1 X12.7
X12.648 Z-3.493
X12.6 Z-3.473
X12.559 Z-3.441
X12.527 Z-3.4
X12.507 Z-3.352
X12.5 Z-3.3
G0 Z5
X18.2 Y165.45
Z2
G1 Z-0.625 F60
Y165.457 Z-0.677
Y165.477 Z-0.725
Y165.509 Z-0.766
Y165.55 Z-0.798
Y165.598 Z-0.818
Y165.65 Z-0.825
Y165.85 F120
G3 X18 Y166.05 I-0.2 J0
X17.75 Y165.8 I0 J-0.25 F240
G1 Y159.8
G3 X18.25 I0.25 J0
G1 Y165.8
G3 X18 Y166.05 I-0.25 J0
X17.8 Y165.85 I0 J-0.2 F480
G1 Y165.65
Y165.598 Z-0.818
Y165.55 Z-0.798
Y165.509 Z-0.766
Y165.477 Z-0.725
Y165.457 Z-0.677
Y165.45 Z-0.625
X18.169 Y165.434 F240
Z-1.45 F60
X18.17 Y165.441 Z-1.502
X18.171 Y165.461 Z-1.55
X18.174 Y165.492 Z-1.591
X18.178 Y165.534 Z-1.623
X18.182 Y165.582 Z-1.643
X18.186 Y165.633 Z-1.65
X18.204 Y165.833 F120
G3 X18.022 Y166.049 I-0.199 J0.017
X17.75 Y165.8 I-0.022 J-0.249 F240
G1 Y159.8
G3 X18.25 I0.25 J0
G1 Y165.8
G3 X18.022 Y166.049 I-0.25 J0
X17.805 Y165.867 I-0.017 J-0.199 F480
G1 X17.788 Y165.668
X17.783 Y165.616 Z-1.643
X17.779 Y165.568 Z-1.623
X17.776 Y165.527 Z-1.591
X17.773 Y165.495 Z-1.55
X17.771 Y165.475 Z-1.502
Y165.469 Z-1.45
X18.169 Y165.434 F240
Z-2.275 F60
X18.17 Y165.441 Z-2.327
X18.171 Y165.461 Z-2.375
X18.174 Y165.492 Z-2.416
X18.178 Y165.534 Z-2.448
X18.182 Y165.582 Z-2.468
X18.186 Y165.633 Z-2.475
X18.204 Y165.833 F120
G3 X18.022 Y166.049 I-0.199 J0.017
X17.75 Y165.8 I-0.022 J-0.249 F240
G1 Y159.8
G3 X18.25 I0.25 J0
G1 Y165.8
G3 X18.022 Y166.049 I-0.25 J0
X17.805 Y165.867 I-0.017 J-0.199 F480
G1 X17.788 Y165.668
X17.783 Y165.616 Z-2.468
X17.779 Y165.568 Z-2.448
X17.776 Y165.527 Z-2.416
X17.773 Y165.495 Z-2.375
X17.771 Y165.475 Z-2.327
Y165.469 Z-2.275
X18.169 Y165.434 F240
Z-2.788 F60
X18.17 Y165.441 Z-2.839
X18.171 Y165.461 Z-2.887
X18.174 Y165.492 Z-2.929
X18.178 Y165.534 Z-2.961
X18.182 Y165.582 Z-2.981
X18.186 Y165.633 Z-2.987
X18.204 Y165.833 F120
G3 X18.022 Y166.049 I-0.199 J0.017
X17.75 Y165.8 I-0.022 J-0.249 F240
G1 Y159.8
G3 X18.25 I0.25 J0
G1 Y165.8
G3 X18.022 Y166.049 I-0.25 J0
X17.805 Y165.867 I-0.017 J-0.199 F480
G1 X17.788 Y165.668
X17.783 Y165.616 Z-2.981
X17.779 Y165.568 Z-2.961
X17.776 Y165.527 Z-2.929
X17.773 Y165.495 Z-2.887
X17.771 Y165.475 Z-2.839
Y165.469 Z-2.788
X18.169 Y165.434 F240
Z-3.3 F60
X18.17 Y165.441 Z-3.352
X18.171 Y165.461 Z-3.4
X18.174 Y165.492 Z-3.441
X18.178 Y165.534 Z-3.473
X18.182 Y165.582 Z-3.493
X18.186 Y165.633 Z-3.5
X18.204 Y165.833 F120
G3 X18.022 Y166.049 I-0.199 J0.017
X17.75 Y165.8 I-0.022 J-0.249 F240
G1 Y159.8
G3 X18.25 I0.25 J0
G1 Y165.8
G3 X18.022 Y166.049 I-0.25 J0
X17.805 Y165.867 I-0.017 J-0.199 F480
G1 X17.788 Y165.668
X17.783 Y165.616 Z-3.493
X17.779 Y165.568 Z-3.473
X17.776 Y165.527 Z-3.441
X17.773 Y165.495 Z-3.4
X17.771 Y165.475 Z-3.352
Y165.469 Z-3.3
G0 Z5
X3.169 Y165.434
Z2
G1 Z-0.625 F60
X3.17 Y165.441 Z-0.677
X3.171 Y165.461 Z-0.725
X3.174 Y165.492 Z-0.766
X3.178 Y165.534 Z-0.798
X3.182 Y165.582 Z-0.818
X3.186 Y165.633 Z-0.825
X3.204 Y165.833 F120
G3 X3.022 Y166.049 I-0.199 J0.017
X2.75 Y165.8 I-0.022 J-0.249 F240
G1 Y159.8
G3 X3.25 I0.25 J0
G1 Y165.8
G3 X3.022 Y166.049 I-0.25 J0
X2.805 Y165.867 I-0.017 J-0.199 F480
G1 X2.788 Y165.668
X2.783 Y165.616 Z-0.818
X2.779 Y165.568 Z-0.798
X2.776 Y165.527 Z-0.766
X2.773 Y165.495 Z-0.725
X2.771 Y165.475 Z-0.677
Y165.469 Z-0.625
X3.169 Y165.434 F240
Z-1.45 F60
X3.17 Y165.441 Z-1.502
X3.171 Y165.461 Z-1.55
X3.174 Y165.492 Z-1.591
X3.178 Y165.534 Z-1.623
X3.182 Y165.582 Z-1.643
X3.186 Y165.633 Z-1.65
X3.204 Y165.833 F120
G3 X3.022 Y166.049 I-0.199 J0.017
X2.75 Y165.8 I-0.022 J-0.249 F240
G1 Y159.8
G3 X3.25 I0.25 J0
G1 Y165.8
G3 X3.022 Y166.049 I-0.25 J0
X2.805 Y165.867 I-0.017 J-0.199 F480
G1 X2.788 Y165.668
X2.783 Y165.616 Z-1.643
X2.779 Y165.568 Z-1.623
X2.776 Y165.527 Z-1.591
X2.773 Y165.495 Z-1.55
X2.771 Y165.475 Z-1.502
Y165.469 Z-1.45
X3.169 Y165.434 F240
Z-2.275 F60
X3.17 Y165.441 Z-2.327
X3.171 Y165.461 Z-2.375
X3.174 Y165.492 Z-2.416
X3.178 Y165.534 Z-2.448
X3.182 Y165.582 Z-2.468
X3.186 Y165.633 Z-2.475
X3.204 Y165.833 F120
G3 X3.022 Y166.049 I-0.199 J0.017
X2.75 Y165.8 I-0.022 J-0.249 F240
G1 Y159.8
G3 X3.25 I0.25 J0
G1 Y165.8
G3 X3.022 Y166.049 I-0.25 J0
X2.805 Y165.867 I-0.017 J-0.199 F480
G1 X2.788 Y165.668
X2.783 Y165.616 Z-2.468
X2.779 Y165.568 Z-2.448
X2.776 Y165.527 Z-2.416
X2.773 Y165.495 Z-2.375
X2.771 Y165.475 Z-2.327
Y165.469 Z-2.275
X3.169 Y165.434 F240
Z-2.788 F60
X3.17 Y165.441 Z-2.839
X3.171 Y165.461 Z-2.887
X3.174 Y165.492 Z-2.929
X3.178 Y165.534 Z-2.961
X3.182 Y165.582 Z-2.981
X3.186 Y165.633 Z-2.987
X3.204 Y165.833 F120
G3 X3.022 Y166.049 I-0.199 J0.017
X2.75 Y165.8 I-0.022 J-0.249 F240
G1 Y159.8
G3 X3.25 I0.25 J0
G1 Y165.8
G3 X3.022 Y166.049 I-0.25 J0
X2.805 Y165.867 I-0.017 J-0.199 F480
G1 X2.788 Y165.668
X2.783 Y165.616 Z-2.981
X2.779 Y165.568 Z-2.961
X2.776 Y165.527 Z-2.929
X2.773 Y165.495 Z-2.887
X2.771 Y165.475 Z-2.839
Y165.469 Z-2.788
X3.169 Y165.434 F240
Z-3.3 F60
X3.17 Y165.441 Z-3.352
X3.171 Y165.461 Z-3.4
X3.174 Y165.492 Z-3.441
X3.178 Y165.534 Z-3.473
X3.182 Y165.582 Z-3.493
X3.186 Y165.633 Z-3.5
X3.204 Y165.833 F120
G3 X3.022 Y166.049 I-0.199 J0.017
X2.75 Y165.8 I-0.022 J-0.249 F240
G1 Y159.8
G3 X3.25 I0.25 J0
G1 Y165.8
G3 X3.022 Y166.049 I-0.25 J0
X2.805 Y165.867 I-0.017 J-0.199 F480
G1 X2.788 Y165.668
X2.783 Y165.616 Z-3.493
X2.779 Y165.568 Z-3.473
X2.776 Y165.527 Z-3.441
X2.773 Y165.495 Z-3.4
X2.771 Y165.475 Z-3.352
Y165.469 Z-3.3
G0 Z5
X13.332 Y24.78
Z2
G1 Z-0.625 F60
X13.338 Y24.784 Z-0.677
X13.353 Y24.797 Z-0.725
X13.378 Y24.816 Z-0.766
X13.411 Y24.842 Z-0.798
X13.449 Y24.872 Z-0.818
X13.489 Y24.904 Z-0.825
X13.646 Y25.028 F120
G3 X13.679 Y25.309 I-0.124 J0.157
X7.321 Y20.291 I-3.179 J-2.509 F240
X13.679 Y25.309 I3.179 J2.509
X13.398 Y25.342 I-0.157 J-0.124 F480
G1 X13.241 Y25.218
X13.201 Y25.186 Z-0.818
X13.163 Y25.156 Z-0.798
X13.13 Y25.13 Z-0.766
X13.106 Y25.111 Z-0.725
X13.09 Y25.098 Z-0.677
X13.084 Y25.094 Z-0.625
X13.332 Y24.78 F240
Z-1.45 F60
X13.338 Y24.784 Z-1.502
X13.353 Y24.797 Z-1.55
X13.378 Y24.816 Z-1.591
X13.411 Y24.842 Z-1.623
X13.449 Y24.872 Z-1.643
X13.489 Y24.904 Z-1.65
X13.646 Y25.028 F120
G3 X13.679 Y25.309 I-0.124 J0.157
X7.321 Y20.291 I-3.179 J-2.509 F240
X13.679 Y25.309 I3.179 J2.509
X13.398 Y25.342 I-0.157 J-0.124 F480
G1 X13.241 Y25.218
X13.201 Y25.186 Z-1.643
X13.163 Y25.156 Z-1.623
X13.13 Y25.13 Z-1.591
X13.106 Y25.111 Z-1.55
X13.09 Y25.098 Z-1.502
X13.084 Y25.094 Z-1.45
X13.332 Y24.78 F240
Z-2.275 F60
X13.338 Y24.784 Z-2.327
X13.353 Y24.797 Z-2.375
X13.378 Y24.816 Z-2.416
X13.411 Y24.842 Z-2.448
X13.449 Y24.872 Z-2.468
X13.489 Y24.904 Z-2.475
X13.646 Y25.028 F120
G3 X13.679 Y25.309 I-0.124 J0.157
X7.321 Y20.291 I-3.179 J-2.509 F240
X13.679 Y25.309 I3.179 J2.509
X13.398 Y25.342 I-0.157 J-0.124 F480
G1 X13.241 Y25.218
X13.201 Y25.186 Z-2.468
X13.163 Y25.156 Z-2.448
X13.13 Y25.13 Z-2.416
X13.106 Y25.111 Z-2.375
X13.09 Y25.098 Z-2.327
X13.084 Y25.094 Z-2.275
X13.332 Y24.78 F240
Z-2.788 F60
X13.338 Y24.784 Z-2.839
X13.353 Y24.797 Z-2.888
X13.378 Y24.816 Z-2.929
X13.411 Y24.842 Z-2.961
X13.449 Y24.872 Z-2.981
X13.489 Y24.904 Z-2.987
X13.646 Y25.028 F120
G3 X13.679 Y25.309 I-0.124 J0.157
X7.321 Y20.291 I-3.179 J-2.509 F240
X13.679 Y25.309 I3.179 J2.509
X13.398 Y25.342 I-0.157 J-0.124 F480
G1 X13.241 Y25.218
X13.201 Y25.186 Z-2.981
X13.163 Y25.156 Z-2.961
X13.13 Y25.13 Z-2.929
X13.106 Y25.111 Z-2.888
X13.09 Y25.098 Z-2.839
X13.084 Y25.094 Z-2.788
X13.332 Y24.78 F240
Z-3.3 F60
X13.338 Y24.784 Z-3.352
X13.353 Y24.797 Z-3.4
X13.378 Y24.816 Z-3.441
X13.411 Y24.842 Z-3.473
X13.449 Y24.872 Z-3.493
X13.489 Y24.904 Z-3.5
X13.646 Y25.028 F120
G3 X13.679 Y25.309 I-0.124 J0.157
X7.321 Y20.291 I-3.179 J-2.509 F240
X13.679 Y25.309 I3.179 J2.509
X13.398 Y25.342 I-0.157 J-0.124 F480
G1 X13.241 Y25.218
X13.201 Y25.186 Z-3.493
X13.163 Y25.156 Z-3.473
X13.13 Y25.13 Z-3.441
X13.106 Y25.111 Z-3.4
X13.09 Y25.098 Z-3.352
X13.084 Y25.094 Z-3.3
G0 Z15

M9
M30
