(FRAME-SIDE-LEFT)
(T48  D=5 CR=0 TAPER=45DEG - ZMIN=-2.8 - CHAMFER MILL)
G90 G94 G91.1 G40 G49 G17
G21

(CHAMFER DRILL 5MM)
M5
M9
T48
(4 FLUTE FISH)
S14000 M3
G54
M8
G0 X18 Y159.8
G43 Z15 H26
Z5
G98 G73 X18 Y159.8 Z-2.799 R0.7 Q0.2 F60
Y165.8
X3
Y159.8
G80
Z15

(CHAMFER TRACE 5MM)
M8
G0 X18 Y166.3
Z15
Z1
G1 Z-0.65 F60
Z-2.15
Y166.292 Z-2.237
Y166.27 Z-2.321
Y166.233 Z-2.4
Y166.183 Z-2.471
Y166.121 Z-2.533
Y166.05 Z-2.583
Y165.971 Z-2.62
Y165.887 Z-2.642
Y165.8 Z-2.65
Y159.8
Y159.713 Z-2.642 F360
Y159.629 Z-2.62
Y159.55 Z-2.583
Y159.479 Z-2.533
Y159.417 Z-2.471
Y159.367 Z-2.4
Y159.33 Z-2.321
Y159.308 Z-2.237
Y159.3 Z-2.15
Z1
G0 Z5
X3 Y166.3
Z1
G1 Z-0.65 F60
Z-2.15
Y166.292 Z-2.237
Y166.27 Z-2.321
Y166.233 Z-2.4
Y166.183 Z-2.471
Y166.121 Z-2.533
Y166.05 Z-2.583
Y165.971 Z-2.62
Y165.887 Z-2.642
Y165.8 Z-2.65
Y159.8
Y159.713 Z-2.642 F360
Y159.629 Z-2.62
Y159.55 Z-2.583
Y159.479 Z-2.533
Y159.417 Z-2.471
Y159.367 Z-2.4
Y159.33 Z-2.321
Y159.308 Z-2.237
Y159.3 Z-2.15
Z1
G0 Z15

M9
M30
