(BUMPER-BODY)
(T11  D=2 CR=0 - ZMIN=-3.5 - FLAT END MILL)
G90 G94 G91.1 G40 G49 G17
G21

(HOLE POCKET)
M5
M9
T11
(DIAMOND OR SPIRAL)
S16000 M3
G54
M8
G0 X14.641 Y71.322
G43 Z15 H1
Z2
G1 Z0.699 F120
G3 X14.632 Y71.3 Z0.604 I0.865 J-0.393 F60
X14.608 Y71.238 Z0.532 I0.875 J-0.371
X14.582 Y71.15 Z0.5 I0.898 J-0.309
X16.43 Y70.709 Z0.239 I0.924 J-0.22
X14.582 Y71.15 Z-0.022 I-0.924 J0.22
X16.43 Y70.709 Z-0.283 I0.924 J-0.22
X14.582 Y71.15 Z-0.544 I-0.924 J0.22
X15.395 Y69.986 Z-0.685 I0.924 J-0.22
X16.456 Y70.929 Z-0.825 I0.111 J0.944
X15.4 I-0.528 J0
X16.5 I0.55 J0 F240
X13.5 I-1.5 J0
X16.5 I1.5 J0
X16.348 Y71.124 I-0.2 J0
G1 X14.897 Y71.484
G3 X14.673 Y71.386 I-0.048 J-0.194
X16.339 Y70.473 Z-1.086 I0.833 J-0.457 F60
X14.673 Y71.386 Z-1.347 I-0.833 J0.457
X16.339 Y70.473 Z-1.608 I0.833 J-0.457
X16.456 Y70.929 Z-1.65 I-0.833 J0.457
X15.4 I-0.528 J0
X16.5 I0.55 J0 F240
X13.5 I-1.5 J0
X16.5 I1.5 J0
X16.348 Y71.124 I-0.2 J0
G1 X14.897 Y71.484
G3 X14.673 Y71.386 I-0.048 J-0.194
X16.339 Y70.473 Z-1.911 I0.833 J-0.457 F60
X14.673 Y71.386 Z-2.172 I-0.833 J0.457
X16.339 Y70.473 Z-2.433 I0.833 J-0.457
X16.456 Y70.929 Z-2.475 I-0.833 J0.457
X15.4 I-0.528 J0
X16.5 I0.55 J0 F240
X13.5 I-1.5 J0
X16.5 I1.5 J0
G1 X16.417 Y70.981
X16.45 Y71.04
G3 X14.563 Y70.819 Z-2.736 I-0.944 J-0.111 F60
X16.456 Y70.929 Z-2.987 I0.944 J0.111
X15.4 I-0.528 J0
X16.5 I0.55 J0 F240
X13.5 I-1.5 J0
X16.5 I1.5 J0
G1 X16.417 Y70.981
X16.45 Y71.04
G3 X14.563 Y70.819 Z-3.249 I-0.944 J-0.111 F60
X16.456 Y70.929 Z-3.5 I0.944 J0.111
X15.4 I-0.528 J0
X16.5 I0.55 J0 F240
X13.5 I-1.5 J0
X16.5 I1.5 J0
X16.476 Y71.025 Z-3.473 I-0.2 J0 F480
X16.43 Y71.082 Z-3.4 I-0.176 J-0.096
X16.408 Y71.098 Z-3.3 I-0.13 J-0.152
G0 Z15

(HOLE BEARING FREE CONTOUR)
M8
G0 X14.719 Y66.133
Z15
Z2
G1 Z0 F60
X14.72 Y66.14 Z-0.052
X14.722 Y66.16 Z-0.1
X14.725 Y66.192 Z-0.141
X14.729 Y66.233 Z-0.173
X14.734 Y66.281 Z-0.193
X14.739 Y66.332 Z-0.2
X14.759 Y66.531 F120
G3 X14.58 Y66.75 I-0.199 J0.02
G2 X15.42 Y75.108 I0.42 J4.179 F240
X14.58 Y66.75 I-0.42 J-4.179
G3 X14.361 Y66.571 I-0.02 J-0.199 F480
G1 X14.341 Y66.372
X14.336 Y66.321 Z-0.193
X14.331 Y66.273 Z-0.173
X14.327 Y66.232 Z-0.141
X14.324 Y66.2 Z-0.1
X14.322 Y66.18 Z-0.052
X14.321 Y66.173 Z0
G0 Z15

(OUTER CONTOUR)
M8
G0 X7.873 Y-1.612
Z15
Z2
G1 Z-0.625 F60
X7.874 Y-1.606 Z-0.677
X7.877 Y-1.586 Z-0.725
X7.881 Y-1.554 Z-0.766
X7.886 Y-1.513 Z-0.798
X7.892 Y-1.465 Z-0.818
X7.898 Y-1.414 Z-0.825
X7.923 Y-1.216 F120
G3 X7.75 Y-0.992 I-0.198 J0.025
G2 X-1 Y8.929 I1.25 J9.922 F240
G1 Y132.929
G2 X7.75 Y142.851 I10 J0
X10 Y140.867 I0.25 J-1.984
G1 Y138.845
G2 X8.333 Y136.873 I-2 J0
G3 X5 Y132.929 I0.667 J-3.944
G1 Y109.929
X6.95
G2 X7.949 Y108.981 I0 J-1
G1 X8.158 Y104.981
G2 X7.16 Y103.929 I-0.999 J-0.052
G1 X5
Y82.294
G2 X6 Y81.294 I0 J-1
G1 Y77.294
G2 X5 Y76.294 I-1 J0
G1 Y75.929
G3 X7 Y73.929 I2 J0
G1 X10.39
G2 X20.5 Y70.929 I4.61 J-3
X10.39 Y67.929 I-5.5 J0
G1 X7
G3 X5 Y65.929 I0 J-2
G1 Y65.564
G2 X6 Y64.564 I0 J-1
G1 Y60.564
G2 X5 Y59.564 I-1 J0
G1 Y37.929
X7.16
G2 X8.158 Y36.877 I0 J-1
G1 X7.949 Y32.877
G2 X6.95 Y31.929 I-0.999 J0.052
G1 X5
Y8.929
G3 X8.333 Y4.985 I4 J0
G2 X10 Y3.013 I-0.333 J-1.972
G1 Y0.992
G2 X7.75 Y-0.992 I-2 J0
G3 X7.527 Y-1.166 I-0.025 J-0.198 F480
G1 X7.502 Y-1.364
X7.495 Y-1.415 Z-0.818
X7.489 Y-1.463 Z-0.798
X7.484 Y-1.504 Z-0.766
X7.48 Y-1.536 Z-0.725
X7.477 Y-1.556 Z-0.677
Y-1.562 Z-0.625
X7.873 Y-1.612 F240
Z-1.45 F60
X7.874 Y-1.606 Z-1.502
X7.877 Y-1.586 Z-1.55
X7.881 Y-1.554 Z-1.591
X7.886 Y-1.513 Z-1.623
X7.892 Y-1.465 Z-1.643
X7.898 Y-1.414 Z-1.65
X7.923 Y-1.216 F120
G3 X7.75 Y-0.992 I-0.198 J0.025
G2 X-1 Y8.929 I1.25 J9.922 F240
G1 Y132.929
G2 X7.75 Y142.851 I10 J0
X10 Y140.867 I0.25 J-1.984
G1 Y138.845
G2 X8.333 Y136.873 I-2 J0
G3 X5 Y132.929 I0.667 J-3.944
G1 Y109.929
X6.95
G2 X7.949 Y108.981 I0 J-1
G1 X8.158 Y104.981
G2 X7.16 Y103.929 I-0.999 J-0.052
G1 X5
Y82.294
G2 X6 Y81.294 I0 J-1
G1 Y77.294
G2 X5 Y76.294 I-1 J0
G1 Y75.929
G3 X7 Y73.929 I2 J0
G1 X10.39
G2 X20.5 Y70.929 I4.61 J-3
X10.39 Y67.929 I-5.5 J0
G1 X7
G3 X5 Y65.929 I0 J-2
G1 Y65.564
G2 X6 Y64.564 I0 J-1
G1 Y60.564
G2 X5 Y59.564 I-1 J0
G1 Y37.929
X7.16
G2 X8.158 Y36.877 I0 J-1
G1 X7.949 Y32.877
G2 X6.95 Y31.929 I-0.999 J0.052
G1 X5
Y8.929
G3 X8.333 Y4.985 I4 J0
G2 X10 Y3.013 I-0.333 J-1.972
G1 Y0.992
G2 X7.75 Y-0.992 I-2 J0
G3 X7.527 Y-1.166 I-0.025 J-0.198 F480
G1 X7.502 Y-1.364
X7.495 Y-1.415 Z-1.643
X7.489 Y-1.463 Z-1.623
X7.484 Y-1.504 Z-1.591
X7.48 Y-1.536 Z-1.55
X7.477 Y-1.556 Z-1.502
Y-1.562 Z-1.45
X7.873 Y-1.612 F240
Z-2.275 F60
X7.874 Y-1.606 Z-2.327
X7.877 Y-1.586 Z-2.375
X7.881 Y-1.554 Z-2.416
X7.886 Y-1.513 Z-2.448
X7.892 Y-1.465 Z-2.468
X7.898 Y-1.414 Z-2.475
X7.923 Y-1.216 F120
G3 X7.75 Y-0.992 I-0.198 J0.025
G2 X-1 Y8.929 I1.25 J9.922 F240
G1 Y132.929
G2 X7.75 Y142.851 I10 J0
X10 Y140.867 I0.25 J-1.984
G1 Y138.845
G2 X8.333 Y136.873 I-2 J0
G3 X5 Y132.929 I0.667 J-3.944
G1 Y109.929
X6.95
G2 X7.949 Y108.981 I0 J-1
G1 X8.158 Y104.981
G2 X7.16 Y103.929 I-0.999 J-0.052
G1 X5
Y82.294
G2 X6 Y81.294 I0 J-1
G1 Y77.294
G2 X5 Y76.294 I-1 J0
G1 Y75.929
G3 X7 Y73.929 I2 J0
G1 X10.39
G2 X20.5 Y70.929 I4.61 J-3
X10.39 Y67.929 I-5.5 J0
G1 X7
G3 X5 Y65.929 I0 J-2
G1 Y65.564
G2 X6 Y64.564 I0 J-1
G1 Y60.564
G2 X5 Y59.564 I-1 J0
G1 Y37.929
X7.16
G2 X8.158 Y36.877 I0 J-1
G1 X7.949 Y32.877
G2 X6.95 Y31.929 I-0.999 J0.052
G1 X5
Y8.929
G3 X8.333 Y4.985 I4 J0
G2 X10 Y3.013 I-0.333 J-1.972
G1 Y0.992
G2 X7.75 Y-0.992 I-2 J0
G3 X7.527 Y-1.166 I-0.025 J-0.198 F480
G1 X7.502 Y-1.364
X7.495 Y-1.415 Z-2.468
X7.489 Y-1.463 Z-2.448
X7.484 Y-1.504 Z-2.416
X7.48 Y-1.536 Z-2.375
X7.477 Y-1.556 Z-2.327
Y-1.562 Z-2.275
X7.873 Y-1.612 F240
Z-2.788 F60
X7.874 Y-1.606 Z-2.839
X7.877 Y-1.586 Z-2.888
X7.881 Y-1.554 Z-2.929
X7.886 Y-1.513 Z-2.961
X7.892 Y-1.465 Z-2.981
X7.898 Y-1.414 Z-2.987
X7.923 Y-1.216 F120
G3 X7.75 Y-0.992 I-0.198 J0.025
G2 X-1 Y8.929 I1.25 J9.922 F240
G1 Y132.929
G2 X7.75 Y142.851 I10 J0
X10 Y140.867 I0.25 J-1.984
G1 Y138.845
G2 X8.333 Y136.873 I-2 J0
G3 X5 Y132.929 I0.667 J-3.944
G1 Y109.929
X6.95
G2 X7.949 Y108.981 I0 J-1
G1 X8.158 Y104.981
G2 X7.16 Y103.929 I-0.999 J-0.052
G1 X5
Y82.294
G2 X6 Y81.294 I0 J-1
G1 Y77.294
G2 X5 Y76.294 I-1 J0
G1 Y75.929
G3 X7 Y73.929 I2 J0
G1 X10.39
G2 X20.5 Y70.929 I4.61 J-3
X10.39 Y67.929 I-5.5 J0
G1 X7
G3 X5 Y65.929 I0 J-2
G1 Y65.564
G2 X6 Y64.564 I0 J-1
G1 Y60.564
G2 X5 Y59.564 I-1 J0
G1 Y37.929
X7.16
G2 X8.158 Y36.877 I0 J-1
G1 X7.949 Y32.877
G2 X6.95 Y31.929 I-0.999 J0.052
G1 X5
Y8.929
G3 X8.333 Y4.985 I4 J0
G2 X10 Y3.013 I-0.333 J-1.972
G1 Y0.992
G2 X7.75 Y-0.992 I-2 J0
G3 X7.527 Y-1.166 I-0.025 J-0.198 F480
G1 X7.502 Y-1.364
X7.495 Y-1.415 Z-2.981
X7.489 Y-1.463 Z-2.961
X7.484 Y-1.504 Z-2.929
X7.48 Y-1.536 Z-2.888
X7.477 Y-1.556 Z-2.839
Y-1.562 Z-2.788
X7.873 Y-1.612 F240
Z-3.3 F60
X7.874 Y-1.606 Z-3.352
X7.877 Y-1.586 Z-3.4
X7.881 Y-1.554 Z-3.441
X7.886 Y-1.513 Z-3.473
X7.892 Y-1.465 Z-3.493
X7.898 Y-1.414 Z-3.5
X7.923 Y-1.216 F120
G3 X7.75 Y-0.992 I-0.198 J0.025
G2 X-1 Y8.929 I1.25 J9.922 F240
G1 Y132.929
G2 X7.75 Y142.851 I10 J0
X10 Y140.867 I0.25 J-1.984
G1 Y138.845
G2 X8.333 Y136.873 I-2 J0
G3 X5 Y132.929 I0.667 J-3.944
G1 Y109.929
X6.95
G2 X7.949 Y108.981 I0 J-1
G1 X8.158 Y104.981
G2 X7.16 Y103.929 I-0.999 J-0.052
G1 X5
Y82.294
G2 X6 Y81.294 I0 J-1
G1 Y77.294
G2 X5 Y76.294 I-1 J0
G1 Y75.929
G3 X7 Y73.929 I2 J0
G1 X10.39
G2 X20.5 Y70.929 I4.61 J-3
X10.39 Y67.929 I-5.5 J0
G1 X7
G3 X5 Y65.929 I0 J-2
G1 Y65.564
G2 X6 Y64.564 I0 J-1
G1 Y60.564
G2 X5 Y59.564 I-1 J0
G1 Y37.929
X7.16
G2 X8.158 Y36.877 I0 J-1
G1 X7.949 Y32.877
G2 X6.95 Y31.929 I-0.999 J0.052
G1 X5
Y8.929
G3 X8.333 Y4.985 I4 J0
G2 X10 Y3.013 I-0.333 J-1.972
G1 Y0.992
G2 X7.75 Y-0.992 I-2 J0
G3 X7.527 Y-1.166 I-0.025 J-0.198 F480
G1 X7.502 Y-1.364
X7.495 Y-1.415 Z-3.493
X7.489 Y-1.463 Z-3.473
X7.484 Y-1.504 Z-3.441
X7.48 Y-1.536 Z-3.4
X7.477 Y-1.556 Z-3.352
Y-1.562 Z-3.3
G0 Z15

M9
M30
