(WHEEL)
(T11  D=2 CR=0 - ZMIN=-4.5 - FLAT END MILL)
G90 G94 G91.1 G40 G49 G17
G21

(2MM FLAT HOLES)
M5
M9
T11
(DIAMOND OR SPIRAL)
S20000 M3
G54
M8
G0 X-36.512 Y13.634
G43 Z15 H1
Z2
G1 Z0.1 F100
X-36.513 Y13.635 F1000
G3 X-36.672 Y13.515 Z0.089 I-0.08 J-0.06
X-36.513 Y13.635 Z0.078 I0.08 J0.06
X-36.672 Y13.515 Z0.067 I-0.08 J-0.06
X-36.513 Y13.635 Z0.056 I0.08 J0.06
X-36.672 Y13.515 Z0.045 I-0.08 J-0.06
X-36.513 Y13.635 Z0.034 I0.08 J0.06
X-36.672 Y13.515 Z0.023 I-0.08 J-0.06
X-36.513 Y13.635 Z0.012 I0.08 J0.06
X-36.672 Y13.515 Z0.001 I-0.08 J-0.06
X-36.513 Y13.635 Z-0.01 I0.08 J0.06
X-36.672 Y13.515 Z-0.021 I-0.08 J-0.06
X-36.513 Y13.635 Z-0.032 I0.08 J0.06
X-36.672 Y13.515 Z-0.043 I-0.08 J-0.06
X-36.513 Y13.635 Z-0.054 I0.08 J0.06
X-36.672 Y13.515 Z-0.065 I-0.08 J-0.06
X-36.513 Y13.635 Z-0.076 I0.08 J0.06
X-36.672 Y13.515 Z-0.087 I-0.08 J-0.06
X-36.513 Y13.635 Z-0.098 I0.08 J0.06
X-36.672 Y13.515 Z-0.108 I-0.08 J-0.06
X-36.513 Y13.635 Z-0.119 I0.08 J0.06
X-36.672 Y13.515 Z-0.13 I-0.08 J-0.06
X-36.513 Y13.635 Z-0.141 I0.08 J0.06
X-36.672 Y13.515 Z-0.152 I-0.08 J-0.06
X-36.513 Y13.635 Z-0.163 I0.08 J0.06
X-36.672 Y13.515 Z-0.174 I-0.08 J-0.06
X-36.513 Y13.635 Z-0.185 I0.08 J0.06
X-36.672 Y13.515 Z-0.196 I-0.08 J-0.06
X-36.513 Y13.635 Z-0.207 I0.08 J0.06
X-36.672 Y13.515 Z-0.218 I-0.08 J-0.06
X-36.513 Y13.635 Z-0.229 I0.08 J0.06
X-36.672 Y13.515 Z-0.24 I-0.08 J-0.06
X-36.513 Y13.635 Z-0.251 I0.08 J0.06
X-36.672 Y13.515 Z-0.262 I-0.08 J-0.06
X-36.513 Y13.635 Z-0.273 I0.08 J0.06
X-36.672 Y13.515 Z-0.284 I-0.08 J-0.06
X-36.513 Y13.635 Z-0.295 I0.08 J0.06
X-36.672 Y13.515 Z-0.306 I-0.08 J-0.06
X-36.513 Y13.635 Z-0.317 I0.08 J0.06
X-36.672 Y13.515 Z-0.328 I-0.08 J-0.06
X-36.513 Y13.635 Z-0.339 I0.08 J0.06
X-36.672 Y13.515 Z-0.35 I-0.08 J-0.06
X-36.513 Y13.635 Z-0.361 I0.08 J0.06
X-36.672 Y13.515 Z-0.372 I-0.08 J-0.06
X-36.513 Y13.635 Z-0.383 I0.08 J0.06
X-36.672 Y13.515 Z-0.394 I-0.08 J-0.06
X-36.513 Y13.635 Z-0.405 I0.08 J0.06
X-36.672 Y13.515 Z-0.416 I-0.08 J-0.06
X-36.513 Y13.635 Z-0.427 I0.08 J0.06
X-36.672 Y13.515 Z-0.438 I-0.08 J-0.06
X-36.513 Y13.635 Z-0.449 I0.08 J0.06
X-36.672 Y13.515 Z-0.46 I-0.08 J-0.06
X-36.513 Y13.635 Z-0.471 I0.08 J0.06
X-36.672 Y13.515 Z-0.481 I-0.08 J-0.06
X-36.513 Y13.635 Z-0.492 I0.08 J0.06
X-36.672 Y13.515 Z-0.503 I-0.08 J-0.06
X-36.513 Y13.635 Z-0.514 I0.08 J0.06
X-36.672 Y13.515 Z-0.525 I-0.08 J-0.06
X-36.513 Y13.635 Z-0.536 I0.08 J0.06
X-36.672 Y13.515 Z-0.547 I-0.08 J-0.06
X-36.513 Y13.635 Z-0.558 I0.08 J0.06
X-36.672 Y13.515 Z-0.569 I-0.08 J-0.06
X-36.513 Y13.635 Z-0.58 I0.08 J0.06
X-36.672 Y13.515 Z-0.591 I-0.08 J-0.06
X-36.513 Y13.635 Z-0.602 I0.08 J0.06
X-36.672 Y13.515 Z-0.613 I-0.08 J-0.06
X-36.513 Y13.635 Z-0.624 I0.08 J0.06
X-36.672 Y13.515 Z-0.635 I-0.08 J-0.06
X-36.513 Y13.635 Z-0.646 I0.08 J0.06
X-36.672 Y13.515 Z-0.657 I-0.08 J-0.06
X-36.513 Y13.635 Z-0.668 I0.08 J0.06
X-36.672 Y13.515 Z-0.679 I-0.08 J-0.06
X-36.513 Y13.635 Z-0.69 I0.08 J0.06
X-36.672 Y13.515 Z-0.701 I-0.08 J-0.06
X-36.513 Y13.635 Z-0.712 I0.08 J0.06
X-36.672 Y13.515 Z-0.723 I-0.08 J-0.06
X-36.513 Y13.635 Z-0.734 I0.08 J0.06
X-36.672 Y13.515 Z-0.745 I-0.08 J-0.06
X-36.513 Y13.635 Z-0.756 I0.08 J0.06
X-36.672 Y13.515 Z-0.767 I-0.08 J-0.06
X-36.513 Y13.635 Z-0.778 I0.08 J0.06
X-36.672 Y13.515 Z-0.789 I-0.08 J-0.06
X-36.513 Y13.635 Z-0.8 I0.08 J0.06
X-36.672 Y13.515 Z-0.811 I-0.08 J-0.06
X-36.513 Y13.635 Z-0.822 I0.08 J0.06
X-36.672 Y13.515 Z-0.833 I-0.08 J-0.06
X-36.513 Y13.635 Z-0.844 I0.08 J0.06
X-36.672 Y13.515 Z-0.854 I-0.08 J-0.06
X-36.513 Y13.635 Z-0.865 I0.08 J0.06
X-36.672 Y13.515 Z-0.876 I-0.08 J-0.06
X-36.513 Y13.635 Z-0.887 I0.08 J0.06
X-36.672 Y13.515 Z-0.898 I-0.08 J-0.06
X-36.513 Y13.635 Z-0.909 I0.08 J0.06
X-36.672 Y13.515 Z-0.92 I-0.08 J-0.06
X-36.513 Y13.635 Z-0.931 I0.08 J0.06
X-36.672 Y13.515 Z-0.942 I-0.08 J-0.06
X-36.513 Y13.635 Z-0.953 I0.08 J0.06
X-36.672 Y13.515 Z-0.964 I-0.08 J-0.06
X-36.513 Y13.635 Z-0.975 I0.08 J0.06
X-36.672 Y13.515 Z-0.986 I-0.08 J-0.06
X-36.513 Y13.635 Z-0.997 I0.08 J0.06
X-36.672 Y13.515 Z-1.008 I-0.08 J-0.06
X-36.513 Y13.635 Z-1.019 I0.08 J0.06
X-36.672 Y13.515 Z-1.03 I-0.08 J-0.06
X-36.513 Y13.635 Z-1.041 I0.08 J0.06
X-36.672 Y13.515 Z-1.052 I-0.08 J-0.06
X-36.513 Y13.635 Z-1.063 I0.08 J0.06
X-36.672 Y13.515 Z-1.074 I-0.08 J-0.06
X-36.513 Y13.635 Z-1.085 I0.08 J0.06
X-36.672 Y13.515 Z-1.096 I-0.08 J-0.06
X-36.513 Y13.635 Z-1.107 I0.08 J0.06
X-36.672 Y13.515 Z-1.118 I-0.08 J-0.06
X-36.513 Y13.635 Z-1.129 I0.08 J0.06
X-36.672 Y13.515 Z-1.14 I-0.08 J-0.06
X-36.513 Y13.635 Z-1.151 I0.08 J0.06
X-36.672 Y13.515 Z-1.162 I-0.08 J-0.06
X-36.513 Y13.635 Z-1.173 I0.08 J0.06
X-36.672 Y13.515 Z-1.184 I-0.08 J-0.06
X-36.513 Y13.635 Z-1.195 I0.08 J0.06
X-36.672 Y13.515 Z-1.206 I-0.08 J-0.06
X-36.513 Y13.635 Z-1.217 I0.08 J0.06
X-36.672 Y13.515 Z-1.227 I-0.08 J-0.06
X-36.513 Y13.635 Z-1.238 I0.08 J0.06
X-36.672 Y13.515 Z-1.249 I-0.08 J-0.06
X-36.513 Y13.635 Z-1.26 I0.08 J0.06
X-36.672 Y13.515 Z-1.271 I-0.08 J-0.06
X-36.513 Y13.635 Z-1.282 I0.08 J0.06
X-36.672 Y13.515 Z-1.293 I-0.08 J-0.06
X-36.513 Y13.635 Z-1.304 I0.08 J0.06
X-36.672 Y13.515 Z-1.315 I-0.08 J-0.06
X-36.513 Y13.635 Z-1.326 I0.08 J0.06
X-36.672 Y13.515 Z-1.337 I-0.08 J-0.06
X-36.513 Y13.635 Z-1.348 I0.08 J0.06
X-36.672 Y13.515 Z-1.359 I-0.08 J-0.06
X-36.513 Y13.635 Z-1.37 I0.08 J0.06
X-36.672 Y13.515 Z-1.381 I-0.08 J-0.06
X-36.513 Y13.635 Z-1.392 I0.08 J0.06
X-36.672 Y13.515 Z-1.403 I-0.08 J-0.06
X-36.513 Y13.635 Z-1.414 I0.08 J0.06
X-36.672 Y13.515 Z-1.425 I-0.08 J-0.06
X-36.513 Y13.635 Z-1.436 I0.08 J0.06
X-36.672 Y13.515 Z-1.447 I-0.08 J-0.06
X-36.513 Y13.635 Z-1.458 I0.08 J0.06
X-36.672 Y13.515 Z-1.469 I-0.08 J-0.06
X-36.513 Y13.635 Z-1.48 I0.08 J0.06
X-36.672 Y13.515 Z-1.491 I-0.08 J-0.06
X-36.513 Y13.635 Z-1.502 I0.08 J0.06
X-36.672 Y13.515 Z-1.513 I-0.08 J-0.06
X-36.513 Y13.635 Z-1.524 I0.08 J0.06
X-36.672 Y13.515 Z-1.535 I-0.08 J-0.06
X-36.513 Y13.635 Z-1.546 I0.08 J0.06
X-36.672 Y13.515 Z-1.557 I-0.08 J-0.06
X-36.513 Y13.635 Z-1.568 I0.08 J0.06
X-36.672 Y13.515 Z-1.579 I-0.08 J-0.06
X-36.513 Y13.635 Z-1.59 I0.08 J0.06
X-36.672 Y13.515 Z-1.601 I-0.08 J-0.06
X-36.513 Y13.635 Z-1.611 I0.08 J0.06
X-36.672 Y13.515 Z-1.622 I-0.08 J-0.06
X-36.513 Y13.635 Z-1.633 I0.08 J0.06
X-36.672 Y13.515 Z-1.644 I-0.08 J-0.06
X-36.513 Y13.635 Z-1.655 I0.08 J0.06
X-36.672 Y13.515 Z-1.666 I-0.08 J-0.06
X-36.513 Y13.635 Z-1.677 I0.08 J0.06
X-36.672 Y13.515 Z-1.688 I-0.08 J-0.06
X-36.513 Y13.635 Z-1.699 I0.08 J0.06
X-36.672 Y13.515 Z-1.71 I-0.08 J-0.06
X-36.513 Y13.635 Z-1.721 I0.08 J0.06
X-36.672 Y13.515 Z-1.732 I-0.08 J-0.06
X-36.513 Y13.635 Z-1.743 I0.08 J0.06
X-36.672 Y13.515 Z-1.754 I-0.08 J-0.06
X-36.513 Y13.635 Z-1.765 I0.08 J0.06
X-36.672 Y13.515 Z-1.776 I-0.08 J-0.06
X-36.513 Y13.635 Z-1.787 I0.08 J0.06
X-36.672 Y13.515 Z-1.798 I-0.08 J-0.06
X-36.513 Y13.635 Z-1.809 I0.08 J0.06
X-36.672 Y13.515 Z-1.82 I-0.08 J-0.06
X-36.513 Y13.635 Z-1.831 I0.08 J0.06
X-36.672 Y13.515 Z-1.842 I-0.08 J-0.06
X-36.513 Y13.635 Z-1.853 I0.08 J0.06
X-36.672 Y13.515 Z-1.864 I-0.08 J-0.06
X-36.513 Y13.635 Z-1.875 I0.08 J0.06
X-36.672 Y13.515 Z-1.886 I-0.08 J-0.06
X-36.513 Y13.635 Z-1.897 I0.08 J0.06
X-36.672 Y13.515 Z-1.908 I-0.08 J-0.06
X-36.513 Y13.635 Z-1.919 I0.08 J0.06
X-36.672 Y13.515 Z-1.93 I-0.08 J-0.06
X-36.513 Y13.635 Z-1.941 I0.08 J0.06
X-36.672 Y13.515 Z-1.952 I-0.08 J-0.06
X-36.513 Y13.635 Z-1.963 I0.08 J0.06
X-36.672 Y13.515 Z-1.974 I-0.08 J-0.06
X-36.513 Y13.635 Z-1.984 I0.08 J0.06
X-36.672 Y13.515 Z-1.995 I-0.08 J-0.06
X-36.513 Y13.635 Z-2.006 I0.08 J0.06
X-36.672 Y13.515 Z-2.017 I-0.08 J-0.06
X-36.513 Y13.635 Z-2.028 I0.08 J0.06
X-36.672 Y13.515 Z-2.039 I-0.08 J-0.06
X-36.513 Y13.635 Z-2.05 I0.08 J0.06
X-36.672 Y13.515 Z-2.061 I-0.08 J-0.06
X-36.513 Y13.635 Z-2.072 I0.08 J0.06
X-36.672 Y13.515 Z-2.083 I-0.08 J-0.06
X-36.513 Y13.635 Z-2.094 I0.08 J0.06
X-36.672 Y13.515 Z-2.105 I-0.08 J-0.06
X-36.513 Y13.635 Z-2.116 I0.08 J0.06
X-36.672 Y13.515 Z-2.127 I-0.08 J-0.06
X-36.513 Y13.635 Z-2.138 I0.08 J0.06
X-36.672 Y13.515 Z-2.149 I-0.08 J-0.06
X-36.513 Y13.635 Z-2.16 I0.08 J0.06
X-36.672 Y13.515 Z-2.171 I-0.08 J-0.06
X-36.513 Y13.635 Z-2.182 I0.08 J0.06
X-36.672 Y13.515 Z-2.193 I-0.08 J-0.06
X-36.513 Y13.635 Z-2.204 I0.08 J0.06
X-36.672 Y13.515 Z-2.215 I-0.08 J-0.06
X-36.513 Y13.635 Z-2.226 I0.08 J0.06
X-36.672 Y13.515 Z-2.237 I-0.08 J-0.06
X-36.513 Y13.635 Z-2.248 I0.08 J0.06
X-36.672 Y13.515 Z-2.259 I-0.08 J-0.06
X-36.513 Y13.635 Z-2.27 I0.08 J0.06
X-36.672 Y13.515 Z-2.281 I-0.08 J-0.06
X-36.513 Y13.635 Z-2.292 I0.08 J0.06
X-36.672 Y13.515 Z-2.303 I-0.08 J-0.06
X-36.513 Y13.635 Z-2.314 I0.08 J0.06
X-36.672 Y13.515 Z-2.325 I-0.08 J-0.06
X-36.513 Y13.635 Z-2.336 I0.08 J0.06
X-36.672 Y13.515 Z-2.347 I-0.08 J-0.06
X-36.513 Y13.635 Z-2.357 I0.08 J0.06
X-36.672 Y13.515 Z-2.368 I-0.08 J-0.06
X-36.513 Y13.635 Z-2.379 I0.08 J0.06
X-36.672 Y13.515 Z-2.39 I-0.08 J-0.06
X-36.513 Y13.635 Z-2.401 I0.08 J0.06
X-36.672 Y13.515 Z-2.412 I-0.08 J-0.06
X-36.513 Y13.635 Z-2.423 I0.08 J0.06
X-36.672 Y13.515 Z-2.434 I-0.08 J-0.06
X-36.513 Y13.635 Z-2.445 I0.08 J0.06
X-36.672 Y13.515 Z-2.456 I-0.08 J-0.06
X-36.513 Y13.635 Z-2.467 I0.08 J0.06
X-36.672 Y13.515 Z-2.478 I-0.08 J-0.06
X-36.513 Y13.635 Z-2.489 I0.08 J0.06
X-36.672 Y13.515 Z-2.5 I-0.08 J-0.06
X-36.513 Y13.635 Z-2.511 I0.08 J0.06
X-36.672 Y13.515 Z-2.522 I-0.08 J-0.06
X-36.513 Y13.635 Z-2.533 I0.08 J0.06
X-36.672 Y13.515 Z-2.544 I-0.08 J-0.06
X-36.513 Y13.635 Z-2.555 I0.08 J0.06
X-36.672 Y13.515 Z-2.566 I-0.08 J-0.06
X-36.513 Y13.635 Z-2.577 I0.08 J0.06
X-36.672 Y13.515 Z-2.588 I-0.08 J-0.06
X-36.513 Y13.635 Z-2.599 I0.08 J0.06
X-36.672 Y13.515 Z-2.61 I-0.08 J-0.06
X-36.513 Y13.635 Z-2.621 I0.08 J0.06
X-36.672 Y13.515 Z-2.632 I-0.08 J-0.06
X-36.513 Y13.635 Z-2.643 I0.08 J0.06
X-36.672 Y13.515 Z-2.654 I-0.08 J-0.06
X-36.513 Y13.635 Z-2.665 I0.08 J0.06
X-36.672 Y13.515 Z-2.676 I-0.08 J-0.06
X-36.513 Y13.635 Z-2.687 I0.08 J0.06
X-36.672 Y13.515 Z-2.698 I-0.08 J-0.06
X-36.513 Y13.635 Z-2.709 I0.08 J0.06
X-36.672 Y13.515 Z-2.72 I-0.08 J-0.06
X-36.513 Y13.635 Z-2.73 I0.08 J0.06
X-36.672 Y13.515 Z-2.741 I-0.08 J-0.06
X-36.513 Y13.635 Z-2.752 I0.08 J0.06
X-36.672 Y13.515 Z-2.763 I-0.08 J-0.06
X-36.513 Y13.635 Z-2.774 I0.08 J0.06
X-36.672 Y13.515 Z-2.785 I-0.08 J-0.06
X-36.513 Y13.635 Z-2.796 I0.08 J0.06
X-36.672 Y13.515 Z-2.807 I-0.08 J-0.06
X-36.513 Y13.635 Z-2.818 I0.08 J0.06
X-36.672 Y13.515 Z-2.829 I-0.08 J-0.06
X-36.513 Y13.635 Z-2.84 I0.08 J0.06
X-36.672 Y13.515 Z-2.851 I-0.08 J-0.06
X-36.513 Y13.635 Z-2.862 I0.08 J0.06
X-36.672 Y13.515 Z-2.873 I-0.08 J-0.06
X-36.513 Y13.635 Z-2.884 I0.08 J0.06
X-36.672 Y13.515 Z-2.895 I-0.08 J-0.06
X-36.513 Y13.635 Z-2.906 I0.08 J0.06
X-36.672 Y13.515 Z-2.917 I-0.08 J-0.06
X-36.513 Y13.635 Z-2.928 I0.08 J0.06
X-36.672 Y13.515 Z-2.939 I-0.08 J-0.06
X-36.513 Y13.635 Z-2.95 I0.08 J0.06
X-36.672 Y13.515 Z-2.961 I-0.08 J-0.06
X-36.513 Y13.635 Z-2.972 I0.08 J0.06
X-36.672 Y13.515 Z-2.983 I-0.08 J-0.06
X-36.513 Y13.635 Z-2.994 I0.08 J0.06
X-36.672 Y13.515 Z-3.005 I-0.08 J-0.06
X-36.513 Y13.635 Z-3.016 I0.08 J0.06
X-36.672 Y13.515 Z-3.027 I-0.08 J-0.06
X-36.513 Y13.635 Z-3.038 I0.08 J0.06
X-36.672 Y13.515 Z-3.049 I-0.08 J-0.06
X-36.513 Y13.635 Z-3.06 I0.08 J0.06
X-36.672 Y13.515 Z-3.071 I-0.08 J-0.06
X-36.513 Y13.635 Z-3.082 I0.08 J0.06
X-36.672 Y13.515 Z-3.093 I-0.08 J-0.06
X-36.513 Y13.635 Z-3.103 I0.08 J0.06
X-36.672 Y13.515 Z-3.114 I-0.08 J-0.06
X-36.513 Y13.635 Z-3.125 I0.08 J0.06
X-36.672 Y13.515 Z-3.136 I-0.08 J-0.06
X-36.513 Y13.635 Z-3.147 I0.08 J0.06
X-36.672 Y13.515 Z-3.158 I-0.08 J-0.06
X-36.513 Y13.635 Z-3.169 I0.08 J0.06
X-36.672 Y13.515 Z-3.18 I-0.08 J-0.06
X-36.513 Y13.635 Z-3.191 I0.08 J0.06
X-36.672 Y13.515 Z-3.202 I-0.08 J-0.06
X-36.513 Y13.635 Z-3.213 I0.08 J0.06
X-36.672 Y13.515 Z-3.224 I-0.08 J-0.06
X-36.513 Y13.635 Z-3.235 I0.08 J0.06
X-36.672 Y13.515 Z-3.246 I-0.08 J-0.06
X-36.513 Y13.635 Z-3.257 I0.08 J0.06
X-36.672 Y13.515 Z-3.268 I-0.08 J-0.06
X-36.513 Y13.635 Z-3.279 I0.08 J0.06
X-36.672 Y13.515 Z-3.29 I-0.08 J-0.06
X-36.513 Y13.635 Z-3.301 I0.08 J0.06
X-36.672 Y13.515 Z-3.312 I-0.08 J-0.06
X-36.513 Y13.635 Z-3.323 I0.08 J0.06
X-36.672 Y13.515 Z-3.334 I-0.08 J-0.06
X-36.513 Y13.635 Z-3.345 I0.08 J0.06
X-36.672 Y13.515 Z-3.356 I-0.08 J-0.06
X-36.513 Y13.635 Z-3.367 I0.08 J0.06
X-36.672 Y13.515 Z-3.378 I-0.08 J-0.06
X-36.513 Y13.635 Z-3.389 I0.08 J0.06
X-36.672 Y13.515 Z-3.4 I-0.08 J-0.06
X-36.513 Y13.635 Z-3.411 I0.08 J0.06
X-36.672 Y13.515 Z-3.422 I-0.08 J-0.06
X-36.513 Y13.635 Z-3.433 I0.08 J0.06
X-36.672 Y13.515 Z-3.444 I-0.08 J-0.06
X-36.513 Y13.635 Z-3.455 I0.08 J0.06
X-36.672 Y13.515 Z-3.466 I-0.08 J-0.06
X-36.513 Y13.635 Z-3.476 I0.08 J0.06
X-36.672 Y13.515 Z-3.487 I-0.08 J-0.06
X-36.513 Y13.635 Z-3.498 I0.08 J0.06
X-36.672 Y13.515 Z-3.509 I-0.08 J-0.06
X-36.513 Y13.635 Z-3.52 I0.08 J0.06
X-36.672 Y13.515 Z-3.531 I-0.08 J-0.06
X-36.513 Y13.635 Z-3.542 I0.08 J0.06
X-36.672 Y13.515 Z-3.553 I-0.08 J-0.06
X-36.513 Y13.635 Z-3.564 I0.08 J0.06
X-36.672 Y13.515 Z-3.575 I-0.08 J-0.06
X-36.513 Y13.635 Z-3.586 I0.08 J0.06
X-36.672 Y13.515 Z-3.597 I-0.08 J-0.06
X-36.513 Y13.635 Z-3.608 I0.08 J0.06
X-36.672 Y13.515 Z-3.619 I-0.08 J-0.06
X-36.513 Y13.635 Z-3.63 I0.08 J0.06
X-36.672 Y13.515 Z-3.641 I-0.08 J-0.06
X-36.513 Y13.635 Z-3.652 I0.08 J0.06
X-36.672 Y13.515 Z-3.663 I-0.08 J-0.06
X-36.513 Y13.635 Z-3.674 I0.08 J0.06
X-36.672 Y13.515 Z-3.685 I-0.08 J-0.06
X-36.513 Y13.635 Z-3.696 I0.08 J0.06
X-36.672 Y13.515 Z-3.707 I-0.08 J-0.06
X-36.513 Y13.635 Z-3.718 I0.08 J0.06
X-36.672 Y13.515 Z-3.729 I-0.08 J-0.06
X-36.513 Y13.635 Z-3.74 I0.08 J0.06
X-36.672 Y13.515 Z-3.751 I-0.08 J-0.06
X-36.513 Y13.635 Z-3.762 I0.08 J0.06
X-36.672 Y13.515 Z-3.773 I-0.08 J-0.06
X-36.513 Y13.635 Z-3.784 I0.08 J0.06
X-36.672 Y13.515 Z-3.795 I-0.08 J-0.06
X-36.513 Y13.635 Z-3.806 I0.08 J0.06
X-36.672 Y13.515 Z-3.817 I-0.08 J-0.06
X-36.513 Y13.635 Z-3.828 I0.08 J0.06
X-36.672 Y13.515 Z-3.839 I-0.08 J-0.06
X-36.513 Y13.635 Z-3.849 I0.08 J0.06
X-36.672 Y13.515 Z-3.86 I-0.08 J-0.06
X-36.513 Y13.635 Z-3.871 I0.08 J0.06
X-36.672 Y13.515 Z-3.882 I-0.08 J-0.06
X-36.513 Y13.635 Z-3.893 I0.08 J0.06
X-36.672 Y13.515 Z-3.904 I-0.08 J-0.06
X-36.513 Y13.635 Z-3.915 I0.08 J0.06
X-36.672 Y13.515 Z-3.926 I-0.08 J-0.06
X-36.513 Y13.635 Z-3.937 I0.08 J0.06
X-36.672 Y13.515 Z-3.948 I-0.08 J-0.06
X-36.513 Y13.635 Z-3.959 I0.08 J0.06
X-36.672 Y13.515 Z-3.97 I-0.08 J-0.06
X-36.513 Y13.635 Z-3.981 I0.08 J0.06
X-36.672 Y13.515 Z-3.992 I-0.08 J-0.06
X-36.513 Y13.635 Z-4.003 I0.08 J0.06
X-36.672 Y13.515 Z-4.014 I-0.08 J-0.06
X-36.513 Y13.635 Z-4.025 I0.08 J0.06
X-36.672 Y13.515 Z-4.036 I-0.08 J-0.06
X-36.513 Y13.635 Z-4.047 I0.08 J0.06
X-36.672 Y13.515 Z-4.058 I-0.08 J-0.06
X-36.513 Y13.635 Z-4.069 I0.08 J0.06
X-36.672 Y13.515 Z-4.08 I-0.08 J-0.06
X-36.513 Y13.635 Z-4.091 I0.08 J0.06
X-36.672 Y13.515 Z-4.102 I-0.08 J-0.06
X-36.513 Y13.635 Z-4.113 I0.08 J0.06
X-36.672 Y13.515 Z-4.124 I-0.08 J-0.06
X-36.513 Y13.635 Z-4.135 I0.08 J0.06
X-36.672 Y13.515 Z-4.146 I-0.08 J-0.06
X-36.513 Y13.635 Z-4.157 I0.08 J0.06
X-36.672 Y13.515 Z-4.168 I-0.08 J-0.06
X-36.513 Y13.635 Z-4.179 I0.08 J0.06
X-36.672 Y13.515 Z-4.19 I-0.08 J-0.06
X-36.513 Y13.635 Z-4.201 I0.08 J0.06
X-36.672 Y13.515 Z-4.212 I-0.08 J-0.06
X-36.513 Y13.635 Z-4.222 I0.08 J0.06
X-36.672 Y13.515 Z-4.233 I-0.08 J-0.06
X-36.513 Y13.635 Z-4.244 I0.08 J0.06
X-36.672 Y13.515 Z-4.255 I-0.08 J-0.06
X-36.513 Y13.635 Z-4.266 I0.08 J0.06
X-36.672 Y13.515 Z-4.277 I-0.08 J-0.06
X-36.513 Y13.635 Z-4.288 I0.08 J0.06
X-36.672 Y13.515 Z-4.299 I-0.08 J-0.06
X-36.513 Y13.635 Z-4.31 I0.08 J0.06
X-36.672 Y13.515 Z-4.321 I-0.08 J-0.06
X-36.513 Y13.635 Z-4.332 I0.08 J0.06
X-36.672 Y13.515 Z-4.343 I-0.08 J-0.06
X-36.513 Y13.635 Z-4.354 I0.08 J0.06
X-36.672 Y13.515 Z-4.365 I-0.08 J-0.06
X-36.513 Y13.635 Z-4.376 I0.08 J0.06
X-36.672 Y13.515 Z-4.387 I-0.08 J-0.06
X-36.513 Y13.635 Z-4.398 I0.08 J0.06
X-36.672 Y13.515 Z-4.409 I-0.08 J-0.06
X-36.513 Y13.635 Z-4.42 I0.08 J0.06
X-36.672 Y13.515 Z-4.431 I-0.08 J-0.06
X-36.513 Y13.635 Z-4.442 I0.08 J0.06
X-36.672 Y13.515 Z-4.453 I-0.08 J-0.06
X-36.513 Y13.635 Z-4.464 I0.08 J0.06
X-36.672 Y13.515 Z-4.475 I-0.08 J-0.06
X-36.513 Y13.635 Z-4.486 I0.08 J0.06
X-36.672 Y13.515 Z-4.497 I-0.08 J-0.06
X-36.592 Y13.475 Z-4.5 I0.08 J0.06
Y13.675 I0 J0.1
Y13.475 I0 J-0.1
G0 Z5
X-21.919 Y5.209
Z2
G1 Z0.1 F100
X-21.92 Y5.21 F1000
G3 X-22.08 Y5.09 Z0.089 I-0.08 J-0.06
X-21.92 Y5.21 Z0.078 I0.08 J0.06
X-22.08 Y5.09 Z0.067 I-0.08 J-0.06
X-21.92 Y5.21 Z0.056 I0.08 J0.06
X-22.08 Y5.09 Z0.045 I-0.08 J-0.06
X-21.92 Y5.21 Z0.034 I0.08 J0.06
X-22.08 Y5.09 Z0.023 I-0.08 J-0.06
X-21.92 Y5.21 Z0.012 I0.08 J0.06
X-22.08 Y5.09 Z0.001 I-0.08 J-0.06
X-21.92 Y5.21 Z-0.01 I0.08 J0.06
X-22.08 Y5.09 Z-0.021 I-0.08 J-0.06
X-21.92 Y5.21 Z-0.032 I0.08 J0.06
X-22.08 Y5.09 Z-0.043 I-0.08 J-0.06
X-21.92 Y5.21 Z-0.054 I0.08 J0.06
X-22.08 Y5.09 Z-0.065 I-0.08 J-0.06
X-21.92 Y5.21 Z-0.076 I0.08 J0.06
X-22.08 Y5.09 Z-0.087 I-0.08 J-0.06
X-21.92 Y5.21 Z-0.098 I0.08 J0.06
X-22.08 Y5.09 Z-0.108 I-0.08 J-0.06
X-21.92 Y5.21 Z-0.119 I0.08 J0.06
X-22.08 Y5.09 Z-0.13 I-0.08 J-0.06
X-21.92 Y5.21 Z-0.141 I0.08 J0.06
X-22.08 Y5.09 Z-0.152 I-0.08 J-0.06
X-21.92 Y5.21 Z-0.163 I0.08 J0.06
X-22.08 Y5.09 Z-0.174 I-0.08 J-0.06
X-21.92 Y5.21 Z-0.185 I0.08 J0.06
X-22.08 Y5.09 Z-0.196 I-0.08 J-0.06
X-21.92 Y5.21 Z-0.207 I0.08 J0.06
X-22.08 Y5.09 Z-0.218 I-0.08 J-0.06
X-21.92 Y5.21 Z-0.229 I0.08 J0.06
X-22.08 Y5.09 Z-0.24 I-0.08 J-0.06
X-21.92 Y5.21 Z-0.251 I0.08 J0.06
X-22.08 Y5.09 Z-0.262 I-0.08 J-0.06
X-21.92 Y5.21 Z-0.273 I0.08 J0.06
X-22.08 Y5.09 Z-0.284 I-0.08 J-0.06
X-21.92 Y5.21 Z-0.295 I0.08 J0.06
X-22.08 Y5.09 Z-0.306 I-0.08 J-0.06
X-21.92 Y5.21 Z-0.317 I0.08 J0.06
X-22.08 Y5.09 Z-0.328 I-0.08 J-0.06
X-21.92 Y5.21 Z-0.339 I0.08 J0.06
X-22.08 Y5.09 Z-0.35 I-0.08 J-0.06
X-21.92 Y5.21 Z-0.361 I0.08 J0.06
X-22.08 Y5.09 Z-0.372 I-0.08 J-0.06
X-21.92 Y5.21 Z-0.383 I0.08 J0.06
X-22.08 Y5.09 Z-0.394 I-0.08 J-0.06
X-21.92 Y5.21 Z-0.405 I0.08 J0.06
X-22.08 Y5.09 Z-0.416 I-0.08 J-0.06
X-21.92 Y5.21 Z-0.427 I0.08 J0.06
X-22.08 Y5.09 Z-0.438 I-0.08 J-0.06
X-21.92 Y5.21 Z-0.449 I0.08 J0.06
X-22.08 Y5.09 Z-0.46 I-0.08 J-0.06
X-21.92 Y5.21 Z-0.471 I0.08 J0.06
X-22.08 Y5.09 Z-0.481 I-0.08 J-0.06
X-21.92 Y5.21 Z-0.492 I0.08 J0.06
X-22.08 Y5.09 Z-0.503 I-0.08 J-0.06
X-21.92 Y5.21 Z-0.514 I0.08 J0.06
X-22.08 Y5.09 Z-0.525 I-0.08 J-0.06
X-21.92 Y5.21 Z-0.536 I0.08 J0.06
X-22.08 Y5.09 Z-0.547 I-0.08 J-0.06
X-21.92 Y5.21 Z-0.558 I0.08 J0.06
X-22.08 Y5.09 Z-0.569 I-0.08 J-0.06
X-21.92 Y5.21 Z-0.58 I0.08 J0.06
X-22.08 Y5.09 Z-0.591 I-0.08 J-0.06
X-21.92 Y5.21 Z-0.602 I0.08 J0.06
X-22.08 Y5.09 Z-0.613 I-0.08 J-0.06
X-21.92 Y5.21 Z-0.624 I0.08 J0.06
X-22.08 Y5.09 Z-0.635 I-0.08 J-0.06
X-21.92 Y5.21 Z-0.646 I0.08 J0.06
X-22.08 Y5.09 Z-0.657 I-0.08 J-0.06
X-21.92 Y5.21 Z-0.668 I0.08 J0.06
X-22.08 Y5.09 Z-0.679 I-0.08 J-0.06
X-21.92 Y5.21 Z-0.69 I0.08 J0.06
X-22.08 Y5.09 Z-0.701 I-0.08 J-0.06
X-21.92 Y5.21 Z-0.712 I0.08 J0.06
X-22.08 Y5.09 Z-0.723 I-0.08 J-0.06
X-21.92 Y5.21 Z-0.734 I0.08 J0.06
X-22.08 Y5.09 Z-0.745 I-0.08 J-0.06
X-21.92 Y5.21 Z-0.756 I0.08 J0.06
X-22.08 Y5.09 Z-0.767 I-0.08 J-0.06
X-21.92 Y5.21 Z-0.778 I0.08 J0.06
X-22.08 Y5.09 Z-0.789 I-0.08 J-0.06
X-21.92 Y5.21 Z-0.8 I0.08 J0.06
X-22.08 Y5.09 Z-0.811 I-0.08 J-0.06
X-21.92 Y5.21 Z-0.822 I0.08 J0.06
X-22.08 Y5.09 Z-0.833 I-0.08 J-0.06
X-21.92 Y5.21 Z-0.844 I0.08 J0.06
X-22.08 Y5.09 Z-0.854 I-0.08 J-0.06
X-21.92 Y5.21 Z-0.865 I0.08 J0.06
X-22.08 Y5.09 Z-0.876 I-0.08 J-0.06
X-21.92 Y5.21 Z-0.887 I0.08 J0.06
X-22.08 Y5.09 Z-0.898 I-0.08 J-0.06
X-21.92 Y5.21 Z-0.909 I0.08 J0.06
X-22.08 Y5.09 Z-0.92 I-0.08 J-0.06
X-21.92 Y5.21 Z-0.931 I0.08 J0.06
X-22.08 Y5.09 Z-0.942 I-0.08 J-0.06
X-21.92 Y5.21 Z-0.953 I0.08 J0.06
X-22.08 Y5.09 Z-0.964 I-0.08 J-0.06
X-21.92 Y5.21 Z-0.975 I0.08 J0.06
X-22.08 Y5.09 Z-0.986 I-0.08 J-0.06
X-21.92 Y5.21 Z-0.997 I0.08 J0.06
X-22.08 Y5.09 Z-1.008 I-0.08 J-0.06
X-21.92 Y5.21 Z-1.019 I0.08 J0.06
X-22.08 Y5.09 Z-1.03 I-0.08 J-0.06
X-21.92 Y5.21 Z-1.041 I0.08 J0.06
X-22.08 Y5.09 Z-1.052 I-0.08 J-0.06
X-21.92 Y5.21 Z-1.063 I0.08 J0.06
X-22.08 Y5.09 Z-1.074 I-0.08 J-0.06
X-21.92 Y5.21 Z-1.085 I0.08 J0.06
X-22.08 Y5.09 Z-1.096 I-0.08 J-0.06
X-21.92 Y5.21 Z-1.107 I0.08 J0.06
X-22.08 Y5.09 Z-1.118 I-0.08 J-0.06
X-21.92 Y5.21 Z-1.129 I0.08 J0.06
X-22.08 Y5.09 Z-1.14 I-0.08 J-0.06
X-21.92 Y5.21 Z-1.151 I0.08 J0.06
X-22.08 Y5.09 Z-1.162 I-0.08 J-0.06
X-21.92 Y5.21 Z-1.173 I0.08 J0.06
X-22.08 Y5.09 Z-1.184 I-0.08 J-0.06
X-21.92 Y5.21 Z-1.195 I0.08 J0.06
X-22.08 Y5.09 Z-1.206 I-0.08 J-0.06
X-21.92 Y5.21 Z-1.217 I0.08 J0.06
X-22.08 Y5.09 Z-1.227 I-0.08 J-0.06
X-21.92 Y5.21 Z-1.238 I0.08 J0.06
X-22.08 Y5.09 Z-1.249 I-0.08 J-0.06
X-21.92 Y5.21 Z-1.26 I0.08 J0.06
X-22.08 Y5.09 Z-1.271 I-0.08 J-0.06
X-21.92 Y5.21 Z-1.282 I0.08 J0.06
X-22.08 Y5.09 Z-1.293 I-0.08 J-0.06
X-21.92 Y5.21 Z-1.304 I0.08 J0.06
X-22.08 Y5.09 Z-1.315 I-0.08 J-0.06
X-21.92 Y5.21 Z-1.326 I0.08 J0.06
X-22.08 Y5.09 Z-1.337 I-0.08 J-0.06
X-21.92 Y5.21 Z-1.348 I0.08 J0.06
X-22.08 Y5.09 Z-1.359 I-0.08 J-0.06
X-21.92 Y5.21 Z-1.37 I0.08 J0.06
X-22.08 Y5.09 Z-1.381 I-0.08 J-0.06
X-21.92 Y5.21 Z-1.392 I0.08 J0.06
X-22.08 Y5.09 Z-1.403 I-0.08 J-0.06
X-21.92 Y5.21 Z-1.414 I0.08 J0.06
X-22.08 Y5.09 Z-1.425 I-0.08 J-0.06
X-21.92 Y5.21 Z-1.436 I0.08 J0.06
X-22.08 Y5.09 Z-1.447 I-0.08 J-0.06
X-21.92 Y5.21 Z-1.458 I0.08 J0.06
X-22.08 Y5.09 Z-1.469 I-0.08 J-0.06
X-21.92 Y5.21 Z-1.48 I0.08 J0.06
X-22.08 Y5.09 Z-1.491 I-0.08 J-0.06
X-21.92 Y5.21 Z-1.502 I0.08 J0.06
X-22.08 Y5.09 Z-1.513 I-0.08 J-0.06
X-21.92 Y5.21 Z-1.524 I0.08 J0.06
X-22.08 Y5.09 Z-1.535 I-0.08 J-0.06
X-21.92 Y5.21 Z-1.546 I0.08 J0.06
X-22.08 Y5.09 Z-1.557 I-0.08 J-0.06
X-21.92 Y5.21 Z-1.568 I0.08 J0.06
X-22.08 Y5.09 Z-1.579 I-0.08 J-0.06
X-21.92 Y5.21 Z-1.59 I0.08 J0.06
X-22.08 Y5.09 Z-1.601 I-0.08 J-0.06
X-21.92 Y5.21 Z-1.611 I0.08 J0.06
X-22.08 Y5.09 Z-1.622 I-0.08 J-0.06
X-21.92 Y5.21 Z-1.633 I0.08 J0.06
X-22.08 Y5.09 Z-1.644 I-0.08 J-0.06
X-21.92 Y5.21 Z-1.655 I0.08 J0.06
X-22.08 Y5.09 Z-1.666 I-0.08 J-0.06
X-21.92 Y5.21 Z-1.677 I0.08 J0.06
X-22.08 Y5.09 Z-1.688 I-0.08 J-0.06
X-21.92 Y5.21 Z-1.699 I0.08 J0.06
X-22.08 Y5.09 Z-1.71 I-0.08 J-0.06
X-21.92 Y5.21 Z-1.721 I0.08 J0.06
X-22.08 Y5.09 Z-1.732 I-0.08 J-0.06
X-21.92 Y5.21 Z-1.743 I0.08 J0.06
X-22.08 Y5.09 Z-1.754 I-0.08 J-0.06
X-21.92 Y5.21 Z-1.765 I0.08 J0.06
X-22.08 Y5.09 Z-1.776 I-0.08 J-0.06
X-21.92 Y5.21 Z-1.787 I0.08 J0.06
X-22.08 Y5.09 Z-1.798 I-0.08 J-0.06
X-21.92 Y5.21 Z-1.809 I0.08 J0.06
X-22.08 Y5.09 Z-1.82 I-0.08 J-0.06
X-21.92 Y5.21 Z-1.831 I0.08 J0.06
X-22.08 Y5.09 Z-1.842 I-0.08 J-0.06
X-21.92 Y5.21 Z-1.853 I0.08 J0.06
X-22.08 Y5.09 Z-1.864 I-0.08 J-0.06
X-21.92 Y5.21 Z-1.875 I0.08 J0.06
X-22.08 Y5.09 Z-1.886 I-0.08 J-0.06
X-21.92 Y5.21 Z-1.897 I0.08 J0.06
X-22.08 Y5.09 Z-1.908 I-0.08 J-0.06
X-21.92 Y5.21 Z-1.919 I0.08 J0.06
X-22.08 Y5.09 Z-1.93 I-0.08 J-0.06
X-21.92 Y5.21 Z-1.941 I0.08 J0.06
X-22.08 Y5.09 Z-1.952 I-0.08 J-0.06
X-21.92 Y5.21 Z-1.963 I0.08 J0.06
X-22.08 Y5.09 Z-1.974 I-0.08 J-0.06
X-21.92 Y5.21 Z-1.984 I0.08 J0.06
X-22.08 Y5.09 Z-1.995 I-0.08 J-0.06
X-21.92 Y5.21 Z-2.006 I0.08 J0.06
X-22.08 Y5.09 Z-2.017 I-0.08 J-0.06
X-21.92 Y5.21 Z-2.028 I0.08 J0.06
X-22.08 Y5.09 Z-2.039 I-0.08 J-0.06
X-21.92 Y5.21 Z-2.05 I0.08 J0.06
X-22.08 Y5.09 Z-2.061 I-0.08 J-0.06
X-21.92 Y5.21 Z-2.072 I0.08 J0.06
X-22.08 Y5.09 Z-2.083 I-0.08 J-0.06
X-21.92 Y5.21 Z-2.094 I0.08 J0.06
X-22.08 Y5.09 Z-2.105 I-0.08 J-0.06
X-21.92 Y5.21 Z-2.116 I0.08 J0.06
X-22.08 Y5.09 Z-2.127 I-0.08 J-0.06
X-21.92 Y5.21 Z-2.138 I0.08 J0.06
X-22.08 Y5.09 Z-2.149 I-0.08 J-0.06
X-21.92 Y5.21 Z-2.16 I0.08 J0.06
X-22.08 Y5.09 Z-2.171 I-0.08 J-0.06
X-21.92 Y5.21 Z-2.182 I0.08 J0.06
X-22.08 Y5.09 Z-2.193 I-0.08 J-0.06
X-21.92 Y5.21 Z-2.204 I0.08 J0.06
X-22.08 Y5.09 Z-2.215 I-0.08 J-0.06
X-21.92 Y5.21 Z-2.226 I0.08 J0.06
X-22.08 Y5.09 Z-2.237 I-0.08 J-0.06
X-21.92 Y5.21 Z-2.248 I0.08 J0.06
X-22.08 Y5.09 Z-2.259 I-0.08 J-0.06
X-21.92 Y5.21 Z-2.27 I0.08 J0.06
X-22.08 Y5.09 Z-2.281 I-0.08 J-0.06
X-21.92 Y5.21 Z-2.292 I0.08 J0.06
X-22.08 Y5.09 Z-2.303 I-0.08 J-0.06
X-21.92 Y5.21 Z-2.314 I0.08 J0.06
X-22.08 Y5.09 Z-2.325 I-0.08 J-0.06
X-21.92 Y5.21 Z-2.336 I0.08 J0.06
X-22.08 Y5.09 Z-2.347 I-0.08 J-0.06
X-21.92 Y5.21 Z-2.357 I0.08 J0.06
X-22.08 Y5.09 Z-2.368 I-0.08 J-0.06
X-21.92 Y5.21 Z-2.379 I0.08 J0.06
X-22.08 Y5.09 Z-2.39 I-0.08 J-0.06
X-21.92 Y5.21 Z-2.401 I0.08 J0.06
X-22.08 Y5.09 Z-2.412 I-0.08 J-0.06
X-21.92 Y5.21 Z-2.423 I0.08 J0.06
X-22.08 Y5.09 Z-2.434 I-0.08 J-0.06
X-21.92 Y5.21 Z-2.445 I0.08 J0.06
X-22.08 Y5.09 Z-2.456 I-0.08 J-0.06
X-21.92 Y5.21 Z-2.467 I0.08 J0.06
X-22.08 Y5.09 Z-2.478 I-0.08 J-0.06
X-21.92 Y5.21 Z-2.489 I0.08 J0.06
X-22.08 Y5.09 Z-2.5 I-0.08 J-0.06
X-21.92 Y5.21 Z-2.511 I0.08 J0.06
X-22.08 Y5.09 Z-2.522 I-0.08 J-0.06
X-21.92 Y5.21 Z-2.533 I0.08 J0.06
X-22.08 Y5.09 Z-2.544 I-0.08 J-0.06
X-21.92 Y5.21 Z-2.555 I0.08 J0.06
X-22.08 Y5.09 Z-2.566 I-0.08 J-0.06
X-21.92 Y5.21 Z-2.577 I0.08 J0.06
X-22.08 Y5.09 Z-2.588 I-0.08 J-0.06
X-21.92 Y5.21 Z-2.599 I0.08 J0.06
X-22.08 Y5.09 Z-2.61 I-0.08 J-0.06
X-21.92 Y5.21 Z-2.621 I0.08 J0.06
X-22.08 Y5.09 Z-2.632 I-0.08 J-0.06
X-21.92 Y5.21 Z-2.643 I0.08 J0.06
X-22.08 Y5.09 Z-2.654 I-0.08 J-0.06
X-21.92 Y5.21 Z-2.665 I0.08 J0.06
X-22.08 Y5.09 Z-2.676 I-0.08 J-0.06
X-21.92 Y5.21 Z-2.687 I0.08 J0.06
X-22.08 Y5.09 Z-2.698 I-0.08 J-0.06
X-21.92 Y5.21 Z-2.709 I0.08 J0.06
X-22.08 Y5.09 Z-2.72 I-0.08 J-0.06
X-21.92 Y5.21 Z-2.73 I0.08 J0.06
X-22.08 Y5.09 Z-2.741 I-0.08 J-0.06
X-21.92 Y5.21 Z-2.752 I0.08 J0.06
X-22.08 Y5.09 Z-2.763 I-0.08 J-0.06
X-21.92 Y5.21 Z-2.774 I0.08 J0.06
X-22.08 Y5.09 Z-2.785 I-0.08 J-0.06
X-21.92 Y5.21 Z-2.796 I0.08 J0.06
X-22.08 Y5.09 Z-2.807 I-0.08 J-0.06
X-21.92 Y5.21 Z-2.818 I0.08 J0.06
X-22.08 Y5.09 Z-2.829 I-0.08 J-0.06
X-21.92 Y5.21 Z-2.84 I0.08 J0.06
X-22.08 Y5.09 Z-2.851 I-0.08 J-0.06
X-21.92 Y5.21 Z-2.862 I0.08 J0.06
X-22.08 Y5.09 Z-2.873 I-0.08 J-0.06
X-21.92 Y5.21 Z-2.884 I0.08 J0.06
X-22.08 Y5.09 Z-2.895 I-0.08 J-0.06
X-21.92 Y5.21 Z-2.906 I0.08 J0.06
X-22.08 Y5.09 Z-2.917 I-0.08 J-0.06
X-21.92 Y5.21 Z-2.928 I0.08 J0.06
X-22.08 Y5.09 Z-2.939 I-0.08 J-0.06
X-21.92 Y5.21 Z-2.95 I0.08 J0.06
X-22.08 Y5.09 Z-2.961 I-0.08 J-0.06
X-21.92 Y5.21 Z-2.972 I0.08 J0.06
X-22.08 Y5.09 Z-2.983 I-0.08 J-0.06
X-21.92 Y5.21 Z-2.994 I0.08 J0.06
X-22.08 Y5.09 Z-3.005 I-0.08 J-0.06
X-21.92 Y5.21 Z-3.016 I0.08 J0.06
X-22.08 Y5.09 Z-3.027 I-0.08 J-0.06
X-21.92 Y5.21 Z-3.038 I0.08 J0.06
X-22.08 Y5.09 Z-3.049 I-0.08 J-0.06
X-21.92 Y5.21 Z-3.06 I0.08 J0.06
X-22.08 Y5.09 Z-3.071 I-0.08 J-0.06
X-21.92 Y5.21 Z-3.082 I0.08 J0.06
X-22.08 Y5.09 Z-3.093 I-0.08 J-0.06
X-21.92 Y5.21 Z-3.103 I0.08 J0.06
X-22.08 Y5.09 Z-3.114 I-0.08 J-0.06
X-21.92 Y5.21 Z-3.125 I0.08 J0.06
X-22.08 Y5.09 Z-3.136 I-0.08 J-0.06
X-21.92 Y5.21 Z-3.147 I0.08 J0.06
X-22.08 Y5.09 Z-3.158 I-0.08 J-0.06
X-21.92 Y5.21 Z-3.169 I0.08 J0.06
X-22.08 Y5.09 Z-3.18 I-0.08 J-0.06
X-21.92 Y5.21 Z-3.191 I0.08 J0.06
X-22.08 Y5.09 Z-3.202 I-0.08 J-0.06
X-21.92 Y5.21 Z-3.213 I0.08 J0.06
X-22.08 Y5.09 Z-3.224 I-0.08 J-0.06
X-21.92 Y5.21 Z-3.235 I0.08 J0.06
X-22.08 Y5.09 Z-3.246 I-0.08 J-0.06
X-21.92 Y5.21 Z-3.257 I0.08 J0.06
X-22.08 Y5.09 Z-3.268 I-0.08 J-0.06
X-21.92 Y5.21 Z-3.279 I0.08 J0.06
X-22.08 Y5.09 Z-3.29 I-0.08 J-0.06
X-21.92 Y5.21 Z-3.301 I0.08 J0.06
X-22.08 Y5.09 Z-3.312 I-0.08 J-0.06
X-21.92 Y5.21 Z-3.323 I0.08 J0.06
X-22.08 Y5.09 Z-3.334 I-0.08 J-0.06
X-21.92 Y5.21 Z-3.345 I0.08 J0.06
X-22.08 Y5.09 Z-3.356 I-0.08 J-0.06
X-21.92 Y5.21 Z-3.367 I0.08 J0.06
X-22.08 Y5.09 Z-3.378 I-0.08 J-0.06
X-21.92 Y5.21 Z-3.389 I0.08 J0.06
X-22.08 Y5.09 Z-3.4 I-0.08 J-0.06
X-21.92 Y5.21 Z-3.411 I0.08 J0.06
X-22.08 Y5.09 Z-3.422 I-0.08 J-0.06
X-21.92 Y5.21 Z-3.433 I0.08 J0.06
X-22.08 Y5.09 Z-3.444 I-0.08 J-0.06
X-21.92 Y5.21 Z-3.455 I0.08 J0.06
X-22.08 Y5.09 Z-3.466 I-0.08 J-0.06
X-21.92 Y5.21 Z-3.476 I0.08 J0.06
X-22.08 Y5.09 Z-3.487 I-0.08 J-0.06
X-21.92 Y5.21 Z-3.498 I0.08 J0.06
X-22.08 Y5.09 Z-3.509 I-0.08 J-0.06
X-21.92 Y5.21 Z-3.52 I0.08 J0.06
X-22.08 Y5.09 Z-3.531 I-0.08 J-0.06
X-21.92 Y5.21 Z-3.542 I0.08 J0.06
X-22.08 Y5.09 Z-3.553 I-0.08 J-0.06
X-21.92 Y5.21 Z-3.564 I0.08 J0.06
X-22.08 Y5.09 Z-3.575 I-0.08 J-0.06
X-21.92 Y5.21 Z-3.586 I0.08 J0.06
X-22.08 Y5.09 Z-3.597 I-0.08 J-0.06
X-21.92 Y5.21 Z-3.608 I0.08 J0.06
X-22.08 Y5.09 Z-3.619 I-0.08 J-0.06
X-21.92 Y5.21 Z-3.63 I0.08 J0.06
X-22.08 Y5.09 Z-3.641 I-0.08 J-0.06
X-21.92 Y5.21 Z-3.652 I0.08 J0.06
X-22.08 Y5.09 Z-3.663 I-0.08 J-0.06
X-21.92 Y5.21 Z-3.674 I0.08 J0.06
X-22.08 Y5.09 Z-3.685 I-0.08 J-0.06
X-21.92 Y5.21 Z-3.696 I0.08 J0.06
X-22.08 Y5.09 Z-3.707 I-0.08 J-0.06
X-21.92 Y5.21 Z-3.718 I0.08 J0.06
X-22.08 Y5.09 Z-3.729 I-0.08 J-0.06
X-21.92 Y5.21 Z-3.74 I0.08 J0.06
X-22.08 Y5.09 Z-3.751 I-0.08 J-0.06
X-21.92 Y5.21 Z-3.762 I0.08 J0.06
X-22.08 Y5.09 Z-3.773 I-0.08 J-0.06
X-21.92 Y5.21 Z-3.784 I0.08 J0.06
X-22.08 Y5.09 Z-3.795 I-0.08 J-0.06
X-21.92 Y5.21 Z-3.806 I0.08 J0.06
X-22.08 Y5.09 Z-3.817 I-0.08 J-0.06
X-21.92 Y5.21 Z-3.828 I0.08 J0.06
X-22.08 Y5.09 Z-3.839 I-0.08 J-0.06
X-21.92 Y5.21 Z-3.849 I0.08 J0.06
X-22.08 Y5.09 Z-3.86 I-0.08 J-0.06
X-21.92 Y5.21 Z-3.871 I0.08 J0.06
X-22.08 Y5.09 Z-3.882 I-0.08 J-0.06
X-21.92 Y5.21 Z-3.893 I0.08 J0.06
X-22.08 Y5.09 Z-3.904 I-0.08 J-0.06
X-21.92 Y5.21 Z-3.915 I0.08 J0.06
X-22.08 Y5.09 Z-3.926 I-0.08 J-0.06
X-21.92 Y5.21 Z-3.937 I0.08 J0.06
X-22.08 Y5.09 Z-3.948 I-0.08 J-0.06
X-21.92 Y5.21 Z-3.959 I0.08 J0.06
X-22.08 Y5.09 Z-3.97 I-0.08 J-0.06
X-21.92 Y5.21 Z-3.981 I0.08 J0.06
X-22.08 Y5.09 Z-3.992 I-0.08 J-0.06
X-21.92 Y5.21 Z-4.003 I0.08 J0.06
X-22.08 Y5.09 Z-4.014 I-0.08 J-0.06
X-21.92 Y5.21 Z-4.025 I0.08 J0.06
X-22.08 Y5.09 Z-4.036 I-0.08 J-0.06
X-21.92 Y5.21 Z-4.047 I0.08 J0.06
X-22.08 Y5.09 Z-4.058 I-0.08 J-0.06
X-21.92 Y5.21 Z-4.069 I0.08 J0.06
X-22.08 Y5.09 Z-4.08 I-0.08 J-0.06
X-21.92 Y5.21 Z-4.091 I0.08 J0.06
X-22.08 Y5.09 Z-4.102 I-0.08 J-0.06
X-21.92 Y5.21 Z-4.113 I0.08 J0.06
X-22.08 Y5.09 Z-4.124 I-0.08 J-0.06
X-21.92 Y5.21 Z-4.135 I0.08 J0.06
X-22.08 Y5.09 Z-4.146 I-0.08 J-0.06
X-21.92 Y5.21 Z-4.157 I0.08 J0.06
X-22.08 Y5.09 Z-4.168 I-0.08 J-0.06
X-21.92 Y5.21 Z-4.179 I0.08 J0.06
X-22.08 Y5.09 Z-4.19 I-0.08 J-0.06
X-21.92 Y5.21 Z-4.201 I0.08 J0.06
X-22.08 Y5.09 Z-4.212 I-0.08 J-0.06
X-21.92 Y5.21 Z-4.222 I0.08 J0.06
X-22.08 Y5.09 Z-4.233 I-0.08 J-0.06
X-21.92 Y5.21 Z-4.244 I0.08 J0.06
X-22.08 Y5.09 Z-4.255 I-0.08 J-0.06
X-21.92 Y5.21 Z-4.266 I0.08 J0.06
X-22.08 Y5.09 Z-4.277 I-0.08 J-0.06
X-21.92 Y5.21 Z-4.288 I0.08 J0.06
X-22.08 Y5.09 Z-4.299 I-0.08 J-0.06
X-21.92 Y5.21 Z-4.31 I0.08 J0.06
X-22.08 Y5.09 Z-4.321 I-0.08 J-0.06
X-21.92 Y5.21 Z-4.332 I0.08 J0.06
X-22.08 Y5.09 Z-4.343 I-0.08 J-0.06
X-21.92 Y5.21 Z-4.354 I0.08 J0.06
X-22.08 Y5.09 Z-4.365 I-0.08 J-0.06
X-21.92 Y5.21 Z-4.376 I0.08 J0.06
X-22.08 Y5.09 Z-4.387 I-0.08 J-0.06
X-21.92 Y5.21 Z-4.398 I0.08 J0.06
X-22.08 Y5.09 Z-4.409 I-0.08 J-0.06
X-21.92 Y5.21 Z-4.42 I0.08 J0.06
X-22.08 Y5.09 Z-4.431 I-0.08 J-0.06
X-21.92 Y5.21 Z-4.442 I0.08 J0.06
X-22.08 Y5.09 Z-4.453 I-0.08 J-0.06
X-21.92 Y5.21 Z-4.464 I0.08 J0.06
X-22.08 Y5.09 Z-4.475 I-0.08 J-0.06
X-21.92 Y5.21 Z-4.486 I0.08 J0.06
X-22.08 Y5.09 Z-4.497 I-0.08 J-0.06
X-22 Y5.05 Z-4.5 I0.08 J0.06
Y5.25 I0 J0.1
Y5.05 I0 J-0.1
G0 Z5
X-7.327 Y13.634
Z2
G1 Z0.1 F100
Y13.635 F1000
G3 X-7.487 Y13.515 Z0.089 I-0.08 J-0.06
X-7.327 Y13.635 Z0.078 I0.08 J0.06
X-7.487 Y13.515 Z0.067 I-0.08 J-0.06
X-7.327 Y13.635 Z0.056 I0.08 J0.06
X-7.487 Y13.515 Z0.045 I-0.08 J-0.06
X-7.327 Y13.635 Z0.034 I0.08 J0.06
X-7.487 Y13.515 Z0.023 I-0.08 J-0.06
X-7.327 Y13.635 Z0.012 I0.08 J0.06
X-7.487 Y13.515 Z0.001 I-0.08 J-0.06
X-7.327 Y13.635 Z-0.01 I0.08 J0.06
X-7.487 Y13.515 Z-0.021 I-0.08 J-0.06
X-7.327 Y13.635 Z-0.032 I0.08 J0.06
X-7.487 Y13.515 Z-0.043 I-0.08 J-0.06
X-7.327 Y13.635 Z-0.054 I0.08 J0.06
X-7.487 Y13.515 Z-0.065 I-0.08 J-0.06
X-7.327 Y13.635 Z-0.076 I0.08 J0.06
X-7.487 Y13.515 Z-0.087 I-0.08 J-0.06
X-7.327 Y13.635 Z-0.098 I0.08 J0.06
X-7.487 Y13.515 Z-0.108 I-0.08 J-0.06
X-7.327 Y13.635 Z-0.119 I0.08 J0.06
X-7.487 Y13.515 Z-0.13 I-0.08 J-0.06
X-7.327 Y13.635 Z-0.141 I0.08 J0.06
X-7.487 Y13.515 Z-0.152 I-0.08 J-0.06
X-7.327 Y13.635 Z-0.163 I0.08 J0.06
X-7.487 Y13.515 Z-0.174 I-0.08 J-0.06
X-7.327 Y13.635 Z-0.185 I0.08 J0.06
X-7.487 Y13.515 Z-0.196 I-0.08 J-0.06
X-7.327 Y13.635 Z-0.207 I0.08 J0.06
X-7.487 Y13.515 Z-0.218 I-0.08 J-0.06
X-7.327 Y13.635 Z-0.229 I0.08 J0.06
X-7.487 Y13.515 Z-0.24 I-0.08 J-0.06
X-7.327 Y13.635 Z-0.251 I0.08 J0.06
X-7.487 Y13.515 Z-0.262 I-0.08 J-0.06
X-7.327 Y13.635 Z-0.273 I0.08 J0.06
X-7.487 Y13.515 Z-0.284 I-0.08 J-0.06
X-7.327 Y13.635 Z-0.295 I0.08 J0.06
X-7.487 Y13.515 Z-0.306 I-0.08 J-0.06
X-7.327 Y13.635 Z-0.317 I0.08 J0.06
X-7.487 Y13.515 Z-0.328 I-0.08 J-0.06
X-7.327 Y13.635 Z-0.339 I0.08 J0.06
X-7.487 Y13.515 Z-0.35 I-0.08 J-0.06
X-7.327 Y13.635 Z-0.361 I0.08 J0.06
X-7.487 Y13.515 Z-0.372 I-0.08 J-0.06
X-7.327 Y13.635 Z-0.383 I0.08 J0.06
X-7.487 Y13.515 Z-0.394 I-0.08 J-0.06
X-7.327 Y13.635 Z-0.405 I0.08 J0.06
X-7.487 Y13.515 Z-0.416 I-0.08 J-0.06
X-7.327 Y13.635 Z-0.427 I0.08 J0.06
X-7.487 Y13.515 Z-0.438 I-0.08 J-0.06
X-7.327 Y13.635 Z-0.449 I0.08 J0.06
X-7.487 Y13.515 Z-0.46 I-0.08 J-0.06
X-7.327 Y13.635 Z-0.471 I0.08 J0.06
X-7.487 Y13.515 Z-0.481 I-0.08 J-0.06
X-7.327 Y13.635 Z-0.492 I0.08 J0.06
X-7.487 Y13.515 Z-0.503 I-0.08 J-0.06
X-7.327 Y13.635 Z-0.514 I0.08 J0.06
X-7.487 Y13.515 Z-0.525 I-0.08 J-0.06
X-7.327 Y13.635 Z-0.536 I0.08 J0.06
X-7.487 Y13.515 Z-0.547 I-0.08 J-0.06
X-7.327 Y13.635 Z-0.558 I0.08 J0.06
X-7.487 Y13.515 Z-0.569 I-0.08 J-0.06
X-7.327 Y13.635 Z-0.58 I0.08 J0.06
X-7.487 Y13.515 Z-0.591 I-0.08 J-0.06
X-7.327 Y13.635 Z-0.602 I0.08 J0.06
X-7.487 Y13.515 Z-0.613 I-0.08 J-0.06
X-7.327 Y13.635 Z-0.624 I0.08 J0.06
X-7.487 Y13.515 Z-0.635 I-0.08 J-0.06
X-7.327 Y13.635 Z-0.646 I0.08 J0.06
X-7.487 Y13.515 Z-0.657 I-0.08 J-0.06
X-7.327 Y13.635 Z-0.668 I0.08 J0.06
X-7.487 Y13.515 Z-0.679 I-0.08 J-0.06
X-7.327 Y13.635 Z-0.69 I0.08 J0.06
X-7.487 Y13.515 Z-0.701 I-0.08 J-0.06
X-7.327 Y13.635 Z-0.712 I0.08 J0.06
X-7.487 Y13.515 Z-0.723 I-0.08 J-0.06
X-7.327 Y13.635 Z-0.734 I0.08 J0.06
X-7.487 Y13.515 Z-0.745 I-0.08 J-0.06
X-7.327 Y13.635 Z-0.756 I0.08 J0.06
X-7.487 Y13.515 Z-0.767 I-0.08 J-0.06
X-7.327 Y13.635 Z-0.778 I0.08 J0.06
X-7.487 Y13.515 Z-0.789 I-0.08 J-0.06
X-7.327 Y13.635 Z-0.8 I0.08 J0.06
X-7.487 Y13.515 Z-0.811 I-0.08 J-0.06
X-7.327 Y13.635 Z-0.822 I0.08 J0.06
X-7.487 Y13.515 Z-0.833 I-0.08 J-0.06
X-7.327 Y13.635 Z-0.844 I0.08 J0.06
X-7.487 Y13.515 Z-0.854 I-0.08 J-0.06
X-7.327 Y13.635 Z-0.865 I0.08 J0.06
X-7.487 Y13.515 Z-0.876 I-0.08 J-0.06
X-7.327 Y13.635 Z-0.887 I0.08 J0.06
X-7.487 Y13.515 Z-0.898 I-0.08 J-0.06
X-7.327 Y13.635 Z-0.909 I0.08 J0.06
X-7.487 Y13.515 Z-0.92 I-0.08 J-0.06
X-7.327 Y13.635 Z-0.931 I0.08 J0.06
X-7.487 Y13.515 Z-0.942 I-0.08 J-0.06
X-7.327 Y13.635 Z-0.953 I0.08 J0.06
X-7.487 Y13.515 Z-0.964 I-0.08 J-0.06
X-7.327 Y13.635 Z-0.975 I0.08 J0.06
X-7.487 Y13.515 Z-0.986 I-0.08 J-0.06
X-7.327 Y13.635 Z-0.997 I0.08 J0.06
X-7.487 Y13.515 Z-1.008 I-0.08 J-0.06
X-7.327 Y13.635 Z-1.019 I0.08 J0.06
X-7.487 Y13.515 Z-1.03 I-0.08 J-0.06
X-7.327 Y13.635 Z-1.041 I0.08 J0.06
X-7.487 Y13.515 Z-1.052 I-0.08 J-0.06
X-7.327 Y13.635 Z-1.063 I0.08 J0.06
X-7.487 Y13.515 Z-1.074 I-0.08 J-0.06
X-7.327 Y13.635 Z-1.085 I0.08 J0.06
X-7.487 Y13.515 Z-1.096 I-0.08 J-0.06
X-7.327 Y13.635 Z-1.107 I0.08 J0.06
X-7.487 Y13.515 Z-1.118 I-0.08 J-0.06
X-7.327 Y13.635 Z-1.129 I0.08 J0.06
X-7.487 Y13.515 Z-1.14 I-0.08 J-0.06
X-7.327 Y13.635 Z-1.151 I0.08 J0.06
X-7.487 Y13.515 Z-1.162 I-0.08 J-0.06
X-7.327 Y13.635 Z-1.173 I0.08 J0.06
X-7.487 Y13.515 Z-1.184 I-0.08 J-0.06
X-7.327 Y13.635 Z-1.195 I0.08 J0.06
X-7.487 Y13.515 Z-1.206 I-0.08 J-0.06
X-7.327 Y13.635 Z-1.217 I0.08 J0.06
X-7.487 Y13.515 Z-1.227 I-0.08 J-0.06
X-7.327 Y13.635 Z-1.238 I0.08 J0.06
X-7.487 Y13.515 Z-1.249 I-0.08 J-0.06
X-7.327 Y13.635 Z-1.26 I0.08 J0.06
X-7.487 Y13.515 Z-1.271 I-0.08 J-0.06
X-7.327 Y13.635 Z-1.282 I0.08 J0.06
X-7.487 Y13.515 Z-1.293 I-0.08 J-0.06
X-7.327 Y13.635 Z-1.304 I0.08 J0.06
X-7.487 Y13.515 Z-1.315 I-0.08 J-0.06
X-7.327 Y13.635 Z-1.326 I0.08 J0.06
X-7.487 Y13.515 Z-1.337 I-0.08 J-0.06
X-7.327 Y13.635 Z-1.348 I0.08 J0.06
X-7.487 Y13.515 Z-1.359 I-0.08 J-0.06
X-7.327 Y13.635 Z-1.37 I0.08 J0.06
X-7.487 Y13.515 Z-1.381 I-0.08 J-0.06
X-7.327 Y13.635 Z-1.392 I0.08 J0.06
X-7.487 Y13.515 Z-1.403 I-0.08 J-0.06
X-7.327 Y13.635 Z-1.414 I0.08 J0.06
X-7.487 Y13.515 Z-1.425 I-0.08 J-0.06
X-7.327 Y13.635 Z-1.436 I0.08 J0.06
X-7.487 Y13.515 Z-1.447 I-0.08 J-0.06
X-7.327 Y13.635 Z-1.458 I0.08 J0.06
X-7.487 Y13.515 Z-1.469 I-0.08 J-0.06
X-7.327 Y13.635 Z-1.48 I0.08 J0.06
X-7.487 Y13.515 Z-1.491 I-0.08 J-0.06
X-7.327 Y13.635 Z-1.502 I0.08 J0.06
X-7.487 Y13.515 Z-1.513 I-0.08 J-0.06
X-7.327 Y13.635 Z-1.524 I0.08 J0.06
X-7.487 Y13.515 Z-1.535 I-0.08 J-0.06
X-7.327 Y13.635 Z-1.546 I0.08 J0.06
X-7.487 Y13.515 Z-1.557 I-0.08 J-0.06
X-7.327 Y13.635 Z-1.568 I0.08 J0.06
X-7.487 Y13.515 Z-1.579 I-0.08 J-0.06
X-7.327 Y13.635 Z-1.59 I0.08 J0.06
X-7.487 Y13.515 Z-1.601 I-0.08 J-0.06
X-7.327 Y13.635 Z-1.611 I0.08 J0.06
X-7.487 Y13.515 Z-1.622 I-0.08 J-0.06
X-7.327 Y13.635 Z-1.633 I0.08 J0.06
X-7.487 Y13.515 Z-1.644 I-0.08 J-0.06
X-7.327 Y13.635 Z-1.655 I0.08 J0.06
X-7.487 Y13.515 Z-1.666 I-0.08 J-0.06
X-7.327 Y13.635 Z-1.677 I0.08 J0.06
X-7.487 Y13.515 Z-1.688 I-0.08 J-0.06
X-7.327 Y13.635 Z-1.699 I0.08 J0.06
X-7.487 Y13.515 Z-1.71 I-0.08 J-0.06
X-7.327 Y13.635 Z-1.721 I0.08 J0.06
X-7.487 Y13.515 Z-1.732 I-0.08 J-0.06
X-7.327 Y13.635 Z-1.743 I0.08 J0.06
X-7.487 Y13.515 Z-1.754 I-0.08 J-0.06
X-7.327 Y13.635 Z-1.765 I0.08 J0.06
X-7.487 Y13.515 Z-1.776 I-0.08 J-0.06
X-7.327 Y13.635 Z-1.787 I0.08 J0.06
X-7.487 Y13.515 Z-1.798 I-0.08 J-0.06
X-7.327 Y13.635 Z-1.809 I0.08 J0.06
X-7.487 Y13.515 Z-1.82 I-0.08 J-0.06
X-7.327 Y13.635 Z-1.831 I0.08 J0.06
X-7.487 Y13.515 Z-1.842 I-0.08 J-0.06
X-7.327 Y13.635 Z-1.853 I0.08 J0.06
X-7.487 Y13.515 Z-1.864 I-0.08 J-0.06
X-7.327 Y13.635 Z-1.875 I0.08 J0.06
X-7.487 Y13.515 Z-1.886 I-0.08 J-0.06
X-7.327 Y13.635 Z-1.897 I0.08 J0.06
X-7.487 Y13.515 Z-1.908 I-0.08 J-0.06
X-7.327 Y13.635 Z-1.919 I0.08 J0.06
X-7.487 Y13.515 Z-1.93 I-0.08 J-0.06
X-7.327 Y13.635 Z-1.941 I0.08 J0.06
X-7.487 Y13.515 Z-1.952 I-0.08 J-0.06
X-7.327 Y13.635 Z-1.963 I0.08 J0.06
X-7.487 Y13.515 Z-1.974 I-0.08 J-0.06
X-7.327 Y13.635 Z-1.984 I0.08 J0.06
X-7.487 Y13.515 Z-1.995 I-0.08 J-0.06
X-7.327 Y13.635 Z-2.006 I0.08 J0.06
X-7.487 Y13.515 Z-2.017 I-0.08 J-0.06
X-7.327 Y13.635 Z-2.028 I0.08 J0.06
X-7.487 Y13.515 Z-2.039 I-0.08 J-0.06
X-7.327 Y13.635 Z-2.05 I0.08 J0.06
X-7.487 Y13.515 Z-2.061 I-0.08 J-0.06
X-7.327 Y13.635 Z-2.072 I0.08 J0.06
X-7.487 Y13.515 Z-2.083 I-0.08 J-0.06
X-7.327 Y13.635 Z-2.094 I0.08 J0.06
X-7.487 Y13.515 Z-2.105 I-0.08 J-0.06
X-7.327 Y13.635 Z-2.116 I0.08 J0.06
X-7.487 Y13.515 Z-2.127 I-0.08 J-0.06
X-7.327 Y13.635 Z-2.138 I0.08 J0.06
X-7.487 Y13.515 Z-2.149 I-0.08 J-0.06
X-7.327 Y13.635 Z-2.16 I0.08 J0.06
X-7.487 Y13.515 Z-2.171 I-0.08 J-0.06
X-7.327 Y13.635 Z-2.182 I0.08 J0.06
X-7.487 Y13.515 Z-2.193 I-0.08 J-0.06
X-7.327 Y13.635 Z-2.204 I0.08 J0.06
X-7.487 Y13.515 Z-2.215 I-0.08 J-0.06
X-7.327 Y13.635 Z-2.226 I0.08 J0.06
X-7.487 Y13.515 Z-2.237 I-0.08 J-0.06
X-7.327 Y13.635 Z-2.248 I0.08 J0.06
X-7.487 Y13.515 Z-2.259 I-0.08 J-0.06
X-7.327 Y13.635 Z-2.27 I0.08 J0.06
X-7.487 Y13.515 Z-2.281 I-0.08 J-0.06
X-7.327 Y13.635 Z-2.292 I0.08 J0.06
X-7.487 Y13.515 Z-2.303 I-0.08 J-0.06
X-7.327 Y13.635 Z-2.314 I0.08 J0.06
X-7.487 Y13.515 Z-2.325 I-0.08 J-0.06
X-7.327 Y13.635 Z-2.336 I0.08 J0.06
X-7.487 Y13.515 Z-2.347 I-0.08 J-0.06
X-7.327 Y13.635 Z-2.357 I0.08 J0.06
X-7.487 Y13.515 Z-2.368 I-0.08 J-0.06
X-7.327 Y13.635 Z-2.379 I0.08 J0.06
X-7.487 Y13.515 Z-2.39 I-0.08 J-0.06
X-7.327 Y13.635 Z-2.401 I0.08 J0.06
X-7.487 Y13.515 Z-2.412 I-0.08 J-0.06
X-7.327 Y13.635 Z-2.423 I0.08 J0.06
X-7.487 Y13.515 Z-2.434 I-0.08 J-0.06
X-7.327 Y13.635 Z-2.445 I0.08 J0.06
X-7.487 Y13.515 Z-2.456 I-0.08 J-0.06
X-7.327 Y13.635 Z-2.467 I0.08 J0.06
X-7.487 Y13.515 Z-2.478 I-0.08 J-0.06
X-7.327 Y13.635 Z-2.489 I0.08 J0.06
X-7.487 Y13.515 Z-2.5 I-0.08 J-0.06
X-7.327 Y13.635 Z-2.511 I0.08 J0.06
X-7.487 Y13.515 Z-2.522 I-0.08 J-0.06
X-7.327 Y13.635 Z-2.533 I0.08 J0.06
X-7.487 Y13.515 Z-2.544 I-0.08 J-0.06
X-7.327 Y13.635 Z-2.555 I0.08 J0.06
X-7.487 Y13.515 Z-2.566 I-0.08 J-0.06
X-7.327 Y13.635 Z-2.577 I0.08 J0.06
X-7.487 Y13.515 Z-2.588 I-0.08 J-0.06
X-7.327 Y13.635 Z-2.599 I0.08 J0.06
X-7.487 Y13.515 Z-2.61 I-0.08 J-0.06
X-7.327 Y13.635 Z-2.621 I0.08 J0.06
X-7.487 Y13.515 Z-2.632 I-0.08 J-0.06
X-7.327 Y13.635 Z-2.643 I0.08 J0.06
X-7.487 Y13.515 Z-2.654 I-0.08 J-0.06
X-7.327 Y13.635 Z-2.665 I0.08 J0.06
X-7.487 Y13.515 Z-2.676 I-0.08 J-0.06
X-7.327 Y13.635 Z-2.687 I0.08 J0.06
X-7.487 Y13.515 Z-2.698 I-0.08 J-0.06
X-7.327 Y13.635 Z-2.709 I0.08 J0.06
X-7.487 Y13.515 Z-2.72 I-0.08 J-0.06
X-7.327 Y13.635 Z-2.73 I0.08 J0.06
X-7.487 Y13.515 Z-2.741 I-0.08 J-0.06
X-7.327 Y13.635 Z-2.752 I0.08 J0.06
X-7.487 Y13.515 Z-2.763 I-0.08 J-0.06
X-7.327 Y13.635 Z-2.774 I0.08 J0.06
X-7.487 Y13.515 Z-2.785 I-0.08 J-0.06
X-7.327 Y13.635 Z-2.796 I0.08 J0.06
X-7.487 Y13.515 Z-2.807 I-0.08 J-0.06
X-7.327 Y13.635 Z-2.818 I0.08 J0.06
X-7.487 Y13.515 Z-2.829 I-0.08 J-0.06
X-7.327 Y13.635 Z-2.84 I0.08 J0.06
X-7.487 Y13.515 Z-2.851 I-0.08 J-0.06
X-7.327 Y13.635 Z-2.862 I0.08 J0.06
X-7.487 Y13.515 Z-2.873 I-0.08 J-0.06
X-7.327 Y13.635 Z-2.884 I0.08 J0.06
X-7.487 Y13.515 Z-2.895 I-0.08 J-0.06
X-7.327 Y13.635 Z-2.906 I0.08 J0.06
X-7.487 Y13.515 Z-2.917 I-0.08 J-0.06
X-7.327 Y13.635 Z-2.928 I0.08 J0.06
X-7.487 Y13.515 Z-2.939 I-0.08 J-0.06
X-7.327 Y13.635 Z-2.95 I0.08 J0.06
X-7.487 Y13.515 Z-2.961 I-0.08 J-0.06
X-7.327 Y13.635 Z-2.972 I0.08 J0.06
X-7.487 Y13.515 Z-2.983 I-0.08 J-0.06
X-7.327 Y13.635 Z-2.994 I0.08 J0.06
X-7.487 Y13.515 Z-3.005 I-0.08 J-0.06
X-7.327 Y13.635 Z-3.016 I0.08 J0.06
X-7.487 Y13.515 Z-3.027 I-0.08 J-0.06
X-7.327 Y13.635 Z-3.038 I0.08 J0.06
X-7.487 Y13.515 Z-3.049 I-0.08 J-0.06
X-7.327 Y13.635 Z-3.06 I0.08 J0.06
X-7.487 Y13.515 Z-3.071 I-0.08 J-0.06
X-7.327 Y13.635 Z-3.082 I0.08 J0.06
X-7.487 Y13.515 Z-3.093 I-0.08 J-0.06
X-7.327 Y13.635 Z-3.103 I0.08 J0.06
X-7.487 Y13.515 Z-3.114 I-0.08 J-0.06
X-7.327 Y13.635 Z-3.125 I0.08 J0.06
X-7.487 Y13.515 Z-3.136 I-0.08 J-0.06
X-7.327 Y13.635 Z-3.147 I0.08 J0.06
X-7.487 Y13.515 Z-3.158 I-0.08 J-0.06
X-7.327 Y13.635 Z-3.169 I0.08 J0.06
X-7.487 Y13.515 Z-3.18 I-0.08 J-0.06
X-7.327 Y13.635 Z-3.191 I0.08 J0.06
X-7.487 Y13.515 Z-3.202 I-0.08 J-0.06
X-7.327 Y13.635 Z-3.213 I0.08 J0.06
X-7.487 Y13.515 Z-3.224 I-0.08 J-0.06
X-7.327 Y13.635 Z-3.235 I0.08 J0.06
X-7.487 Y13.515 Z-3.246 I-0.08 J-0.06
X-7.327 Y13.635 Z-3.257 I0.08 J0.06
X-7.487 Y13.515 Z-3.268 I-0.08 J-0.06
X-7.327 Y13.635 Z-3.279 I0.08 J0.06
X-7.487 Y13.515 Z-3.29 I-0.08 J-0.06
X-7.327 Y13.635 Z-3.301 I0.08 J0.06
X-7.487 Y13.515 Z-3.312 I-0.08 J-0.06
X-7.327 Y13.635 Z-3.323 I0.08 J0.06
X-7.487 Y13.515 Z-3.334 I-0.08 J-0.06
X-7.327 Y13.635 Z-3.345 I0.08 J0.06
X-7.487 Y13.515 Z-3.356 I-0.08 J-0.06
X-7.327 Y13.635 Z-3.367 I0.08 J0.06
X-7.487 Y13.515 Z-3.378 I-0.08 J-0.06
X-7.327 Y13.635 Z-3.389 I0.08 J0.06
X-7.487 Y13.515 Z-3.4 I-0.08 J-0.06
X-7.327 Y13.635 Z-3.411 I0.08 J0.06
X-7.487 Y13.515 Z-3.422 I-0.08 J-0.06
X-7.327 Y13.635 Z-3.433 I0.08 J0.06
X-7.487 Y13.515 Z-3.444 I-0.08 J-0.06
X-7.327 Y13.635 Z-3.455 I0.08 J0.06
X-7.487 Y13.515 Z-3.466 I-0.08 J-0.06
X-7.327 Y13.635 Z-3.476 I0.08 J0.06
X-7.487 Y13.515 Z-3.487 I-0.08 J-0.06
X-7.327 Y13.635 Z-3.498 I0.08 J0.06
X-7.487 Y13.515 Z-3.509 I-0.08 J-0.06
X-7.327 Y13.635 Z-3.52 I0.08 J0.06
X-7.487 Y13.515 Z-3.531 I-0.08 J-0.06
X-7.327 Y13.635 Z-3.542 I0.08 J0.06
X-7.487 Y13.515 Z-3.553 I-0.08 J-0.06
X-7.327 Y13.635 Z-3.564 I0.08 J0.06
X-7.487 Y13.515 Z-3.575 I-0.08 J-0.06
X-7.327 Y13.635 Z-3.586 I0.08 J0.06
X-7.487 Y13.515 Z-3.597 I-0.08 J-0.06
X-7.327 Y13.635 Z-3.608 I0.08 J0.06
X-7.487 Y13.515 Z-3.619 I-0.08 J-0.06
X-7.327 Y13.635 Z-3.63 I0.08 J0.06
X-7.487 Y13.515 Z-3.641 I-0.08 J-0.06
X-7.327 Y13.635 Z-3.652 I0.08 J0.06
X-7.487 Y13.515 Z-3.663 I-0.08 J-0.06
X-7.327 Y13.635 Z-3.674 I0.08 J0.06
X-7.487 Y13.515 Z-3.685 I-0.08 J-0.06
X-7.327 Y13.635 Z-3.696 I0.08 J0.06
X-7.487 Y13.515 Z-3.707 I-0.08 J-0.06
X-7.327 Y13.635 Z-3.718 I0.08 J0.06
X-7.487 Y13.515 Z-3.729 I-0.08 J-0.06
X-7.327 Y13.635 Z-3.74 I0.08 J0.06
X-7.487 Y13.515 Z-3.751 I-0.08 J-0.06
X-7.327 Y13.635 Z-3.762 I0.08 J0.06
X-7.487 Y13.515 Z-3.773 I-0.08 J-0.06
X-7.327 Y13.635 Z-3.784 I0.08 J0.06
X-7.487 Y13.515 Z-3.795 I-0.08 J-0.06
X-7.327 Y13.635 Z-3.806 I0.08 J0.06
X-7.487 Y13.515 Z-3.817 I-0.08 J-0.06
X-7.327 Y13.635 Z-3.828 I0.08 J0.06
X-7.487 Y13.515 Z-3.839 I-0.08 J-0.06
X-7.327 Y13.635 Z-3.849 I0.08 J0.06
X-7.487 Y13.515 Z-3.86 I-0.08 J-0.06
X-7.327 Y13.635 Z-3.871 I0.08 J0.06
X-7.487 Y13.515 Z-3.882 I-0.08 J-0.06
X-7.327 Y13.635 Z-3.893 I0.08 J0.06
X-7.487 Y13.515 Z-3.904 I-0.08 J-0.06
X-7.327 Y13.635 Z-3.915 I0.08 J0.06
X-7.487 Y13.515 Z-3.926 I-0.08 J-0.06
X-7.327 Y13.635 Z-3.937 I0.08 J0.06
X-7.487 Y13.515 Z-3.948 I-0.08 J-0.06
X-7.327 Y13.635 Z-3.959 I0.08 J0.06
X-7.487 Y13.515 Z-3.97 I-0.08 J-0.06
X-7.327 Y13.635 Z-3.981 I0.08 J0.06
X-7.487 Y13.515 Z-3.992 I-0.08 J-0.06
X-7.327 Y13.635 Z-4.003 I0.08 J0.06
X-7.487 Y13.515 Z-4.014 I-0.08 J-0.06
X-7.327 Y13.635 Z-4.025 I0.08 J0.06
X-7.487 Y13.515 Z-4.036 I-0.08 J-0.06
X-7.327 Y13.635 Z-4.047 I0.08 J0.06
X-7.487 Y13.515 Z-4.058 I-0.08 J-0.06
X-7.327 Y13.635 Z-4.069 I0.08 J0.06
X-7.487 Y13.515 Z-4.08 I-0.08 J-0.06
X-7.327 Y13.635 Z-4.091 I0.08 J0.06
X-7.487 Y13.515 Z-4.102 I-0.08 J-0.06
X-7.327 Y13.635 Z-4.113 I0.08 J0.06
X-7.487 Y13.515 Z-4.124 I-0.08 J-0.06
X-7.327 Y13.635 Z-4.135 I0.08 J0.06
X-7.487 Y13.515 Z-4.146 I-0.08 J-0.06
X-7.327 Y13.635 Z-4.157 I0.08 J0.06
X-7.487 Y13.515 Z-4.168 I-0.08 J-0.06
X-7.327 Y13.635 Z-4.179 I0.08 J0.06
X-7.487 Y13.515 Z-4.19 I-0.08 J-0.06
X-7.327 Y13.635 Z-4.201 I0.08 J0.06
X-7.487 Y13.515 Z-4.212 I-0.08 J-0.06
X-7.327 Y13.635 Z-4.222 I0.08 J0.06
X-7.487 Y13.515 Z-4.233 I-0.08 J-0.06
X-7.327 Y13.635 Z-4.244 I0.08 J0.06
X-7.487 Y13.515 Z-4.255 I-0.08 J-0.06
X-7.327 Y13.635 Z-4.266 I0.08 J0.06
X-7.487 Y13.515 Z-4.277 I-0.08 J-0.06
X-7.327 Y13.635 Z-4.288 I0.08 J0.06
X-7.487 Y13.515 Z-4.299 I-0.08 J-0.06
X-7.327 Y13.635 Z-4.31 I0.08 J0.06
X-7.487 Y13.515 Z-4.321 I-0.08 J-0.06
X-7.327 Y13.635 Z-4.332 I0.08 J0.06
X-7.487 Y13.515 Z-4.343 I-0.08 J-0.06
X-7.327 Y13.635 Z-4.354 I0.08 J0.06
X-7.487 Y13.515 Z-4.365 I-0.08 J-0.06
X-7.327 Y13.635 Z-4.376 I0.08 J0.06
X-7.487 Y13.515 Z-4.387 I-0.08 J-0.06
X-7.327 Y13.635 Z-4.398 I0.08 J0.06
X-7.487 Y13.515 Z-4.409 I-0.08 J-0.06
X-7.327 Y13.635 Z-4.42 I0.08 J0.06
X-7.487 Y13.515 Z-4.431 I-0.08 J-0.06
X-7.327 Y13.635 Z-4.442 I0.08 J0.06
X-7.487 Y13.515 Z-4.453 I-0.08 J-0.06
X-7.327 Y13.635 Z-4.464 I0.08 J0.06
X-7.487 Y13.515 Z-4.475 I-0.08 J-0.06
X-7.327 Y13.635 Z-4.486 I0.08 J0.06
X-7.487 Y13.515 Z-4.497 I-0.08 J-0.06
X-7.407 Y13.475 Z-4.5 I0.08 J0.06
Y13.675 I0 J0.1
Y13.475 I0 J-0.1
G0 Z5
X-7.327 Y30.484
Z2
G1 Z0.1 F100
Y30.485 F1000
G3 X-7.487 Y30.365 Z0.089 I-0.08 J-0.06
X-7.327 Y30.485 Z0.078 I0.08 J0.06
X-7.487 Y30.365 Z0.067 I-0.08 J-0.06
X-7.327 Y30.485 Z0.056 I0.08 J0.06
X-7.487 Y30.365 Z0.045 I-0.08 J-0.06
X-7.327 Y30.485 Z0.034 I0.08 J0.06
X-7.487 Y30.365 Z0.023 I-0.08 J-0.06
X-7.327 Y30.485 Z0.012 I0.08 J0.06
X-7.487 Y30.365 Z0.001 I-0.08 J-0.06
X-7.327 Y30.485 Z-0.01 I0.08 J0.06
X-7.487 Y30.365 Z-0.021 I-0.08 J-0.06
X-7.327 Y30.485 Z-0.032 I0.08 J0.06
X-7.487 Y30.365 Z-0.043 I-0.08 J-0.06
X-7.327 Y30.485 Z-0.054 I0.08 J0.06
X-7.487 Y30.365 Z-0.065 I-0.08 J-0.06
X-7.327 Y30.485 Z-0.076 I0.08 J0.06
X-7.487 Y30.365 Z-0.087 I-0.08 J-0.06
X-7.327 Y30.485 Z-0.098 I0.08 J0.06
X-7.487 Y30.365 Z-0.108 I-0.08 J-0.06
X-7.327 Y30.485 Z-0.119 I0.08 J0.06
X-7.487 Y30.365 Z-0.13 I-0.08 J-0.06
X-7.327 Y30.485 Z-0.141 I0.08 J0.06
X-7.487 Y30.365 Z-0.152 I-0.08 J-0.06
X-7.327 Y30.485 Z-0.163 I0.08 J0.06
X-7.487 Y30.365 Z-0.174 I-0.08 J-0.06
X-7.327 Y30.485 Z-0.185 I0.08 J0.06
X-7.487 Y30.365 Z-0.196 I-0.08 J-0.06
X-7.327 Y30.485 Z-0.207 I0.08 J0.06
X-7.487 Y30.365 Z-0.218 I-0.08 J-0.06
X-7.327 Y30.485 Z-0.229 I0.08 J0.06
X-7.487 Y30.365 Z-0.24 I-0.08 J-0.06
X-7.327 Y30.485 Z-0.251 I0.08 J0.06
X-7.487 Y30.365 Z-0.262 I-0.08 J-0.06
X-7.327 Y30.485 Z-0.273 I0.08 J0.06
X-7.487 Y30.365 Z-0.284 I-0.08 J-0.06
X-7.327 Y30.485 Z-0.295 I0.08 J0.06
X-7.487 Y30.365 Z-0.306 I-0.08 J-0.06
X-7.327 Y30.485 Z-0.317 I0.08 J0.06
X-7.487 Y30.365 Z-0.328 I-0.08 J-0.06
X-7.327 Y30.485 Z-0.339 I0.08 J0.06
X-7.487 Y30.365 Z-0.35 I-0.08 J-0.06
X-7.327 Y30.485 Z-0.361 I0.08 J0.06
X-7.487 Y30.365 Z-0.372 I-0.08 J-0.06
X-7.327 Y30.485 Z-0.383 I0.08 J0.06
X-7.487 Y30.365 Z-0.394 I-0.08 J-0.06
X-7.327 Y30.485 Z-0.405 I0.08 J0.06
X-7.487 Y30.365 Z-0.416 I-0.08 J-0.06
X-7.327 Y30.485 Z-0.427 I0.08 J0.06
X-7.487 Y30.365 Z-0.438 I-0.08 J-0.06
X-7.327 Y30.485 Z-0.449 I0.08 J0.06
X-7.487 Y30.365 Z-0.46 I-0.08 J-0.06
X-7.327 Y30.485 Z-0.471 I0.08 J0.06
X-7.487 Y30.365 Z-0.481 I-0.08 J-0.06
X-7.327 Y30.485 Z-0.492 I0.08 J0.06
X-7.487 Y30.365 Z-0.503 I-0.08 J-0.06
X-7.327 Y30.485 Z-0.514 I0.08 J0.06
X-7.487 Y30.365 Z-0.525 I-0.08 J-0.06
X-7.327 Y30.485 Z-0.536 I0.08 J0.06
X-7.487 Y30.365 Z-0.547 I-0.08 J-0.06
X-7.327 Y30.485 Z-0.558 I0.08 J0.06
X-7.487 Y30.365 Z-0.569 I-0.08 J-0.06
X-7.327 Y30.485 Z-0.58 I0.08 J0.06
X-7.487 Y30.365 Z-0.591 I-0.08 J-0.06
X-7.327 Y30.485 Z-0.602 I0.08 J0.06
X-7.487 Y30.365 Z-0.613 I-0.08 J-0.06
X-7.327 Y30.485 Z-0.624 I0.08 J0.06
X-7.487 Y30.365 Z-0.635 I-0.08 J-0.06
X-7.327 Y30.485 Z-0.646 I0.08 J0.06
X-7.487 Y30.365 Z-0.657 I-0.08 J-0.06
X-7.327 Y30.485 Z-0.668 I0.08 J0.06
X-7.487 Y30.365 Z-0.679 I-0.08 J-0.06
X-7.327 Y30.485 Z-0.69 I0.08 J0.06
X-7.487 Y30.365 Z-0.701 I-0.08 J-0.06
X-7.327 Y30.485 Z-0.712 I0.08 J0.06
X-7.487 Y30.365 Z-0.723 I-0.08 J-0.06
X-7.327 Y30.485 Z-0.734 I0.08 J0.06
X-7.487 Y30.365 Z-0.745 I-0.08 J-0.06
X-7.327 Y30.485 Z-0.756 I0.08 J0.06
X-7.487 Y30.365 Z-0.767 I-0.08 J-0.06
X-7.327 Y30.485 Z-0.778 I0.08 J0.06
X-7.487 Y30.365 Z-0.789 I-0.08 J-0.06
X-7.327 Y30.485 Z-0.8 I0.08 J0.06
X-7.487 Y30.365 Z-0.811 I-0.08 J-0.06
X-7.327 Y30.485 Z-0.822 I0.08 J0.06
X-7.487 Y30.365 Z-0.833 I-0.08 J-0.06
X-7.327 Y30.485 Z-0.844 I0.08 J0.06
X-7.487 Y30.365 Z-0.854 I-0.08 J-0.06
X-7.327 Y30.485 Z-0.865 I0.08 J0.06
X-7.487 Y30.365 Z-0.876 I-0.08 J-0.06
X-7.327 Y30.485 Z-0.887 I0.08 J0.06
X-7.487 Y30.365 Z-0.898 I-0.08 J-0.06
X-7.327 Y30.485 Z-0.909 I0.08 J0.06
X-7.487 Y30.365 Z-0.92 I-0.08 J-0.06
X-7.327 Y30.485 Z-0.931 I0.08 J0.06
X-7.487 Y30.365 Z-0.942 I-0.08 J-0.06
X-7.327 Y30.485 Z-0.953 I0.08 J0.06
X-7.487 Y30.365 Z-0.964 I-0.08 J-0.06
X-7.327 Y30.485 Z-0.975 I0.08 J0.06
X-7.487 Y30.365 Z-0.986 I-0.08 J-0.06
X-7.327 Y30.485 Z-0.997 I0.08 J0.06
X-7.487 Y30.365 Z-1.008 I-0.08 J-0.06
X-7.327 Y30.485 Z-1.019 I0.08 J0.06
X-7.487 Y30.365 Z-1.03 I-0.08 J-0.06
X-7.327 Y30.485 Z-1.041 I0.08 J0.06
X-7.487 Y30.365 Z-1.052 I-0.08 J-0.06
X-7.327 Y30.485 Z-1.063 I0.08 J0.06
X-7.487 Y30.365 Z-1.074 I-0.08 J-0.06
X-7.327 Y30.485 Z-1.085 I0.08 J0.06
X-7.487 Y30.365 Z-1.096 I-0.08 J-0.06
X-7.327 Y30.485 Z-1.107 I0.08 J0.06
X-7.487 Y30.365 Z-1.118 I-0.08 J-0.06
X-7.327 Y30.485 Z-1.129 I0.08 J0.06
X-7.487 Y30.365 Z-1.14 I-0.08 J-0.06
X-7.327 Y30.485 Z-1.151 I0.08 J0.06
X-7.487 Y30.365 Z-1.162 I-0.08 J-0.06
X-7.327 Y30.485 Z-1.173 I0.08 J0.06
X-7.487 Y30.365 Z-1.184 I-0.08 J-0.06
X-7.327 Y30.485 Z-1.195 I0.08 J0.06
X-7.487 Y30.365 Z-1.206 I-0.08 J-0.06
X-7.327 Y30.485 Z-1.217 I0.08 J0.06
X-7.487 Y30.365 Z-1.227 I-0.08 J-0.06
X-7.327 Y30.485 Z-1.238 I0.08 J0.06
X-7.487 Y30.365 Z-1.249 I-0.08 J-0.06
X-7.327 Y30.485 Z-1.26 I0.08 J0.06
X-7.487 Y30.365 Z-1.271 I-0.08 J-0.06
X-7.327 Y30.485 Z-1.282 I0.08 J0.06
X-7.487 Y30.365 Z-1.293 I-0.08 J-0.06
X-7.327 Y30.485 Z-1.304 I0.08 J0.06
X-7.487 Y30.365 Z-1.315 I-0.08 J-0.06
X-7.327 Y30.485 Z-1.326 I0.08 J0.06
X-7.487 Y30.365 Z-1.337 I-0.08 J-0.06
X-7.327 Y30.485 Z-1.348 I0.08 J0.06
X-7.487 Y30.365 Z-1.359 I-0.08 J-0.06
X-7.327 Y30.485 Z-1.37 I0.08 J0.06
X-7.487 Y30.365 Z-1.381 I-0.08 J-0.06
X-7.327 Y30.485 Z-1.392 I0.08 J0.06
X-7.487 Y30.365 Z-1.403 I-0.08 J-0.06
X-7.327 Y30.485 Z-1.414 I0.08 J0.06
X-7.487 Y30.365 Z-1.425 I-0.08 J-0.06
X-7.327 Y30.485 Z-1.436 I0.08 J0.06
X-7.487 Y30.365 Z-1.447 I-0.08 J-0.06
X-7.327 Y30.485 Z-1.458 I0.08 J0.06
X-7.487 Y30.365 Z-1.469 I-0.08 J-0.06
X-7.327 Y30.485 Z-1.48 I0.08 J0.06
X-7.487 Y30.365 Z-1.491 I-0.08 J-0.06
X-7.327 Y30.485 Z-1.502 I0.08 J0.06
X-7.487 Y30.365 Z-1.513 I-0.08 J-0.06
X-7.327 Y30.485 Z-1.524 I0.08 J0.06
X-7.487 Y30.365 Z-1.535 I-0.08 J-0.06
X-7.327 Y30.485 Z-1.546 I0.08 J0.06
X-7.487 Y30.365 Z-1.557 I-0.08 J-0.06
X-7.327 Y30.485 Z-1.568 I0.08 J0.06
X-7.487 Y30.365 Z-1.579 I-0.08 J-0.06
X-7.327 Y30.485 Z-1.59 I0.08 J0.06
X-7.487 Y30.365 Z-1.601 I-0.08 J-0.06
X-7.327 Y30.485 Z-1.611 I0.08 J0.06
X-7.487 Y30.365 Z-1.622 I-0.08 J-0.06
X-7.327 Y30.485 Z-1.633 I0.08 J0.06
X-7.487 Y30.365 Z-1.644 I-0.08 J-0.06
X-7.327 Y30.485 Z-1.655 I0.08 J0.06
X-7.487 Y30.365 Z-1.666 I-0.08 J-0.06
X-7.327 Y30.485 Z-1.677 I0.08 J0.06
X-7.487 Y30.365 Z-1.688 I-0.08 J-0.06
X-7.327 Y30.485 Z-1.699 I0.08 J0.06
X-7.487 Y30.365 Z-1.71 I-0.08 J-0.06
X-7.327 Y30.485 Z-1.721 I0.08 J0.06
X-7.487 Y30.365 Z-1.732 I-0.08 J-0.06
X-7.327 Y30.485 Z-1.743 I0.08 J0.06
X-7.487 Y30.365 Z-1.754 I-0.08 J-0.06
X-7.327 Y30.485 Z-1.765 I0.08 J0.06
X-7.487 Y30.365 Z-1.776 I-0.08 J-0.06
X-7.327 Y30.485 Z-1.787 I0.08 J0.06
X-7.487 Y30.365 Z-1.798 I-0.08 J-0.06
X-7.327 Y30.485 Z-1.809 I0.08 J0.06
X-7.487 Y30.365 Z-1.82 I-0.08 J-0.06
X-7.327 Y30.485 Z-1.831 I0.08 J0.06
X-7.487 Y30.365 Z-1.842 I-0.08 J-0.06
X-7.327 Y30.485 Z-1.853 I0.08 J0.06
X-7.487 Y30.365 Z-1.864 I-0.08 J-0.06
X-7.327 Y30.485 Z-1.875 I0.08 J0.06
X-7.487 Y30.365 Z-1.886 I-0.08 J-0.06
X-7.327 Y30.485 Z-1.897 I0.08 J0.06
X-7.487 Y30.365 Z-1.908 I-0.08 J-0.06
X-7.327 Y30.485 Z-1.919 I0.08 J0.06
X-7.487 Y30.365 Z-1.93 I-0.08 J-0.06
X-7.327 Y30.485 Z-1.941 I0.08 J0.06
X-7.487 Y30.365 Z-1.952 I-0.08 J-0.06
X-7.327 Y30.485 Z-1.963 I0.08 J0.06
X-7.487 Y30.365 Z-1.974 I-0.08 J-0.06
X-7.327 Y30.485 Z-1.984 I0.08 J0.06
X-7.487 Y30.365 Z-1.995 I-0.08 J-0.06
X-7.327 Y30.485 Z-2.006 I0.08 J0.06
X-7.487 Y30.365 Z-2.017 I-0.08 J-0.06
X-7.327 Y30.485 Z-2.028 I0.08 J0.06
X-7.487 Y30.365 Z-2.039 I-0.08 J-0.06
X-7.327 Y30.485 Z-2.05 I0.08 J0.06
X-7.487 Y30.365 Z-2.061 I-0.08 J-0.06
X-7.327 Y30.485 Z-2.072 I0.08 J0.06
X-7.487 Y30.365 Z-2.083 I-0.08 J-0.06
X-7.327 Y30.485 Z-2.094 I0.08 J0.06
X-7.487 Y30.365 Z-2.105 I-0.08 J-0.06
X-7.327 Y30.485 Z-2.116 I0.08 J0.06
X-7.487 Y30.365 Z-2.127 I-0.08 J-0.06
X-7.327 Y30.485 Z-2.138 I0.08 J0.06
X-7.487 Y30.365 Z-2.149 I-0.08 J-0.06
X-7.327 Y30.485 Z-2.16 I0.08 J0.06
X-7.487 Y30.365 Z-2.171 I-0.08 J-0.06
X-7.327 Y30.485 Z-2.182 I0.08 J0.06
X-7.487 Y30.365 Z-2.193 I-0.08 J-0.06
X-7.327 Y30.485 Z-2.204 I0.08 J0.06
X-7.487 Y30.365 Z-2.215 I-0.08 J-0.06
X-7.327 Y30.485 Z-2.226 I0.08 J0.06
X-7.487 Y30.365 Z-2.237 I-0.08 J-0.06
X-7.327 Y30.485 Z-2.248 I0.08 J0.06
X-7.487 Y30.365 Z-2.259 I-0.08 J-0.06
X-7.327 Y30.485 Z-2.27 I0.08 J0.06
X-7.487 Y30.365 Z-2.281 I-0.08 J-0.06
X-7.327 Y30.485 Z-2.292 I0.08 J0.06
X-7.487 Y30.365 Z-2.303 I-0.08 J-0.06
X-7.327 Y30.485 Z-2.314 I0.08 J0.06
X-7.487 Y30.365 Z-2.325 I-0.08 J-0.06
X-7.327 Y30.485 Z-2.336 I0.08 J0.06
X-7.487 Y30.365 Z-2.347 I-0.08 J-0.06
X-7.327 Y30.485 Z-2.357 I0.08 J0.06
X-7.487 Y30.365 Z-2.368 I-0.08 J-0.06
X-7.327 Y30.485 Z-2.379 I0.08 J0.06
X-7.487 Y30.365 Z-2.39 I-0.08 J-0.06
X-7.327 Y30.485 Z-2.401 I0.08 J0.06
X-7.487 Y30.365 Z-2.412 I-0.08 J-0.06
X-7.327 Y30.485 Z-2.423 I0.08 J0.06
X-7.487 Y30.365 Z-2.434 I-0.08 J-0.06
X-7.327 Y30.485 Z-2.445 I0.08 J0.06
X-7.487 Y30.365 Z-2.456 I-0.08 J-0.06
X-7.327 Y30.485 Z-2.467 I0.08 J0.06
X-7.487 Y30.365 Z-2.478 I-0.08 J-0.06
X-7.327 Y30.485 Z-2.489 I0.08 J0.06
X-7.487 Y30.365 Z-2.5 I-0.08 J-0.06
X-7.327 Y30.485 Z-2.511 I0.08 J0.06
X-7.487 Y30.365 Z-2.522 I-0.08 J-0.06
X-7.327 Y30.485 Z-2.533 I0.08 J0.06
X-7.487 Y30.365 Z-2.544 I-0.08 J-0.06
X-7.327 Y30.485 Z-2.555 I0.08 J0.06
X-7.487 Y30.365 Z-2.566 I-0.08 J-0.06
X-7.327 Y30.485 Z-2.577 I0.08 J0.06
X-7.487 Y30.365 Z-2.588 I-0.08 J-0.06
X-7.327 Y30.485 Z-2.599 I0.08 J0.06
X-7.487 Y30.365 Z-2.61 I-0.08 J-0.06
X-7.327 Y30.485 Z-2.621 I0.08 J0.06
X-7.487 Y30.365 Z-2.632 I-0.08 J-0.06
X-7.327 Y30.485 Z-2.643 I0.08 J0.06
X-7.487 Y30.365 Z-2.654 I-0.08 J-0.06
X-7.327 Y30.485 Z-2.665 I0.08 J0.06
X-7.487 Y30.365 Z-2.676 I-0.08 J-0.06
X-7.327 Y30.485 Z-2.687 I0.08 J0.06
X-7.487 Y30.365 Z-2.698 I-0.08 J-0.06
X-7.327 Y30.485 Z-2.709 I0.08 J0.06
X-7.487 Y30.365 Z-2.72 I-0.08 J-0.06
X-7.327 Y30.485 Z-2.73 I0.08 J0.06
X-7.487 Y30.365 Z-2.741 I-0.08 J-0.06
X-7.327 Y30.485 Z-2.752 I0.08 J0.06
X-7.487 Y30.365 Z-2.763 I-0.08 J-0.06
X-7.327 Y30.485 Z-2.774 I0.08 J0.06
X-7.487 Y30.365 Z-2.785 I-0.08 J-0.06
X-7.327 Y30.485 Z-2.796 I0.08 J0.06
X-7.487 Y30.365 Z-2.807 I-0.08 J-0.06
X-7.327 Y30.485 Z-2.818 I0.08 J0.06
X-7.487 Y30.365 Z-2.829 I-0.08 J-0.06
X-7.327 Y30.485 Z-2.84 I0.08 J0.06
X-7.487 Y30.365 Z-2.851 I-0.08 J-0.06
X-7.327 Y30.485 Z-2.862 I0.08 J0.06
X-7.487 Y30.365 Z-2.873 I-0.08 J-0.06
X-7.327 Y30.485 Z-2.884 I0.08 J0.06
X-7.487 Y30.365 Z-2.895 I-0.08 J-0.06
X-7.327 Y30.485 Z-2.906 I0.08 J0.06
X-7.487 Y30.365 Z-2.917 I-0.08 J-0.06
X-7.327 Y30.485 Z-2.928 I0.08 J0.06
X-7.487 Y30.365 Z-2.939 I-0.08 J-0.06
X-7.327 Y30.485 Z-2.95 I0.08 J0.06
X-7.487 Y30.365 Z-2.961 I-0.08 J-0.06
X-7.327 Y30.485 Z-2.972 I0.08 J0.06
X-7.487 Y30.365 Z-2.983 I-0.08 J-0.06
X-7.327 Y30.485 Z-2.994 I0.08 J0.06
X-7.487 Y30.365 Z-3.005 I-0.08 J-0.06
X-7.327 Y30.485 Z-3.016 I0.08 J0.06
X-7.487 Y30.365 Z-3.027 I-0.08 J-0.06
X-7.327 Y30.485 Z-3.038 I0.08 J0.06
X-7.487 Y30.365 Z-3.049 I-0.08 J-0.06
X-7.327 Y30.485 Z-3.06 I0.08 J0.06
X-7.487 Y30.365 Z-3.071 I-0.08 J-0.06
X-7.327 Y30.485 Z-3.082 I0.08 J0.06
X-7.487 Y30.365 Z-3.093 I-0.08 J-0.06
X-7.327 Y30.485 Z-3.103 I0.08 J0.06
X-7.487 Y30.365 Z-3.114 I-0.08 J-0.06
X-7.327 Y30.485 Z-3.125 I0.08 J0.06
X-7.487 Y30.365 Z-3.136 I-0.08 J-0.06
X-7.327 Y30.485 Z-3.147 I0.08 J0.06
X-7.487 Y30.365 Z-3.158 I-0.08 J-0.06
X-7.327 Y30.485 Z-3.169 I0.08 J0.06
X-7.487 Y30.365 Z-3.18 I-0.08 J-0.06
X-7.327 Y30.485 Z-3.191 I0.08 J0.06
X-7.487 Y30.365 Z-3.202 I-0.08 J-0.06
X-7.327 Y30.485 Z-3.213 I0.08 J0.06
X-7.487 Y30.365 Z-3.224 I-0.08 J-0.06
X-7.327 Y30.485 Z-3.235 I0.08 J0.06
X-7.487 Y30.365 Z-3.246 I-0.08 J-0.06
X-7.327 Y30.485 Z-3.257 I0.08 J0.06
X-7.487 Y30.365 Z-3.268 I-0.08 J-0.06
X-7.327 Y30.485 Z-3.279 I0.08 J0.06
X-7.487 Y30.365 Z-3.29 I-0.08 J-0.06
X-7.327 Y30.485 Z-3.301 I0.08 J0.06
X-7.487 Y30.365 Z-3.312 I-0.08 J-0.06
X-7.327 Y30.485 Z-3.323 I0.08 J0.06
X-7.487 Y30.365 Z-3.334 I-0.08 J-0.06
X-7.327 Y30.485 Z-3.345 I0.08 J0.06
X-7.487 Y30.365 Z-3.356 I-0.08 J-0.06
X-7.327 Y30.485 Z-3.367 I0.08 J0.06
X-7.487 Y30.365 Z-3.378 I-0.08 J-0.06
X-7.327 Y30.485 Z-3.389 I0.08 J0.06
X-7.487 Y30.365 Z-3.4 I-0.08 J-0.06
X-7.327 Y30.485 Z-3.411 I0.08 J0.06
X-7.487 Y30.365 Z-3.422 I-0.08 J-0.06
X-7.327 Y30.485 Z-3.433 I0.08 J0.06
X-7.487 Y30.365 Z-3.444 I-0.08 J-0.06
X-7.327 Y30.485 Z-3.455 I0.08 J0.06
X-7.487 Y30.365 Z-3.466 I-0.08 J-0.06
X-7.327 Y30.485 Z-3.476 I0.08 J0.06
X-7.487 Y30.365 Z-3.487 I-0.08 J-0.06
X-7.327 Y30.485 Z-3.498 I0.08 J0.06
X-7.487 Y30.365 Z-3.509 I-0.08 J-0.06
X-7.327 Y30.485 Z-3.52 I0.08 J0.06
X-7.487 Y30.365 Z-3.531 I-0.08 J-0.06
X-7.327 Y30.485 Z-3.542 I0.08 J0.06
X-7.487 Y30.365 Z-3.553 I-0.08 J-0.06
X-7.327 Y30.485 Z-3.564 I0.08 J0.06
X-7.487 Y30.365 Z-3.575 I-0.08 J-0.06
X-7.327 Y30.485 Z-3.586 I0.08 J0.06
X-7.487 Y30.365 Z-3.597 I-0.08 J-0.06
X-7.327 Y30.485 Z-3.608 I0.08 J0.06
X-7.487 Y30.365 Z-3.619 I-0.08 J-0.06
X-7.327 Y30.485 Z-3.63 I0.08 J0.06
X-7.487 Y30.365 Z-3.641 I-0.08 J-0.06
X-7.327 Y30.485 Z-3.652 I0.08 J0.06
X-7.487 Y30.365 Z-3.663 I-0.08 J-0.06
X-7.327 Y30.485 Z-3.674 I0.08 J0.06
X-7.487 Y30.365 Z-3.685 I-0.08 J-0.06
X-7.327 Y30.485 Z-3.696 I0.08 J0.06
X-7.487 Y30.365 Z-3.707 I-0.08 J-0.06
X-7.327 Y30.485 Z-3.718 I0.08 J0.06
X-7.487 Y30.365 Z-3.729 I-0.08 J-0.06
X-7.327 Y30.485 Z-3.74 I0.08 J0.06
X-7.487 Y30.365 Z-3.751 I-0.08 J-0.06
X-7.327 Y30.485 Z-3.762 I0.08 J0.06
X-7.487 Y30.365 Z-3.773 I-0.08 J-0.06
X-7.327 Y30.485 Z-3.784 I0.08 J0.06
X-7.487 Y30.365 Z-3.795 I-0.08 J-0.06
X-7.327 Y30.485 Z-3.806 I0.08 J0.06
X-7.487 Y30.365 Z-3.817 I-0.08 J-0.06
X-7.327 Y30.485 Z-3.828 I0.08 J0.06
X-7.487 Y30.365 Z-3.839 I-0.08 J-0.06
X-7.327 Y30.485 Z-3.849 I0.08 J0.06
X-7.487 Y30.365 Z-3.86 I-0.08 J-0.06
X-7.327 Y30.485 Z-3.871 I0.08 J0.06
X-7.487 Y30.365 Z-3.882 I-0.08 J-0.06
X-7.327 Y30.485 Z-3.893 I0.08 J0.06
X-7.487 Y30.365 Z-3.904 I-0.08 J-0.06
X-7.327 Y30.485 Z-3.915 I0.08 J0.06
X-7.487 Y30.365 Z-3.926 I-0.08 J-0.06
X-7.327 Y30.485 Z-3.937 I0.08 J0.06
X-7.487 Y30.365 Z-3.948 I-0.08 J-0.06
X-7.327 Y30.485 Z-3.959 I0.08 J0.06
X-7.487 Y30.365 Z-3.97 I-0.08 J-0.06
X-7.327 Y30.485 Z-3.981 I0.08 J0.06
X-7.487 Y30.365 Z-3.992 I-0.08 J-0.06
X-7.327 Y30.485 Z-4.003 I0.08 J0.06
X-7.487 Y30.365 Z-4.014 I-0.08 J-0.06
X-7.327 Y30.485 Z-4.025 I0.08 J0.06
X-7.487 Y30.365 Z-4.036 I-0.08 J-0.06
X-7.327 Y30.485 Z-4.047 I0.08 J0.06
X-7.487 Y30.365 Z-4.058 I-0.08 J-0.06
X-7.327 Y30.485 Z-4.069 I0.08 J0.06
X-7.487 Y30.365 Z-4.08 I-0.08 J-0.06
X-7.327 Y30.485 Z-4.091 I0.08 J0.06
X-7.487 Y30.365 Z-4.102 I-0.08 J-0.06
X-7.327 Y30.485 Z-4.113 I0.08 J0.06
X-7.487 Y30.365 Z-4.124 I-0.08 J-0.06
X-7.327 Y30.485 Z-4.135 I0.08 J0.06
X-7.487 Y30.365 Z-4.146 I-0.08 J-0.06
X-7.327 Y30.485 Z-4.157 I0.08 J0.06
X-7.487 Y30.365 Z-4.168 I-0.08 J-0.06
X-7.327 Y30.485 Z-4.179 I0.08 J0.06
X-7.487 Y30.365 Z-4.19 I-0.08 J-0.06
X-7.327 Y30.485 Z-4.201 I0.08 J0.06
X-7.487 Y30.365 Z-4.212 I-0.08 J-0.06
X-7.327 Y30.485 Z-4.222 I0.08 J0.06
X-7.487 Y30.365 Z-4.233 I-0.08 J-0.06
X-7.327 Y30.485 Z-4.244 I0.08 J0.06
X-7.487 Y30.365 Z-4.255 I-0.08 J-0.06
X-7.327 Y30.485 Z-4.266 I0.08 J0.06
X-7.487 Y30.365 Z-4.277 I-0.08 J-0.06
X-7.327 Y30.485 Z-4.288 I0.08 J0.06
X-7.487 Y30.365 Z-4.299 I-0.08 J-0.06
X-7.327 Y30.485 Z-4.31 I0.08 J0.06
X-7.487 Y30.365 Z-4.321 I-0.08 J-0.06
X-7.327 Y30.485 Z-4.332 I0.08 J0.06
X-7.487 Y30.365 Z-4.343 I-0.08 J-0.06
X-7.327 Y30.485 Z-4.354 I0.08 J0.06
X-7.487 Y30.365 Z-4.365 I-0.08 J-0.06
X-7.327 Y30.485 Z-4.376 I0.08 J0.06
X-7.487 Y30.365 Z-4.387 I-0.08 J-0.06
X-7.327 Y30.485 Z-4.398 I0.08 J0.06
X-7.487 Y30.365 Z-4.409 I-0.08 J-0.06
X-7.327 Y30.485 Z-4.42 I0.08 J0.06
X-7.487 Y30.365 Z-4.431 I-0.08 J-0.06
X-7.327 Y30.485 Z-4.442 I0.08 J0.06
X-7.487 Y30.365 Z-4.453 I-0.08 J-0.06
X-7.327 Y30.485 Z-4.464 I0.08 J0.06
X-7.487 Y30.365 Z-4.475 I-0.08 J-0.06
X-7.327 Y30.485 Z-4.486 I0.08 J0.06
X-7.487 Y30.365 Z-4.497 I-0.08 J-0.06
X-7.407 Y30.325 Z-4.5 I0.08 J0.06
Y30.525 I0 J0.1
Y30.325 I0 J-0.1
G0 Z5
X-21.919 Y38.909
Z2
G1 Z0.1 F100
X-21.92 Y38.91 F1000
G3 X-22.08 Y38.79 Z0.089 I-0.08 J-0.06
X-21.92 Y38.91 Z0.078 I0.08 J0.06
X-22.08 Y38.79 Z0.067 I-0.08 J-0.06
X-21.92 Y38.91 Z0.056 I0.08 J0.06
X-22.08 Y38.79 Z0.045 I-0.08 J-0.06
X-21.92 Y38.91 Z0.034 I0.08 J0.06
X-22.08 Y38.79 Z0.023 I-0.08 J-0.06
X-21.92 Y38.91 Z0.012 I0.08 J0.06
X-22.08 Y38.79 Z0.001 I-0.08 J-0.06
X-21.92 Y38.91 Z-0.01 I0.08 J0.06
X-22.08 Y38.79 Z-0.021 I-0.08 J-0.06
X-21.92 Y38.91 Z-0.032 I0.08 J0.06
X-22.08 Y38.79 Z-0.043 I-0.08 J-0.06
X-21.92 Y38.91 Z-0.054 I0.08 J0.06
X-22.08 Y38.79 Z-0.065 I-0.08 J-0.06
X-21.92 Y38.91 Z-0.076 I0.08 J0.06
X-22.08 Y38.79 Z-0.087 I-0.08 J-0.06
X-21.92 Y38.91 Z-0.098 I0.08 J0.06
X-22.08 Y38.79 Z-0.108 I-0.08 J-0.06
X-21.92 Y38.91 Z-0.119 I0.08 J0.06
X-22.08 Y38.79 Z-0.13 I-0.08 J-0.06
X-21.92 Y38.91 Z-0.141 I0.08 J0.06
X-22.08 Y38.79 Z-0.152 I-0.08 J-0.06
X-21.92 Y38.91 Z-0.163 I0.08 J0.06
X-22.08 Y38.79 Z-0.174 I-0.08 J-0.06
X-21.92 Y38.91 Z-0.185 I0.08 J0.06
X-22.08 Y38.79 Z-0.196 I-0.08 J-0.06
X-21.92 Y38.91 Z-0.207 I0.08 J0.06
X-22.08 Y38.79 Z-0.218 I-0.08 J-0.06
X-21.92 Y38.91 Z-0.229 I0.08 J0.06
X-22.08 Y38.79 Z-0.24 I-0.08 J-0.06
X-21.92 Y38.91 Z-0.251 I0.08 J0.06
X-22.08 Y38.79 Z-0.262 I-0.08 J-0.06
X-21.92 Y38.91 Z-0.273 I0.08 J0.06
X-22.08 Y38.79 Z-0.284 I-0.08 J-0.06
X-21.92 Y38.91 Z-0.295 I0.08 J0.06
X-22.08 Y38.79 Z-0.306 I-0.08 J-0.06
X-21.92 Y38.91 Z-0.317 I0.08 J0.06
X-22.08 Y38.79 Z-0.328 I-0.08 J-0.06
X-21.92 Y38.91 Z-0.339 I0.08 J0.06
X-22.08 Y38.79 Z-0.35 I-0.08 J-0.06
X-21.92 Y38.91 Z-0.361 I0.08 J0.06
X-22.08 Y38.79 Z-0.372 I-0.08 J-0.06
X-21.92 Y38.91 Z-0.383 I0.08 J0.06
X-22.08 Y38.79 Z-0.394 I-0.08 J-0.06
X-21.92 Y38.91 Z-0.405 I0.08 J0.06
X-22.08 Y38.79 Z-0.416 I-0.08 J-0.06
X-21.92 Y38.91 Z-0.427 I0.08 J0.06
X-22.08 Y38.79 Z-0.438 I-0.08 J-0.06
X-21.92 Y38.91 Z-0.449 I0.08 J0.06
X-22.08 Y38.79 Z-0.46 I-0.08 J-0.06
X-21.92 Y38.91 Z-0.471 I0.08 J0.06
X-22.08 Y38.79 Z-0.481 I-0.08 J-0.06
X-21.92 Y38.91 Z-0.492 I0.08 J0.06
X-22.08 Y38.79 Z-0.503 I-0.08 J-0.06
X-21.92 Y38.91 Z-0.514 I0.08 J0.06
X-22.08 Y38.79 Z-0.525 I-0.08 J-0.06
X-21.92 Y38.91 Z-0.536 I0.08 J0.06
X-22.08 Y38.79 Z-0.547 I-0.08 J-0.06
X-21.92 Y38.91 Z-0.558 I0.08 J0.06
X-22.08 Y38.79 Z-0.569 I-0.08 J-0.06
X-21.92 Y38.91 Z-0.58 I0.08 J0.06
X-22.08 Y38.79 Z-0.591 I-0.08 J-0.06
X-21.92 Y38.91 Z-0.602 I0.08 J0.06
X-22.08 Y38.79 Z-0.613 I-0.08 J-0.06
X-21.92 Y38.91 Z-0.624 I0.08 J0.06
X-22.08 Y38.79 Z-0.635 I-0.08 J-0.06
X-21.92 Y38.91 Z-0.646 I0.08 J0.06
X-22.08 Y38.79 Z-0.657 I-0.08 J-0.06
X-21.92 Y38.91 Z-0.668 I0.08 J0.06
X-22.08 Y38.79 Z-0.679 I-0.08 J-0.06
X-21.92 Y38.91 Z-0.69 I0.08 J0.06
X-22.08 Y38.79 Z-0.701 I-0.08 J-0.06
X-21.92 Y38.91 Z-0.712 I0.08 J0.06
X-22.08 Y38.79 Z-0.723 I-0.08 J-0.06
X-21.92 Y38.91 Z-0.734 I0.08 J0.06
X-22.08 Y38.79 Z-0.745 I-0.08 J-0.06
X-21.92 Y38.91 Z-0.756 I0.08 J0.06
X-22.08 Y38.79 Z-0.767 I-0.08 J-0.06
X-21.92 Y38.91 Z-0.778 I0.08 J0.06
X-22.08 Y38.79 Z-0.789 I-0.08 J-0.06
X-21.92 Y38.91 Z-0.8 I0.08 J0.06
X-22.08 Y38.79 Z-0.811 I-0.08 J-0.06
X-21.92 Y38.91 Z-0.822 I0.08 J0.06
X-22.08 Y38.79 Z-0.833 I-0.08 J-0.06
X-21.92 Y38.91 Z-0.844 I0.08 J0.06
X-22.08 Y38.79 Z-0.854 I-0.08 J-0.06
X-21.92 Y38.91 Z-0.865 I0.08 J0.06
X-22.08 Y38.79 Z-0.876 I-0.08 J-0.06
X-21.92 Y38.91 Z-0.887 I0.08 J0.06
X-22.08 Y38.79 Z-0.898 I-0.08 J-0.06
X-21.92 Y38.91 Z-0.909 I0.08 J0.06
X-22.08 Y38.79 Z-0.92 I-0.08 J-0.06
X-21.92 Y38.91 Z-0.931 I0.08 J0.06
X-22.08 Y38.79 Z-0.942 I-0.08 J-0.06
X-21.92 Y38.91 Z-0.953 I0.08 J0.06
X-22.08 Y38.79 Z-0.964 I-0.08 J-0.06
X-21.92 Y38.91 Z-0.975 I0.08 J0.06
X-22.08 Y38.79 Z-0.986 I-0.08 J-0.06
X-21.92 Y38.91 Z-0.997 I0.08 J0.06
X-22.08 Y38.79 Z-1.008 I-0.08 J-0.06
X-21.92 Y38.91 Z-1.019 I0.08 J0.06
X-22.08 Y38.79 Z-1.03 I-0.08 J-0.06
X-21.92 Y38.91 Z-1.041 I0.08 J0.06
X-22.08 Y38.79 Z-1.052 I-0.08 J-0.06
X-21.92 Y38.91 Z-1.063 I0.08 J0.06
X-22.08 Y38.79 Z-1.074 I-0.08 J-0.06
X-21.92 Y38.91 Z-1.085 I0.08 J0.06
X-22.08 Y38.79 Z-1.096 I-0.08 J-0.06
X-21.92 Y38.91 Z-1.107 I0.08 J0.06
X-22.08 Y38.79 Z-1.118 I-0.08 J-0.06
X-21.92 Y38.91 Z-1.129 I0.08 J0.06
X-22.08 Y38.79 Z-1.14 I-0.08 J-0.06
X-21.92 Y38.91 Z-1.151 I0.08 J0.06
X-22.08 Y38.79 Z-1.162 I-0.08 J-0.06
X-21.92 Y38.91 Z-1.173 I0.08 J0.06
X-22.08 Y38.79 Z-1.184 I-0.08 J-0.06
X-21.92 Y38.91 Z-1.195 I0.08 J0.06
X-22.08 Y38.79 Z-1.206 I-0.08 J-0.06
X-21.92 Y38.91 Z-1.217 I0.08 J0.06
X-22.08 Y38.79 Z-1.227 I-0.08 J-0.06
X-21.92 Y38.91 Z-1.238 I0.08 J0.06
X-22.08 Y38.79 Z-1.249 I-0.08 J-0.06
X-21.92 Y38.91 Z-1.26 I0.08 J0.06
X-22.08 Y38.79 Z-1.271 I-0.08 J-0.06
X-21.92 Y38.91 Z-1.282 I0.08 J0.06
X-22.08 Y38.79 Z-1.293 I-0.08 J-0.06
X-21.92 Y38.91 Z-1.304 I0.08 J0.06
X-22.08 Y38.79 Z-1.315 I-0.08 J-0.06
X-21.92 Y38.91 Z-1.326 I0.08 J0.06
X-22.08 Y38.79 Z-1.337 I-0.08 J-0.06
X-21.92 Y38.91 Z-1.348 I0.08 J0.06
X-22.08 Y38.79 Z-1.359 I-0.08 J-0.06
X-21.92 Y38.91 Z-1.37 I0.08 J0.06
X-22.08 Y38.79 Z-1.381 I-0.08 J-0.06
X-21.92 Y38.91 Z-1.392 I0.08 J0.06
X-22.08 Y38.79 Z-1.403 I-0.08 J-0.06
X-21.92 Y38.91 Z-1.414 I0.08 J0.06
X-22.08 Y38.79 Z-1.425 I-0.08 J-0.06
X-21.92 Y38.91 Z-1.436 I0.08 J0.06
X-22.08 Y38.79 Z-1.447 I-0.08 J-0.06
X-21.92 Y38.91 Z-1.458 I0.08 J0.06
X-22.08 Y38.79 Z-1.469 I-0.08 J-0.06
X-21.92 Y38.91 Z-1.48 I0.08 J0.06
X-22.08 Y38.79 Z-1.491 I-0.08 J-0.06
X-21.92 Y38.91 Z-1.502 I0.08 J0.06
X-22.08 Y38.79 Z-1.513 I-0.08 J-0.06
X-21.92 Y38.91 Z-1.524 I0.08 J0.06
X-22.08 Y38.79 Z-1.535 I-0.08 J-0.06
X-21.92 Y38.91 Z-1.546 I0.08 J0.06
X-22.08 Y38.79 Z-1.557 I-0.08 J-0.06
X-21.92 Y38.91 Z-1.568 I0.08 J0.06
X-22.08 Y38.79 Z-1.579 I-0.08 J-0.06
X-21.92 Y38.91 Z-1.59 I0.08 J0.06
X-22.08 Y38.79 Z-1.601 I-0.08 J-0.06
X-21.92 Y38.91 Z-1.611 I0.08 J0.06
X-22.08 Y38.79 Z-1.622 I-0.08 J-0.06
X-21.92 Y38.91 Z-1.633 I0.08 J0.06
X-22.08 Y38.79 Z-1.644 I-0.08 J-0.06
X-21.92 Y38.91 Z-1.655 I0.08 J0.06
X-22.08 Y38.79 Z-1.666 I-0.08 J-0.06
X-21.92 Y38.91 Z-1.677 I0.08 J0.06
X-22.08 Y38.79 Z-1.688 I-0.08 J-0.06
X-21.92 Y38.91 Z-1.699 I0.08 J0.06
X-22.08 Y38.79 Z-1.71 I-0.08 J-0.06
X-21.92 Y38.91 Z-1.721 I0.08 J0.06
X-22.08 Y38.79 Z-1.732 I-0.08 J-0.06
X-21.92 Y38.91 Z-1.743 I0.08 J0.06
X-22.08 Y38.79 Z-1.754 I-0.08 J-0.06
X-21.92 Y38.91 Z-1.765 I0.08 J0.06
X-22.08 Y38.79 Z-1.776 I-0.08 J-0.06
X-21.92 Y38.91 Z-1.787 I0.08 J0.06
X-22.08 Y38.79 Z-1.798 I-0.08 J-0.06
X-21.92 Y38.91 Z-1.809 I0.08 J0.06
X-22.08 Y38.79 Z-1.82 I-0.08 J-0.06
X-21.92 Y38.91 Z-1.831 I0.08 J0.06
X-22.08 Y38.79 Z-1.842 I-0.08 J-0.06
X-21.92 Y38.91 Z-1.853 I0.08 J0.06
X-22.08 Y38.79 Z-1.864 I-0.08 J-0.06
X-21.92 Y38.91 Z-1.875 I0.08 J0.06
X-22.08 Y38.79 Z-1.886 I-0.08 J-0.06
X-21.92 Y38.91 Z-1.897 I0.08 J0.06
X-22.08 Y38.79 Z-1.908 I-0.08 J-0.06
X-21.92 Y38.91 Z-1.919 I0.08 J0.06
X-22.08 Y38.79 Z-1.93 I-0.08 J-0.06
X-21.92 Y38.91 Z-1.941 I0.08 J0.06
X-22.08 Y38.79 Z-1.952 I-0.08 J-0.06
X-21.92 Y38.91 Z-1.963 I0.08 J0.06
X-22.08 Y38.79 Z-1.974 I-0.08 J-0.06
X-21.92 Y38.91 Z-1.984 I0.08 J0.06
X-22.08 Y38.79 Z-1.995 I-0.08 J-0.06
X-21.92 Y38.91 Z-2.006 I0.08 J0.06
X-22.08 Y38.79 Z-2.017 I-0.08 J-0.06
X-21.92 Y38.91 Z-2.028 I0.08 J0.06
X-22.08 Y38.79 Z-2.039 I-0.08 J-0.06
X-21.92 Y38.91 Z-2.05 I0.08 J0.06
X-22.08 Y38.79 Z-2.061 I-0.08 J-0.06
X-21.92 Y38.91 Z-2.072 I0.08 J0.06
X-22.08 Y38.79 Z-2.083 I-0.08 J-0.06
X-21.92 Y38.91 Z-2.094 I0.08 J0.06
X-22.08 Y38.79 Z-2.105 I-0.08 J-0.06
X-21.92 Y38.91 Z-2.116 I0.08 J0.06
X-22.08 Y38.79 Z-2.127 I-0.08 J-0.06
X-21.92 Y38.91 Z-2.138 I0.08 J0.06
X-22.08 Y38.79 Z-2.149 I-0.08 J-0.06
X-21.92 Y38.91 Z-2.16 I0.08 J0.06
X-22.08 Y38.79 Z-2.171 I-0.08 J-0.06
X-21.92 Y38.91 Z-2.182 I0.08 J0.06
X-22.08 Y38.79 Z-2.193 I-0.08 J-0.06
X-21.92 Y38.91 Z-2.204 I0.08 J0.06
X-22.08 Y38.79 Z-2.215 I-0.08 J-0.06
X-21.92 Y38.91 Z-2.226 I0.08 J0.06
X-22.08 Y38.79 Z-2.237 I-0.08 J-0.06
X-21.92 Y38.91 Z-2.248 I0.08 J0.06
X-22.08 Y38.79 Z-2.259 I-0.08 J-0.06
X-21.92 Y38.91 Z-2.27 I0.08 J0.06
X-22.08 Y38.79 Z-2.281 I-0.08 J-0.06
X-21.92 Y38.91 Z-2.292 I0.08 J0.06
X-22.08 Y38.79 Z-2.303 I-0.08 J-0.06
X-21.92 Y38.91 Z-2.314 I0.08 J0.06
X-22.08 Y38.79 Z-2.325 I-0.08 J-0.06
X-21.92 Y38.91 Z-2.336 I0.08 J0.06
X-22.08 Y38.79 Z-2.347 I-0.08 J-0.06
X-21.92 Y38.91 Z-2.357 I0.08 J0.06
X-22.08 Y38.79 Z-2.368 I-0.08 J-0.06
X-21.92 Y38.91 Z-2.379 I0.08 J0.06
X-22.08 Y38.79 Z-2.39 I-0.08 J-0.06
X-21.92 Y38.91 Z-2.401 I0.08 J0.06
X-22.08 Y38.79 Z-2.412 I-0.08 J-0.06
X-21.92 Y38.91 Z-2.423 I0.08 J0.06
X-22.08 Y38.79 Z-2.434 I-0.08 J-0.06
X-21.92 Y38.91 Z-2.445 I0.08 J0.06
X-22.08 Y38.79 Z-2.456 I-0.08 J-0.06
X-21.92 Y38.91 Z-2.467 I0.08 J0.06
X-22.08 Y38.79 Z-2.478 I-0.08 J-0.06
X-21.92 Y38.91 Z-2.489 I0.08 J0.06
X-22.08 Y38.79 Z-2.5 I-0.08 J-0.06
X-21.92 Y38.91 Z-2.511 I0.08 J0.06
X-22.08 Y38.79 Z-2.522 I-0.08 J-0.06
X-21.92 Y38.91 Z-2.533 I0.08 J0.06
X-22.08 Y38.79 Z-2.544 I-0.08 J-0.06
X-21.92 Y38.91 Z-2.555 I0.08 J0.06
X-22.08 Y38.79 Z-2.566 I-0.08 J-0.06
X-21.92 Y38.91 Z-2.577 I0.08 J0.06
X-22.08 Y38.79 Z-2.588 I-0.08 J-0.06
X-21.92 Y38.91 Z-2.599 I0.08 J0.06
X-22.08 Y38.79 Z-2.61 I-0.08 J-0.06
X-21.92 Y38.91 Z-2.621 I0.08 J0.06
X-22.08 Y38.79 Z-2.632 I-0.08 J-0.06
X-21.92 Y38.91 Z-2.643 I0.08 J0.06
X-22.08 Y38.79 Z-2.654 I-0.08 J-0.06
X-21.92 Y38.91 Z-2.665 I0.08 J0.06
X-22.08 Y38.79 Z-2.676 I-0.08 J-0.06
X-21.92 Y38.91 Z-2.687 I0.08 J0.06
X-22.08 Y38.79 Z-2.698 I-0.08 J-0.06
X-21.92 Y38.91 Z-2.709 I0.08 J0.06
X-22.08 Y38.79 Z-2.72 I-0.08 J-0.06
X-21.92 Y38.91 Z-2.73 I0.08 J0.06
X-22.08 Y38.79 Z-2.741 I-0.08 J-0.06
X-21.92 Y38.91 Z-2.752 I0.08 J0.06
X-22.08 Y38.79 Z-2.763 I-0.08 J-0.06
X-21.92 Y38.91 Z-2.774 I0.08 J0.06
X-22.08 Y38.79 Z-2.785 I-0.08 J-0.06
X-21.92 Y38.91 Z-2.796 I0.08 J0.06
X-22.08 Y38.79 Z-2.807 I-0.08 J-0.06
X-21.92 Y38.91 Z-2.818 I0.08 J0.06
X-22.08 Y38.79 Z-2.829 I-0.08 J-0.06
X-21.92 Y38.91 Z-2.84 I0.08 J0.06
X-22.08 Y38.79 Z-2.851 I-0.08 J-0.06
X-21.92 Y38.91 Z-2.862 I0.08 J0.06
X-22.08 Y38.79 Z-2.873 I-0.08 J-0.06
X-21.92 Y38.91 Z-2.884 I0.08 J0.06
X-22.08 Y38.79 Z-2.895 I-0.08 J-0.06
X-21.92 Y38.91 Z-2.906 I0.08 J0.06
X-22.08 Y38.79 Z-2.917 I-0.08 J-0.06
X-21.92 Y38.91 Z-2.928 I0.08 J0.06
X-22.08 Y38.79 Z-2.939 I-0.08 J-0.06
X-21.92 Y38.91 Z-2.95 I0.08 J0.06
X-22.08 Y38.79 Z-2.961 I-0.08 J-0.06
X-21.92 Y38.91 Z-2.972 I0.08 J0.06
X-22.08 Y38.79 Z-2.983 I-0.08 J-0.06
X-21.92 Y38.91 Z-2.994 I0.08 J0.06
X-22.08 Y38.79 Z-3.005 I-0.08 J-0.06
X-21.92 Y38.91 Z-3.016 I0.08 J0.06
X-22.08 Y38.79 Z-3.027 I-0.08 J-0.06
X-21.92 Y38.91 Z-3.038 I0.08 J0.06
X-22.08 Y38.79 Z-3.049 I-0.08 J-0.06
X-21.92 Y38.91 Z-3.06 I0.08 J0.06
X-22.08 Y38.79 Z-3.071 I-0.08 J-0.06
X-21.92 Y38.91 Z-3.082 I0.08 J0.06
X-22.08 Y38.79 Z-3.093 I-0.08 J-0.06
X-21.92 Y38.91 Z-3.103 I0.08 J0.06
X-22.08 Y38.79 Z-3.114 I-0.08 J-0.06
X-21.92 Y38.91 Z-3.125 I0.08 J0.06
X-22.08 Y38.79 Z-3.136 I-0.08 J-0.06
X-21.92 Y38.91 Z-3.147 I0.08 J0.06
X-22.08 Y38.79 Z-3.158 I-0.08 J-0.06
X-21.92 Y38.91 Z-3.169 I0.08 J0.06
X-22.08 Y38.79 Z-3.18 I-0.08 J-0.06
X-21.92 Y38.91 Z-3.191 I0.08 J0.06
X-22.08 Y38.79 Z-3.202 I-0.08 J-0.06
X-21.92 Y38.91 Z-3.213 I0.08 J0.06
X-22.08 Y38.79 Z-3.224 I-0.08 J-0.06
X-21.92 Y38.91 Z-3.235 I0.08 J0.06
X-22.08 Y38.79 Z-3.246 I-0.08 J-0.06
X-21.92 Y38.91 Z-3.257 I0.08 J0.06
X-22.08 Y38.79 Z-3.268 I-0.08 J-0.06
X-21.92 Y38.91 Z-3.279 I0.08 J0.06
X-22.08 Y38.79 Z-3.29 I-0.08 J-0.06
X-21.92 Y38.91 Z-3.301 I0.08 J0.06
X-22.08 Y38.79 Z-3.312 I-0.08 J-0.06
X-21.92 Y38.91 Z-3.323 I0.08 J0.06
X-22.08 Y38.79 Z-3.334 I-0.08 J-0.06
X-21.92 Y38.91 Z-3.345 I0.08 J0.06
X-22.08 Y38.79 Z-3.356 I-0.08 J-0.06
X-21.92 Y38.91 Z-3.367 I0.08 J0.06
X-22.08 Y38.79 Z-3.378 I-0.08 J-0.06
X-21.92 Y38.91 Z-3.389 I0.08 J0.06
X-22.08 Y38.79 Z-3.4 I-0.08 J-0.06
X-21.92 Y38.91 Z-3.411 I0.08 J0.06
X-22.08 Y38.79 Z-3.422 I-0.08 J-0.06
X-21.92 Y38.91 Z-3.433 I0.08 J0.06
X-22.08 Y38.79 Z-3.444 I-0.08 J-0.06
X-21.92 Y38.91 Z-3.455 I0.08 J0.06
X-22.08 Y38.79 Z-3.466 I-0.08 J-0.06
X-21.92 Y38.91 Z-3.476 I0.08 J0.06
X-22.08 Y38.79 Z-3.487 I-0.08 J-0.06
X-21.92 Y38.91 Z-3.498 I0.08 J0.06
X-22.08 Y38.79 Z-3.509 I-0.08 J-0.06
X-21.92 Y38.91 Z-3.52 I0.08 J0.06
X-22.08 Y38.79 Z-3.531 I-0.08 J-0.06
X-21.92 Y38.91 Z-3.542 I0.08 J0.06
X-22.08 Y38.79 Z-3.553 I-0.08 J-0.06
X-21.92 Y38.91 Z-3.564 I0.08 J0.06
X-22.08 Y38.79 Z-3.575 I-0.08 J-0.06
X-21.92 Y38.91 Z-3.586 I0.08 J0.06
X-22.08 Y38.79 Z-3.597 I-0.08 J-0.06
X-21.92 Y38.91 Z-3.608 I0.08 J0.06
X-22.08 Y38.79 Z-3.619 I-0.08 J-0.06
X-21.92 Y38.91 Z-3.63 I0.08 J0.06
X-22.08 Y38.79 Z-3.641 I-0.08 J-0.06
X-21.92 Y38.91 Z-3.652 I0.08 J0.06
X-22.08 Y38.79 Z-3.663 I-0.08 J-0.06
X-21.92 Y38.91 Z-3.674 I0.08 J0.06
X-22.08 Y38.79 Z-3.685 I-0.08 J-0.06
X-21.92 Y38.91 Z-3.696 I0.08 J0.06
X-22.08 Y38.79 Z-3.707 I-0.08 J-0.06
X-21.92 Y38.91 Z-3.718 I0.08 J0.06
X-22.08 Y38.79 Z-3.729 I-0.08 J-0.06
X-21.92 Y38.91 Z-3.74 I0.08 J0.06
X-22.08 Y38.79 Z-3.751 I-0.08 J-0.06
X-21.92 Y38.91 Z-3.762 I0.08 J0.06
X-22.08 Y38.79 Z-3.773 I-0.08 J-0.06
X-21.92 Y38.91 Z-3.784 I0.08 J0.06
X-22.08 Y38.79 Z-3.795 I-0.08 J-0.06
X-21.92 Y38.91 Z-3.806 I0.08 J0.06
X-22.08 Y38.79 Z-3.817 I-0.08 J-0.06
X-21.92 Y38.91 Z-3.828 I0.08 J0.06
X-22.08 Y38.79 Z-3.839 I-0.08 J-0.06
X-21.92 Y38.91 Z-3.849 I0.08 J0.06
X-22.08 Y38.79 Z-3.86 I-0.08 J-0.06
X-21.92 Y38.91 Z-3.871 I0.08 J0.06
X-22.08 Y38.79 Z-3.882 I-0.08 J-0.06
X-21.92 Y38.91 Z-3.893 I0.08 J0.06
X-22.08 Y38.79 Z-3.904 I-0.08 J-0.06
X-21.92 Y38.91 Z-3.915 I0.08 J0.06
X-22.08 Y38.79 Z-3.926 I-0.08 J-0.06
X-21.92 Y38.91 Z-3.937 I0.08 J0.06
X-22.08 Y38.79 Z-3.948 I-0.08 J-0.06
X-21.92 Y38.91 Z-3.959 I0.08 J0.06
X-22.08 Y38.79 Z-3.97 I-0.08 J-0.06
X-21.92 Y38.91 Z-3.981 I0.08 J0.06
X-22.08 Y38.79 Z-3.992 I-0.08 J-0.06
X-21.92 Y38.91 Z-4.003 I0.08 J0.06
X-22.08 Y38.79 Z-4.014 I-0.08 J-0.06
X-21.92 Y38.91 Z-4.025 I0.08 J0.06
X-22.08 Y38.79 Z-4.036 I-0.08 J-0.06
X-21.92 Y38.91 Z-4.047 I0.08 J0.06
X-22.08 Y38.79 Z-4.058 I-0.08 J-0.06
X-21.92 Y38.91 Z-4.069 I0.08 J0.06
X-22.08 Y38.79 Z-4.08 I-0.08 J-0.06
X-21.92 Y38.91 Z-4.091 I0.08 J0.06
X-22.08 Y38.79 Z-4.102 I-0.08 J-0.06
X-21.92 Y38.91 Z-4.113 I0.08 J0.06
X-22.08 Y38.79 Z-4.124 I-0.08 J-0.06
X-21.92 Y38.91 Z-4.135 I0.08 J0.06
X-22.08 Y38.79 Z-4.146 I-0.08 J-0.06
X-21.92 Y38.91 Z-4.157 I0.08 J0.06
X-22.08 Y38.79 Z-4.168 I-0.08 J-0.06
X-21.92 Y38.91 Z-4.179 I0.08 J0.06
X-22.08 Y38.79 Z-4.19 I-0.08 J-0.06
X-21.92 Y38.91 Z-4.201 I0.08 J0.06
X-22.08 Y38.79 Z-4.212 I-0.08 J-0.06
X-21.92 Y38.91 Z-4.222 I0.08 J0.06
X-22.08 Y38.79 Z-4.233 I-0.08 J-0.06
X-21.92 Y38.91 Z-4.244 I0.08 J0.06
X-22.08 Y38.79 Z-4.255 I-0.08 J-0.06
X-21.92 Y38.91 Z-4.266 I0.08 J0.06
X-22.08 Y38.79 Z-4.277 I-0.08 J-0.06
X-21.92 Y38.91 Z-4.288 I0.08 J0.06
X-22.08 Y38.79 Z-4.299 I-0.08 J-0.06
X-21.92 Y38.91 Z-4.31 I0.08 J0.06
X-22.08 Y38.79 Z-4.321 I-0.08 J-0.06
X-21.92 Y38.91 Z-4.332 I0.08 J0.06
X-22.08 Y38.79 Z-4.343 I-0.08 J-0.06
X-21.92 Y38.91 Z-4.354 I0.08 J0.06
X-22.08 Y38.79 Z-4.365 I-0.08 J-0.06
X-21.92 Y38.91 Z-4.376 I0.08 J0.06
X-22.08 Y38.79 Z-4.387 I-0.08 J-0.06
X-21.92 Y38.91 Z-4.398 I0.08 J0.06
X-22.08 Y38.79 Z-4.409 I-0.08 J-0.06
X-21.92 Y38.91 Z-4.42 I0.08 J0.06
X-22.08 Y38.79 Z-4.431 I-0.08 J-0.06
X-21.92 Y38.91 Z-4.442 I0.08 J0.06
X-22.08 Y38.79 Z-4.453 I-0.08 J-0.06
X-21.92 Y38.91 Z-4.464 I0.08 J0.06
X-22.08 Y38.79 Z-4.475 I-0.08 J-0.06
X-21.92 Y38.91 Z-4.486 I0.08 J0.06
X-22.08 Y38.79 Z-4.497 I-0.08 J-0.06
X-22 Y38.75 Z-4.5 I0.08 J0.06
Y38.95 I0 J0.1
Y38.75 I0 J-0.1
G0 Z5
X-36.688 Y30.454
Z2
G1 Z0.1 F100
G3 X-36.497 Y30.396 Z0.089 I0.096 J-0.029 F1000
X-36.688 Y30.454 Z0.078 I-0.096 J0.029
X-36.497 Y30.396 Z0.067 I0.096 J-0.029
X-36.688 Y30.454 Z0.056 I-0.096 J0.029
X-36.497 Y30.396 Z0.045 I0.096 J-0.029
X-36.688 Y30.454 Z0.034 I-0.096 J0.029
X-36.497 Y30.396 Z0.023 I0.096 J-0.029
X-36.688 Y30.454 Z0.012 I-0.096 J0.029
X-36.497 Y30.396 Z0.001 I0.096 J-0.029
X-36.688 Y30.454 Z-0.01 I-0.096 J0.029
X-36.497 Y30.396 Z-0.021 I0.096 J-0.029
X-36.688 Y30.454 Z-0.032 I-0.096 J0.029
X-36.497 Y30.396 Z-0.043 I0.096 J-0.029
X-36.688 Y30.454 Z-0.054 I-0.096 J0.029
X-36.497 Y30.396 Z-0.065 I0.096 J-0.029
X-36.688 Y30.454 Z-0.076 I-0.096 J0.029
X-36.497 Y30.396 Z-0.087 I0.096 J-0.029
X-36.688 Y30.454 Z-0.097 I-0.096 J0.029
X-36.497 Y30.396 Z-0.108 I0.096 J-0.029
X-36.688 Y30.454 Z-0.119 I-0.096 J0.029
X-36.497 Y30.396 Z-0.13 I0.096 J-0.029
X-36.688 Y30.454 Z-0.141 I-0.096 J0.029
X-36.497 Y30.396 Z-0.152 I0.096 J-0.029
X-36.688 Y30.454 Z-0.163 I-0.096 J0.029
X-36.497 Y30.396 Z-0.174 I0.096 J-0.029
X-36.688 Y30.454 Z-0.185 I-0.096 J0.029
X-36.497 Y30.396 Z-0.196 I0.096 J-0.029
X-36.688 Y30.454 Z-0.207 I-0.096 J0.029
X-36.497 Y30.396 Z-0.218 I0.096 J-0.029
X-36.688 Y30.454 Z-0.229 I-0.096 J0.029
X-36.497 Y30.396 Z-0.24 I0.096 J-0.029
X-36.688 Y30.454 Z-0.251 I-0.096 J0.029
X-36.497 Y30.396 Z-0.262 I0.096 J-0.029
X-36.688 Y30.454 Z-0.273 I-0.096 J0.029
X-36.497 Y30.396 Z-0.284 I0.096 J-0.029
X-36.688 Y30.454 Z-0.295 I-0.096 J0.029
X-36.497 Y30.396 Z-0.306 I0.096 J-0.029
X-36.688 Y30.454 Z-0.317 I-0.096 J0.029
X-36.497 Y30.396 Z-0.328 I0.096 J-0.029
X-36.688 Y30.454 Z-0.339 I-0.096 J0.029
X-36.497 Y30.396 Z-0.35 I0.096 J-0.029
X-36.688 Y30.454 Z-0.361 I-0.096 J0.029
X-36.497 Y30.396 Z-0.372 I0.096 J-0.029
X-36.688 Y30.454 Z-0.383 I-0.096 J0.029
X-36.497 Y30.396 Z-0.394 I0.096 J-0.029
X-36.688 Y30.454 Z-0.405 I-0.096 J0.029
X-36.497 Y30.396 Z-0.416 I0.096 J-0.029
X-36.688 Y30.454 Z-0.427 I-0.096 J0.029
X-36.497 Y30.396 Z-0.438 I0.096 J-0.029
X-36.688 Y30.454 Z-0.449 I-0.096 J0.029
X-36.497 Y30.396 Z-0.46 I0.096 J-0.029
X-36.688 Y30.454 Z-0.47 I-0.096 J0.029
X-36.497 Y30.396 Z-0.481 I0.096 J-0.029
X-36.688 Y30.454 Z-0.492 I-0.096 J0.029
X-36.497 Y30.396 Z-0.503 I0.096 J-0.029
X-36.688 Y30.454 Z-0.514 I-0.096 J0.029
X-36.497 Y30.396 Z-0.525 I0.096 J-0.029
X-36.688 Y30.454 Z-0.536 I-0.096 J0.029
X-36.497 Y30.396 Z-0.547 I0.096 J-0.029
X-36.688 Y30.454 Z-0.558 I-0.096 J0.029
X-36.497 Y30.396 Z-0.569 I0.096 J-0.029
X-36.688 Y30.454 Z-0.58 I-0.096 J0.029
X-36.497 Y30.396 Z-0.591 I0.096 J-0.029
X-36.688 Y30.454 Z-0.602 I-0.096 J0.029
X-36.497 Y30.396 Z-0.613 I0.096 J-0.029
X-36.688 Y30.454 Z-0.624 I-0.096 J0.029
X-36.497 Y30.396 Z-0.635 I0.096 J-0.029
X-36.688 Y30.454 Z-0.646 I-0.096 J0.029
X-36.497 Y30.396 Z-0.657 I0.096 J-0.029
X-36.688 Y30.454 Z-0.668 I-0.096 J0.029
X-36.497 Y30.396 Z-0.679 I0.096 J-0.029
X-36.688 Y30.454 Z-0.69 I-0.096 J0.029
X-36.497 Y30.396 Z-0.701 I0.096 J-0.029
X-36.688 Y30.454 Z-0.712 I-0.096 J0.029
X-36.497 Y30.396 Z-0.723 I0.096 J-0.029
X-36.688 Y30.454 Z-0.734 I-0.096 J0.029
X-36.497 Y30.396 Z-0.745 I0.096 J-0.029
X-36.688 Y30.454 Z-0.756 I-0.096 J0.029
X-36.497 Y30.396 Z-0.767 I0.096 J-0.029
X-36.688 Y30.454 Z-0.778 I-0.096 J0.029
X-36.497 Y30.396 Z-0.789 I0.096 J-0.029
X-36.688 Y30.454 Z-0.8 I-0.096 J0.029
X-36.497 Y30.396 Z-0.811 I0.096 J-0.029
X-36.688 Y30.454 Z-0.822 I-0.096 J0.029
X-36.497 Y30.396 Z-0.833 I0.096 J-0.029
X-36.688 Y30.454 Z-0.843 I-0.096 J0.029
X-36.497 Y30.396 Z-0.854 I0.096 J-0.029
X-36.688 Y30.454 Z-0.865 I-0.096 J0.029
X-36.497 Y30.396 Z-0.876 I0.096 J-0.029
X-36.688 Y30.454 Z-0.887 I-0.096 J0.029
X-36.497 Y30.396 Z-0.898 I0.096 J-0.029
X-36.688 Y30.454 Z-0.909 I-0.096 J0.029
X-36.497 Y30.396 Z-0.92 I0.096 J-0.029
X-36.688 Y30.454 Z-0.931 I-0.096 J0.029
X-36.497 Y30.396 Z-0.942 I0.096 J-0.029
X-36.688 Y30.454 Z-0.953 I-0.096 J0.029
X-36.497 Y30.396 Z-0.964 I0.096 J-0.029
X-36.688 Y30.454 Z-0.975 I-0.096 J0.029
X-36.497 Y30.396 Z-0.986 I0.096 J-0.029
X-36.688 Y30.454 Z-0.997 I-0.096 J0.029
X-36.497 Y30.396 Z-1.008 I0.096 J-0.029
X-36.688 Y30.454 Z-1.019 I-0.096 J0.029
X-36.497 Y30.396 Z-1.03 I0.096 J-0.029
X-36.688 Y30.454 Z-1.041 I-0.096 J0.029
X-36.497 Y30.396 Z-1.052 I0.096 J-0.029
X-36.688 Y30.454 Z-1.063 I-0.096 J0.029
X-36.497 Y30.396 Z-1.074 I0.096 J-0.029
X-36.688 Y30.454 Z-1.085 I-0.096 J0.029
X-36.497 Y30.396 Z-1.096 I0.096 J-0.029
X-36.688 Y30.454 Z-1.107 I-0.096 J0.029
X-36.497 Y30.396 Z-1.118 I0.096 J-0.029
X-36.688 Y30.454 Z-1.129 I-0.096 J0.029
X-36.497 Y30.396 Z-1.14 I0.096 J-0.029
X-36.688 Y30.454 Z-1.151 I-0.096 J0.029
X-36.497 Y30.396 Z-1.162 I0.096 J-0.029
X-36.688 Y30.454 Z-1.173 I-0.096 J0.029
X-36.497 Y30.396 Z-1.184 I0.096 J-0.029
X-36.688 Y30.454 Z-1.195 I-0.096 J0.029
X-36.497 Y30.396 Z-1.206 I0.096 J-0.029
X-36.688 Y30.454 Z-1.216 I-0.096 J0.029
X-36.497 Y30.396 Z-1.227 I0.096 J-0.029
X-36.688 Y30.454 Z-1.238 I-0.096 J0.029
X-36.497 Y30.396 Z-1.249 I0.096 J-0.029
X-36.688 Y30.454 Z-1.26 I-0.096 J0.029
X-36.497 Y30.396 Z-1.271 I0.096 J-0.029
X-36.688 Y30.454 Z-1.282 I-0.096 J0.029
X-36.497 Y30.396 Z-1.293 I0.096 J-0.029
X-36.688 Y30.454 Z-1.304 I-0.096 J0.029
X-36.497 Y30.396 Z-1.315 I0.096 J-0.029
X-36.688 Y30.454 Z-1.326 I-0.096 J0.029
X-36.497 Y30.396 Z-1.337 I0.096 J-0.029
X-36.688 Y30.454 Z-1.348 I-0.096 J0.029
X-36.497 Y30.396 Z-1.359 I0.096 J-0.029
X-36.688 Y30.454 Z-1.37 I-0.096 J0.029
X-36.497 Y30.396 Z-1.381 I0.096 J-0.029
X-36.688 Y30.454 Z-1.392 I-0.096 J0.029
X-36.497 Y30.396 Z-1.403 I0.096 J-0.029
X-36.688 Y30.454 Z-1.414 I-0.096 J0.029
X-36.497 Y30.396 Z-1.425 I0.096 J-0.029
X-36.688 Y30.454 Z-1.436 I-0.096 J0.029
X-36.497 Y30.396 Z-1.447 I0.096 J-0.029
X-36.688 Y30.454 Z-1.458 I-0.096 J0.029
X-36.497 Y30.396 Z-1.469 I0.096 J-0.029
X-36.688 Y30.454 Z-1.48 I-0.096 J0.029
X-36.497 Y30.396 Z-1.491 I0.096 J-0.029
X-36.688 Y30.454 Z-1.502 I-0.096 J0.029
X-36.497 Y30.396 Z-1.513 I0.096 J-0.029
X-36.688 Y30.454 Z-1.524 I-0.096 J0.029
X-36.497 Y30.396 Z-1.535 I0.096 J-0.029
X-36.688 Y30.454 Z-1.546 I-0.096 J0.029
X-36.497 Y30.396 Z-1.557 I0.096 J-0.029
X-36.688 Y30.454 Z-1.568 I-0.096 J0.029
X-36.497 Y30.396 Z-1.579 I0.096 J-0.029
X-36.688 Y30.454 Z-1.589 I-0.096 J0.029
X-36.497 Y30.396 Z-1.6 I0.096 J-0.029
X-36.688 Y30.454 Z-1.611 I-0.096 J0.029
X-36.497 Y30.396 Z-1.622 I0.096 J-0.029
X-36.688 Y30.454 Z-1.633 I-0.096 J0.029
X-36.497 Y30.396 Z-1.644 I0.096 J-0.029
X-36.688 Y30.454 Z-1.655 I-0.096 J0.029
X-36.497 Y30.396 Z-1.666 I0.096 J-0.029
X-36.688 Y30.454 Z-1.677 I-0.096 J0.029
X-36.497 Y30.396 Z-1.688 I0.096 J-0.029
X-36.688 Y30.454 Z-1.699 I-0.096 J0.029
X-36.497 Y30.396 Z-1.71 I0.096 J-0.029
X-36.688 Y30.454 Z-1.721 I-0.096 J0.029
X-36.497 Y30.396 Z-1.732 I0.096 J-0.029
X-36.688 Y30.454 Z-1.743 I-0.096 J0.029
X-36.497 Y30.396 Z-1.754 I0.096 J-0.029
X-36.688 Y30.454 Z-1.765 I-0.096 J0.029
X-36.497 Y30.396 Z-1.776 I0.096 J-0.029
X-36.688 Y30.454 Z-1.787 I-0.096 J0.029
X-36.497 Y30.396 Z-1.798 I0.096 J-0.029
X-36.688 Y30.454 Z-1.809 I-0.096 J0.029
X-36.497 Y30.396 Z-1.82 I0.096 J-0.029
X-36.688 Y30.454 Z-1.831 I-0.096 J0.029
X-36.497 Y30.396 Z-1.842 I0.096 J-0.029
X-36.688 Y30.454 Z-1.853 I-0.096 J0.029
X-36.497 Y30.396 Z-1.864 I0.096 J-0.029
X-36.688 Y30.454 Z-1.875 I-0.096 J0.029
X-36.497 Y30.396 Z-1.886 I0.096 J-0.029
X-36.688 Y30.454 Z-1.897 I-0.096 J0.029
X-36.497 Y30.396 Z-1.908 I0.096 J-0.029
X-36.688 Y30.454 Z-1.919 I-0.096 J0.029
X-36.497 Y30.396 Z-1.93 I0.096 J-0.029
X-36.688 Y30.454 Z-1.941 I-0.096 J0.029
X-36.497 Y30.396 Z-1.952 I0.096 J-0.029
X-36.688 Y30.454 Z-1.962 I-0.096 J0.029
X-36.497 Y30.396 Z-1.973 I0.096 J-0.029
X-36.688 Y30.454 Z-1.984 I-0.096 J0.029
X-36.497 Y30.396 Z-1.995 I0.096 J-0.029
X-36.688 Y30.454 Z-2.006 I-0.096 J0.029
X-36.497 Y30.396 Z-2.017 I0.096 J-0.029
X-36.688 Y30.454 Z-2.028 I-0.096 J0.029
X-36.497 Y30.396 Z-2.039 I0.096 J-0.029
X-36.688 Y30.454 Z-2.05 I-0.096 J0.029
X-36.497 Y30.396 Z-2.061 I0.096 J-0.029
X-36.688 Y30.454 Z-2.072 I-0.096 J0.029
X-36.497 Y30.396 Z-2.083 I0.096 J-0.029
X-36.688 Y30.454 Z-2.094 I-0.096 J0.029
X-36.497 Y30.396 Z-2.105 I0.096 J-0.029
X-36.688 Y30.454 Z-2.116 I-0.096 J0.029
X-36.497 Y30.396 Z-2.127 I0.096 J-0.029
X-36.688 Y30.454 Z-2.138 I-0.096 J0.029
X-36.497 Y30.396 Z-2.149 I0.096 J-0.029
X-36.688 Y30.454 Z-2.16 I-0.096 J0.029
X-36.497 Y30.396 Z-2.171 I0.096 J-0.029
X-36.688 Y30.454 Z-2.182 I-0.096 J0.029
X-36.497 Y30.396 Z-2.193 I0.096 J-0.029
X-36.688 Y30.454 Z-2.204 I-0.096 J0.029
X-36.497 Y30.396 Z-2.215 I0.096 J-0.029
X-36.688 Y30.454 Z-2.226 I-0.096 J0.029
X-36.497 Y30.396 Z-2.237 I0.096 J-0.029
X-36.688 Y30.454 Z-2.248 I-0.096 J0.029
X-36.497 Y30.396 Z-2.259 I0.096 J-0.029
X-36.688 Y30.454 Z-2.27 I-0.096 J0.029
X-36.497 Y30.396 Z-2.281 I0.096 J-0.029
X-36.688 Y30.454 Z-2.292 I-0.096 J0.029
X-36.497 Y30.396 Z-2.303 I0.096 J-0.029
X-36.688 Y30.454 Z-2.314 I-0.096 J0.029
X-36.497 Y30.396 Z-2.325 I0.096 J-0.029
X-36.688 Y30.454 Z-2.335 I-0.096 J0.029
X-36.497 Y30.396 Z-2.346 I0.096 J-0.029
X-36.688 Y30.454 Z-2.357 I-0.096 J0.029
X-36.497 Y30.396 Z-2.368 I0.096 J-0.029
X-36.688 Y30.454 Z-2.379 I-0.096 J0.029
X-36.497 Y30.396 Z-2.39 I0.096 J-0.029
X-36.688 Y30.454 Z-2.401 I-0.096 J0.029
X-36.497 Y30.396 Z-2.412 I0.096 J-0.029
X-36.688 Y30.454 Z-2.423 I-0.096 J0.029
X-36.497 Y30.396 Z-2.434 I0.096 J-0.029
X-36.688 Y30.454 Z-2.445 I-0.096 J0.029
X-36.497 Y30.396 Z-2.456 I0.096 J-0.029
X-36.688 Y30.454 Z-2.467 I-0.096 J0.029
X-36.497 Y30.396 Z-2.478 I0.096 J-0.029
X-36.688 Y30.454 Z-2.489 I-0.096 J0.029
X-36.497 Y30.396 Z-2.5 I0.096 J-0.029
X-36.688 Y30.454 Z-2.511 I-0.096 J0.029
X-36.497 Y30.396 Z-2.522 I0.096 J-0.029
X-36.688 Y30.454 Z-2.533 I-0.096 J0.029
X-36.497 Y30.396 Z-2.544 I0.096 J-0.029
X-36.688 Y30.454 Z-2.555 I-0.096 J0.029
X-36.497 Y30.396 Z-2.566 I0.096 J-0.029
X-36.688 Y30.454 Z-2.577 I-0.096 J0.029
X-36.497 Y30.396 Z-2.588 I0.096 J-0.029
X-36.688 Y30.454 Z-2.599 I-0.096 J0.029
X-36.497 Y30.396 Z-2.61 I0.096 J-0.029
X-36.688 Y30.454 Z-2.621 I-0.096 J0.029
X-36.497 Y30.396 Z-2.632 I0.096 J-0.029
X-36.688 Y30.454 Z-2.643 I-0.096 J0.029
X-36.497 Y30.396 Z-2.654 I0.096 J-0.029
X-36.688 Y30.454 Z-2.665 I-0.096 J0.029
X-36.497 Y30.396 Z-2.676 I0.096 J-0.029
X-36.688 Y30.454 Z-2.687 I-0.096 J0.029
X-36.497 Y30.396 Z-2.698 I0.096 J-0.029
X-36.688 Y30.454 Z-2.708 I-0.096 J0.029
X-36.497 Y30.396 Z-2.719 I0.096 J-0.029
X-36.688 Y30.454 Z-2.73 I-0.096 J0.029
X-36.497 Y30.396 Z-2.741 I0.096 J-0.029
X-36.688 Y30.454 Z-2.752 I-0.096 J0.029
X-36.497 Y30.396 Z-2.763 I0.096 J-0.029
X-36.688 Y30.454 Z-2.774 I-0.096 J0.029
X-36.497 Y30.396 Z-2.785 I0.096 J-0.029
X-36.688 Y30.454 Z-2.796 I-0.096 J0.029
X-36.497 Y30.396 Z-2.807 I0.096 J-0.029
X-36.688 Y30.454 Z-2.818 I-0.096 J0.029
X-36.497 Y30.396 Z-2.829 I0.096 J-0.029
X-36.688 Y30.454 Z-2.84 I-0.096 J0.029
X-36.497 Y30.396 Z-2.851 I0.096 J-0.029
X-36.688 Y30.454 Z-2.862 I-0.096 J0.029
X-36.497 Y30.396 Z-2.873 I0.096 J-0.029
X-36.688 Y30.454 Z-2.884 I-0.096 J0.029
X-36.497 Y30.396 Z-2.895 I0.096 J-0.029
X-36.688 Y30.454 Z-2.906 I-0.096 J0.029
X-36.497 Y30.396 Z-2.917 I0.096 J-0.029
X-36.688 Y30.454 Z-2.928 I-0.096 J0.029
X-36.497 Y30.396 Z-2.939 I0.096 J-0.029
X-36.688 Y30.454 Z-2.95 I-0.096 J0.029
X-36.497 Y30.396 Z-2.961 I0.096 J-0.029
X-36.688 Y30.454 Z-2.972 I-0.096 J0.029
X-36.497 Y30.396 Z-2.983 I0.096 J-0.029
X-36.688 Y30.454 Z-2.994 I-0.096 J0.029
X-36.497 Y30.396 Z-3.005 I0.096 J-0.029
X-36.688 Y30.454 Z-3.016 I-0.096 J0.029
X-36.497 Y30.396 Z-3.027 I0.096 J-0.029
X-36.688 Y30.454 Z-3.038 I-0.096 J0.029
X-36.497 Y30.396 Z-3.049 I0.096 J-0.029
X-36.688 Y30.454 Z-3.06 I-0.096 J0.029
X-36.497 Y30.396 Z-3.071 I0.096 J-0.029
X-36.688 Y30.454 Z-3.081 I-0.096 J0.029
X-36.497 Y30.396 Z-3.092 I0.096 J-0.029
X-36.688 Y30.454 Z-3.103 I-0.096 J0.029
X-36.497 Y30.396 Z-3.114 I0.096 J-0.029
X-36.688 Y30.454 Z-3.125 I-0.096 J0.029
X-36.497 Y30.396 Z-3.136 I0.096 J-0.029
X-36.688 Y30.454 Z-3.147 I-0.096 J0.029
X-36.497 Y30.396 Z-3.158 I0.096 J-0.029
X-36.688 Y30.454 Z-3.169 I-0.096 J0.029
X-36.497 Y30.396 Z-3.18 I0.096 J-0.029
X-36.688 Y30.454 Z-3.191 I-0.096 J0.029
X-36.497 Y30.396 Z-3.202 I0.096 J-0.029
X-36.688 Y30.454 Z-3.213 I-0.096 J0.029
X-36.497 Y30.396 Z-3.224 I0.096 J-0.029
X-36.688 Y30.454 Z-3.235 I-0.096 J0.029
X-36.497 Y30.396 Z-3.246 I0.096 J-0.029
X-36.688 Y30.454 Z-3.257 I-0.096 J0.029
X-36.497 Y30.396 Z-3.268 I0.096 J-0.029
X-36.688 Y30.454 Z-3.279 I-0.096 J0.029
X-36.497 Y30.396 Z-3.29 I0.096 J-0.029
X-36.688 Y30.454 Z-3.301 I-0.096 J0.029
X-36.497 Y30.396 Z-3.312 I0.096 J-0.029
X-36.688 Y30.454 Z-3.323 I-0.096 J0.029
X-36.497 Y30.396 Z-3.334 I0.096 J-0.029
X-36.688 Y30.454 Z-3.345 I-0.096 J0.029
X-36.497 Y30.396 Z-3.356 I0.096 J-0.029
X-36.688 Y30.454 Z-3.367 I-0.096 J0.029
X-36.497 Y30.396 Z-3.378 I0.096 J-0.029
X-36.688 Y30.454 Z-3.389 I-0.096 J0.029
X-36.497 Y30.396 Z-3.4 I0.096 J-0.029
X-36.688 Y30.454 Z-3.411 I-0.096 J0.029
X-36.497 Y30.396 Z-3.422 I0.096 J-0.029
X-36.688 Y30.454 Z-3.433 I-0.096 J0.029
X-36.497 Y30.396 Z-3.444 I0.096 J-0.029
X-36.688 Y30.454 Z-3.455 I-0.096 J0.029
X-36.497 Y30.396 Z-3.465 I0.096 J-0.029
X-36.688 Y30.454 Z-3.476 I-0.096 J0.029
X-36.497 Y30.396 Z-3.487 I0.096 J-0.029
X-36.688 Y30.454 Z-3.498 I-0.096 J0.029
X-36.497 Y30.396 Z-3.509 I0.096 J-0.029
X-36.688 Y30.454 Z-3.52 I-0.096 J0.029
X-36.497 Y30.396 Z-3.531 I0.096 J-0.029
X-36.688 Y30.454 Z-3.542 I-0.096 J0.029
X-36.497 Y30.396 Z-3.553 I0.096 J-0.029
X-36.688 Y30.454 Z-3.564 I-0.096 J0.029
X-36.497 Y30.396 Z-3.575 I0.096 J-0.029
X-36.688 Y30.454 Z-3.586 I-0.096 J0.029
X-36.497 Y30.396 Z-3.597 I0.096 J-0.029
X-36.688 Y30.454 Z-3.608 I-0.096 J0.029
X-36.497 Y30.396 Z-3.619 I0.096 J-0.029
X-36.688 Y30.454 Z-3.63 I-0.096 J0.029
X-36.497 Y30.396 Z-3.641 I0.096 J-0.029
X-36.688 Y30.454 Z-3.652 I-0.096 J0.029
X-36.497 Y30.396 Z-3.663 I0.096 J-0.029
X-36.688 Y30.454 Z-3.674 I-0.096 J0.029
X-36.497 Y30.396 Z-3.685 I0.096 J-0.029
X-36.688 Y30.454 Z-3.696 I-0.096 J0.029
X-36.497 Y30.396 Z-3.707 I0.096 J-0.029
X-36.688 Y30.454 Z-3.718 I-0.096 J0.029
X-36.497 Y30.396 Z-3.729 I0.096 J-0.029
X-36.688 Y30.454 Z-3.74 I-0.096 J0.029
X-36.497 Y30.396 Z-3.751 I0.096 J-0.029
X-36.688 Y30.454 Z-3.762 I-0.096 J0.029
X-36.497 Y30.396 Z-3.773 I0.096 J-0.029
X-36.688 Y30.454 Z-3.784 I-0.096 J0.029
X-36.497 Y30.396 Z-3.795 I0.096 J-0.029
X-36.688 Y30.454 Z-3.806 I-0.096 J0.029
X-36.497 Y30.396 Z-3.817 I0.096 J-0.029
X-36.688 Y30.454 Z-3.828 I-0.096 J0.029
X-36.497 Y30.396 Z-3.838 I0.096 J-0.029
X-36.688 Y30.454 Z-3.849 I-0.096 J0.029
X-36.497 Y30.396 Z-3.86 I0.096 J-0.029
X-36.688 Y30.454 Z-3.871 I-0.096 J0.029
X-36.497 Y30.396 Z-3.882 I0.096 J-0.029
X-36.688 Y30.454 Z-3.893 I-0.096 J0.029
X-36.497 Y30.396 Z-3.904 I0.096 J-0.029
X-36.688 Y30.454 Z-3.915 I-0.096 J0.029
X-36.497 Y30.396 Z-3.926 I0.096 J-0.029
X-36.688 Y30.454 Z-3.937 I-0.096 J0.029
X-36.497 Y30.396 Z-3.948 I0.096 J-0.029
X-36.688 Y30.454 Z-3.959 I-0.096 J0.029
X-36.497 Y30.396 Z-3.97 I0.096 J-0.029
X-36.688 Y30.454 Z-3.981 I-0.096 J0.029
X-36.497 Y30.396 Z-3.992 I0.096 J-0.029
X-36.688 Y30.454 Z-4.003 I-0.096 J0.029
X-36.497 Y30.396 Z-4.014 I0.096 J-0.029
X-36.688 Y30.454 Z-4.025 I-0.096 J0.029
X-36.497 Y30.396 Z-4.036 I0.096 J-0.029
X-36.688 Y30.454 Z-4.047 I-0.096 J0.029
X-36.497 Y30.396 Z-4.058 I0.096 J-0.029
X-36.688 Y30.454 Z-4.069 I-0.096 J0.029
X-36.497 Y30.396 Z-4.08 I0.096 J-0.029
X-36.688 Y30.454 Z-4.091 I-0.096 J0.029
X-36.497 Y30.396 Z-4.102 I0.096 J-0.029
X-36.688 Y30.454 Z-4.113 I-0.096 J0.029
X-36.497 Y30.396 Z-4.124 I0.096 J-0.029
X-36.688 Y30.454 Z-4.135 I-0.096 J0.029
X-36.497 Y30.396 Z-4.146 I0.096 J-0.029
X-36.688 Y30.454 Z-4.157 I-0.096 J0.029
X-36.497 Y30.396 Z-4.168 I0.096 J-0.029
X-36.688 Y30.454 Z-4.179 I-0.096 J0.029
X-36.497 Y30.396 Z-4.19 I0.096 J-0.029
X-36.688 Y30.454 Z-4.201 I-0.096 J0.029
X-36.497 Y30.396 Z-4.211 I0.096 J-0.029
X-36.688 Y30.454 Z-4.222 I-0.096 J0.029
X-36.497 Y30.396 Z-4.233 I0.096 J-0.029
X-36.688 Y30.454 Z-4.244 I-0.096 J0.029
X-36.497 Y30.396 Z-4.255 I0.096 J-0.029
X-36.688 Y30.454 Z-4.266 I-0.096 J0.029
X-36.497 Y30.396 Z-4.277 I0.096 J-0.029
X-36.688 Y30.454 Z-4.288 I-0.096 J0.029
X-36.497 Y30.396 Z-4.299 I0.096 J-0.029
X-36.688 Y30.454 Z-4.31 I-0.096 J0.029
X-36.497 Y30.396 Z-4.321 I0.096 J-0.029
X-36.688 Y30.454 Z-4.332 I-0.096 J0.029
X-36.497 Y30.396 Z-4.343 I0.096 J-0.029
X-36.688 Y30.454 Z-4.354 I-0.096 J0.029
X-36.497 Y30.396 Z-4.365 I0.096 J-0.029
X-36.688 Y30.454 Z-4.376 I-0.096 J0.029
X-36.497 Y30.396 Z-4.387 I0.096 J-0.029
X-36.688 Y30.454 Z-4.398 I-0.096 J0.029
X-36.497 Y30.396 Z-4.409 I0.096 J-0.029
X-36.688 Y30.454 Z-4.42 I-0.096 J0.029
X-36.497 Y30.396 Z-4.431 I0.096 J-0.029
X-36.688 Y30.454 Z-4.442 I-0.096 J0.029
X-36.497 Y30.396 Z-4.453 I0.096 J-0.029
X-36.688 Y30.454 Z-4.464 I-0.096 J0.029
X-36.497 Y30.396 Z-4.475 I0.096 J-0.029
X-36.688 Y30.454 Z-4.486 I-0.096 J0.029
X-36.497 Y30.396 Z-4.497 I0.096 J-0.029
X-36.513 Y30.485 Z-4.5 I-0.096 J0.029
X-36.672 Y30.365 I-0.08 J-0.06
X-36.513 Y30.485 I0.08 J0.06
G0 Z15

M9
M30
