(WHEEL)
(T11  D=2 CR=0 - ZMIN=-4.5 - FLAT END MILL)
G90 G94 G91.1 G40 G49 G17
G21

(2MM FLAT HOLES)
M5
M9
T11
(DIAMOND OR SPIRAL)
S20000 M3
G54
M8
G0 X-36.483 Y30.252
G43 Z15 H1
Z2
G1 Z0.1 F100
G3 X-36.442 Y30.448 Z0.073 I0.021 J0.098 F1000
X-36.483 Y30.252 Z0.045 I-0.021 J-0.098
X-36.442 Y30.448 Z0.018 I0.021 J0.098
X-36.483 Y30.252 Z-0.01 I-0.021 J-0.098
X-36.442 Y30.448 Z-0.037 I0.021 J0.098
X-36.483 Y30.252 Z-0.065 I-0.021 J-0.098
X-36.442 Y30.448 Z-0.092 I0.021 J0.098
X-36.483 Y30.252 Z-0.12 I-0.021 J-0.098
X-36.442 Y30.448 Z-0.147 I0.021 J0.098
X-36.483 Y30.252 Z-0.175 I-0.021 J-0.098
X-36.442 Y30.448 Z-0.202 I0.021 J0.098
X-36.483 Y30.252 Z-0.23 I-0.021 J-0.098
X-36.442 Y30.448 Z-0.257 I0.021 J0.098
X-36.483 Y30.252 Z-0.285 I-0.021 J-0.098
X-36.442 Y30.448 Z-0.312 I0.021 J0.098
X-36.483 Y30.252 Z-0.34 I-0.021 J-0.098
X-36.442 Y30.448 Z-0.367 I0.021 J0.098
X-36.483 Y30.252 Z-0.395 I-0.021 J-0.098
X-36.442 Y30.448 Z-0.422 I0.021 J0.098
X-36.483 Y30.252 Z-0.45 I-0.021 J-0.098
X-36.442 Y30.448 Z-0.477 I0.021 J0.098
X-36.483 Y30.252 Z-0.505 I-0.021 J-0.098
X-36.442 Y30.448 Z-0.532 I0.021 J0.098
X-36.483 Y30.252 Z-0.56 I-0.021 J-0.098
X-36.442 Y30.448 Z-0.587 I0.021 J0.098
X-36.483 Y30.252 Z-0.615 I-0.021 J-0.098
X-36.442 Y30.448 Z-0.642 I0.021 J0.098
X-36.483 Y30.252 Z-0.67 I-0.021 J-0.098
X-36.442 Y30.448 Z-0.697 I0.021 J0.098
X-36.483 Y30.252 Z-0.725 I-0.021 J-0.098
X-36.442 Y30.448 Z-0.752 I0.021 J0.098
X-36.483 Y30.252 Z-0.78 I-0.021 J-0.098
X-36.442 Y30.448 Z-0.807 I0.021 J0.098
X-36.483 Y30.252 Z-0.835 I-0.021 J-0.098
X-36.442 Y30.448 Z-0.862 I0.021 J0.098
X-36.483 Y30.252 Z-0.889 I-0.021 J-0.098
X-36.442 Y30.448 Z-0.917 I0.021 J0.098
X-36.483 Y30.252 Z-0.944 I-0.021 J-0.098
X-36.442 Y30.448 Z-0.972 I0.021 J0.098
X-36.483 Y30.252 Z-0.999 I-0.021 J-0.098
X-36.442 Y30.448 Z-1.027 I0.021 J0.098
X-36.483 Y30.252 Z-1.054 I-0.021 J-0.098
X-36.442 Y30.448 Z-1.082 I0.021 J0.098
X-36.483 Y30.252 Z-1.109 I-0.021 J-0.098
X-36.442 Y30.448 Z-1.137 I0.021 J0.098
X-36.483 Y30.252 Z-1.164 I-0.021 J-0.098
X-36.442 Y30.448 Z-1.192 I0.021 J0.098
X-36.483 Y30.252 Z-1.219 I-0.021 J-0.098
X-36.442 Y30.448 Z-1.247 I0.021 J0.098
X-36.483 Y30.252 Z-1.274 I-0.021 J-0.098
X-36.442 Y30.448 Z-1.302 I0.021 J0.098
X-36.483 Y30.252 Z-1.329 I-0.021 J-0.098
X-36.442 Y30.448 Z-1.357 I0.021 J0.098
X-36.483 Y30.252 Z-1.384 I-0.021 J-0.098
X-36.442 Y30.448 Z-1.412 I0.021 J0.098
X-36.483 Y30.252 Z-1.439 I-0.021 J-0.098
X-36.442 Y30.448 Z-1.467 I0.021 J0.098
X-36.483 Y30.252 Z-1.494 I-0.021 J-0.098
X-36.442 Y30.448 Z-1.522 I0.021 J0.098
X-36.483 Y30.252 Z-1.549 I-0.021 J-0.098
X-36.442 Y30.448 Z-1.577 I0.021 J0.098
X-36.483 Y30.252 Z-1.604 I-0.021 J-0.098
X-36.442 Y30.448 Z-1.632 I0.021 J0.098
X-36.483 Y30.252 Z-1.659 I-0.021 J-0.098
X-36.442 Y30.448 Z-1.687 I0.021 J0.098
X-36.483 Y30.252 Z-1.714 I-0.021 J-0.098
X-36.442 Y30.448 Z-1.742 I0.021 J0.098
X-36.483 Y30.252 Z-1.769 I-0.021 J-0.098
X-36.442 Y30.448 Z-1.796 I0.021 J0.098
X-36.483 Y30.252 Z-1.824 I-0.021 J-0.098
X-36.442 Y30.448 Z-1.851 I0.021 J0.098
X-36.483 Y30.252 Z-1.879 I-0.021 J-0.098
X-36.442 Y30.448 Z-1.906 I0.021 J0.098
X-36.483 Y30.252 Z-1.934 I-0.021 J-0.098
X-36.442 Y30.448 Z-1.961 I0.021 J0.098
X-36.483 Y30.252 Z-1.989 I-0.021 J-0.098
X-36.442 Y30.448 Z-2.016 I0.021 J0.098
X-36.483 Y30.252 Z-2.044 I-0.021 J-0.098
X-36.442 Y30.448 Z-2.071 I0.021 J0.098
X-36.483 Y30.252 Z-2.099 I-0.021 J-0.098
X-36.442 Y30.448 Z-2.126 I0.021 J0.098
X-36.483 Y30.252 Z-2.154 I-0.021 J-0.098
X-36.442 Y30.448 Z-2.181 I0.021 J0.098
X-36.483 Y30.252 Z-2.209 I-0.021 J-0.098
X-36.442 Y30.448 Z-2.236 I0.021 J0.098
X-36.483 Y30.252 Z-2.264 I-0.021 J-0.098
X-36.442 Y30.448 Z-2.291 I0.021 J0.098
X-36.483 Y30.252 Z-2.319 I-0.021 J-0.098
X-36.442 Y30.448 Z-2.346 I0.021 J0.098
X-36.483 Y30.252 Z-2.374 I-0.021 J-0.098
X-36.442 Y30.448 Z-2.401 I0.021 J0.098
X-36.483 Y30.252 Z-2.429 I-0.021 J-0.098
X-36.442 Y30.448 Z-2.456 I0.021 J0.098
X-36.483 Y30.252 Z-2.484 I-0.021 J-0.098
X-36.442 Y30.448 Z-2.511 I0.021 J0.098
X-36.483 Y30.252 Z-2.539 I-0.021 J-0.098
X-36.442 Y30.448 Z-2.566 I0.021 J0.098
X-36.483 Y30.252 Z-2.594 I-0.021 J-0.098
X-36.442 Y30.448 Z-2.621 I0.021 J0.098
X-36.483 Y30.252 Z-2.649 I-0.021 J-0.098
X-36.442 Y30.448 Z-2.676 I0.021 J0.098
X-36.483 Y30.252 Z-2.704 I-0.021 J-0.098
X-36.442 Y30.448 Z-2.731 I0.021 J0.098
X-36.483 Y30.252 Z-2.758 I-0.021 J-0.098
X-36.442 Y30.448 Z-2.786 I0.021 J0.098
X-36.483 Y30.252 Z-2.813 I-0.021 J-0.098
X-36.442 Y30.448 Z-2.841 I0.021 J0.098
X-36.483 Y30.252 Z-2.868 I-0.021 J-0.098
X-36.442 Y30.448 Z-2.896 I0.021 J0.098
X-36.483 Y30.252 Z-2.923 I-0.021 J-0.098
X-36.442 Y30.448 Z-2.951 I0.021 J0.098
X-36.483 Y30.252 Z-2.978 I-0.021 J-0.098
X-36.442 Y30.448 Z-3.006 I0.021 J0.098
X-36.483 Y30.252 Z-3.033 I-0.021 J-0.098
X-36.442 Y30.448 Z-3.061 I0.021 J0.098
X-36.483 Y30.252 Z-3.088 I-0.021 J-0.098
X-36.442 Y30.448 Z-3.116 I0.021 J0.098
X-36.483 Y30.252 Z-3.143 I-0.021 J-0.098
X-36.442 Y30.448 Z-3.171 I0.021 J0.098
X-36.483 Y30.252 Z-3.198 I-0.021 J-0.098
X-36.442 Y30.448 Z-3.226 I0.021 J0.098
X-36.483 Y30.252 Z-3.253 I-0.021 J-0.098
X-36.442 Y30.448 Z-3.281 I0.021 J0.098
X-36.483 Y30.252 Z-3.308 I-0.021 J-0.098
X-36.442 Y30.448 Z-3.336 I0.021 J0.098
X-36.483 Y30.252 Z-3.363 I-0.021 J-0.098
X-36.442 Y30.448 Z-3.391 I0.021 J0.098
X-36.483 Y30.252 Z-3.418 I-0.021 J-0.098
X-36.442 Y30.448 Z-3.446 I0.021 J0.098
X-36.483 Y30.252 Z-3.473 I-0.021 J-0.098
X-36.442 Y30.448 Z-3.501 I0.021 J0.098
X-36.483 Y30.252 Z-3.528 I-0.021 J-0.098
X-36.442 Y30.448 Z-3.556 I0.021 J0.098
X-36.483 Y30.252 Z-3.583 I-0.021 J-0.098
X-36.442 Y30.448 Z-3.611 I0.021 J0.098
X-36.483 Y30.252 Z-3.638 I-0.021 J-0.098
X-36.442 Y30.448 Z-3.665 I0.021 J0.098
X-36.483 Y30.252 Z-3.693 I-0.021 J-0.098
X-36.442 Y30.448 Z-3.72 I0.021 J0.098
X-36.483 Y30.252 Z-3.748 I-0.021 J-0.098
X-36.442 Y30.448 Z-3.775 I0.021 J0.098
X-36.483 Y30.252 Z-3.803 I-0.021 J-0.098
X-36.442 Y30.448 Z-3.83 I0.021 J0.098
X-36.483 Y30.252 Z-3.858 I-0.021 J-0.098
X-36.442 Y30.448 Z-3.885 I0.021 J0.098
X-36.483 Y30.252 Z-3.913 I-0.021 J-0.098
X-36.442 Y30.448 Z-3.94 I0.021 J0.098
X-36.483 Y30.252 Z-3.968 I-0.021 J-0.098
X-36.442 Y30.448 Z-3.995 I0.021 J0.098
X-36.483 Y30.252 Z-4.023 I-0.021 J-0.098
X-36.442 Y30.448 Z-4.05 I0.021 J0.098
X-36.483 Y30.252 Z-4.078 I-0.021 J-0.098
X-36.442 Y30.448 Z-4.105 I0.021 J0.098
X-36.483 Y30.252 Z-4.133 I-0.021 J-0.098
X-36.442 Y30.448 Z-4.16 I0.021 J0.098
X-36.483 Y30.252 Z-4.188 I-0.021 J-0.098
X-36.442 Y30.448 Z-4.215 I0.021 J0.098
X-36.483 Y30.252 Z-4.243 I-0.021 J-0.098
X-36.442 Y30.448 Z-4.27 I0.021 J0.098
X-36.483 Y30.252 Z-4.298 I-0.021 J-0.098
X-36.442 Y30.448 Z-4.325 I0.021 J0.098
X-36.483 Y30.252 Z-4.353 I-0.021 J-0.098
X-36.442 Y30.448 Z-4.38 I0.021 J0.098
X-36.483 Y30.252 Z-4.408 I-0.021 J-0.098
X-36.442 Y30.448 Z-4.435 I0.021 J0.098
X-36.483 Y30.252 Z-4.463 I-0.021 J-0.098
X-36.442 Y30.448 Z-4.49 I0.021 J0.098
X-36.543 Y30.41 Z-4.5 I-0.021 J-0.098
X-36.383 Y30.29 I0.08 J-0.06
X-36.543 Y30.41 I-0.08 J0.06
G0 Z5
X-21.909 Y38.742
Z2
G1 Z0.1 F100
G3 X-22.091 Y38.658 Z0.073 I-0.091 J-0.042 F1000
X-21.909 Y38.742 Z0.045 I0.091 J0.042
X-22.091 Y38.658 Z0.018 I-0.091 J-0.042
X-21.909 Y38.742 Z-0.01 I0.091 J0.042
X-22.091 Y38.658 Z-0.037 I-0.091 J-0.042
X-21.909 Y38.742 Z-0.065 I0.091 J0.042
X-22.091 Y38.658 Z-0.092 I-0.091 J-0.042
X-21.909 Y38.742 Z-0.12 I0.091 J0.042
X-22.091 Y38.658 Z-0.147 I-0.091 J-0.042
X-21.909 Y38.742 Z-0.175 I0.091 J0.042
X-22.091 Y38.658 Z-0.202 I-0.091 J-0.042
X-21.909 Y38.742 Z-0.23 I0.091 J0.042
X-22.091 Y38.658 Z-0.257 I-0.091 J-0.042
X-21.909 Y38.742 Z-0.285 I0.091 J0.042
X-22.091 Y38.658 Z-0.312 I-0.091 J-0.042
X-21.909 Y38.742 Z-0.34 I0.091 J0.042
X-22.091 Y38.658 Z-0.367 I-0.091 J-0.042
X-21.909 Y38.742 Z-0.395 I0.091 J0.042
X-22.091 Y38.658 Z-0.422 I-0.091 J-0.042
X-21.909 Y38.742 Z-0.45 I0.091 J0.042
X-22.091 Y38.658 Z-0.477 I-0.091 J-0.042
X-21.909 Y38.742 Z-0.505 I0.091 J0.042
X-22.091 Y38.658 Z-0.532 I-0.091 J-0.042
X-21.909 Y38.742 Z-0.56 I0.091 J0.042
X-22.091 Y38.658 Z-0.587 I-0.091 J-0.042
X-21.909 Y38.742 Z-0.615 I0.091 J0.042
X-22.091 Y38.658 Z-0.642 I-0.091 J-0.042
X-21.909 Y38.742 Z-0.67 I0.091 J0.042
X-22.091 Y38.658 Z-0.697 I-0.091 J-0.042
X-21.909 Y38.742 Z-0.725 I0.091 J0.042
X-22.091 Y38.658 Z-0.752 I-0.091 J-0.042
X-21.909 Y38.742 Z-0.78 I0.091 J0.042
X-22.091 Y38.658 Z-0.807 I-0.091 J-0.042
X-21.909 Y38.742 Z-0.835 I0.091 J0.042
X-22.091 Y38.658 Z-0.862 I-0.091 J-0.042
X-21.909 Y38.742 Z-0.889 I0.091 J0.042
X-22.091 Y38.658 Z-0.917 I-0.091 J-0.042
X-21.909 Y38.742 Z-0.944 I0.091 J0.042
X-22.091 Y38.658 Z-0.972 I-0.091 J-0.042
X-21.909 Y38.742 Z-0.999 I0.091 J0.042
X-22.091 Y38.658 Z-1.027 I-0.091 J-0.042
X-21.909 Y38.742 Z-1.054 I0.091 J0.042
X-22.091 Y38.658 Z-1.082 I-0.091 J-0.042
X-21.909 Y38.742 Z-1.109 I0.091 J0.042
X-22.091 Y38.658 Z-1.137 I-0.091 J-0.042
X-21.909 Y38.742 Z-1.164 I0.091 J0.042
X-22.091 Y38.658 Z-1.192 I-0.091 J-0.042
X-21.909 Y38.742 Z-1.219 I0.091 J0.042
X-22.091 Y38.658 Z-1.247 I-0.091 J-0.042
X-21.909 Y38.742 Z-1.274 I0.091 J0.042
X-22.091 Y38.658 Z-1.302 I-0.091 J-0.042
X-21.909 Y38.742 Z-1.329 I0.091 J0.042
X-22.091 Y38.658 Z-1.357 I-0.091 J-0.042
X-21.909 Y38.742 Z-1.384 I0.091 J0.042
X-22.091 Y38.658 Z-1.412 I-0.091 J-0.042
X-21.909 Y38.742 Z-1.439 I0.091 J0.042
X-22.091 Y38.658 Z-1.467 I-0.091 J-0.042
X-21.909 Y38.742 Z-1.494 I0.091 J0.042
X-22.091 Y38.658 Z-1.522 I-0.091 J-0.042
X-21.909 Y38.742 Z-1.549 I0.091 J0.042
X-22.091 Y38.658 Z-1.577 I-0.091 J-0.042
X-21.909 Y38.742 Z-1.604 I0.091 J0.042
X-22.091 Y38.658 Z-1.632 I-0.091 J-0.042
X-21.909 Y38.742 Z-1.659 I0.091 J0.042
X-22.091 Y38.658 Z-1.687 I-0.091 J-0.042
X-21.909 Y38.742 Z-1.714 I0.091 J0.042
X-22.091 Y38.658 Z-1.742 I-0.091 J-0.042
X-21.909 Y38.742 Z-1.769 I0.091 J0.042
X-22.091 Y38.658 Z-1.796 I-0.091 J-0.042
X-21.909 Y38.742 Z-1.824 I0.091 J0.042
X-22.091 Y38.658 Z-1.851 I-0.091 J-0.042
X-21.909 Y38.742 Z-1.879 I0.091 J0.042
X-22.091 Y38.658 Z-1.906 I-0.091 J-0.042
X-21.909 Y38.742 Z-1.934 I0.091 J0.042
X-22.091 Y38.658 Z-1.961 I-0.091 J-0.042
X-21.909 Y38.742 Z-1.989 I0.091 J0.042
X-22.091 Y38.658 Z-2.016 I-0.091 J-0.042
X-21.909 Y38.742 Z-2.044 I0.091 J0.042
X-22.091 Y38.658 Z-2.071 I-0.091 J-0.042
X-21.909 Y38.742 Z-2.099 I0.091 J0.042
X-22.091 Y38.658 Z-2.126 I-0.091 J-0.042
X-21.909 Y38.742 Z-2.154 I0.091 J0.042
X-22.091 Y38.658 Z-2.181 I-0.091 J-0.042
X-21.909 Y38.742 Z-2.209 I0.091 J0.042
X-22.091 Y38.658 Z-2.236 I-0.091 J-0.042
X-21.909 Y38.742 Z-2.264 I0.091 J0.042
X-22.091 Y38.658 Z-2.291 I-0.091 J-0.042
X-21.909 Y38.742 Z-2.319 I0.091 J0.042
X-22.091 Y38.658 Z-2.346 I-0.091 J-0.042
X-21.909 Y38.742 Z-2.374 I0.091 J0.042
X-22.091 Y38.658 Z-2.401 I-0.091 J-0.042
X-21.909 Y38.742 Z-2.429 I0.091 J0.042
X-22.091 Y38.658 Z-2.456 I-0.091 J-0.042
X-21.909 Y38.742 Z-2.484 I0.091 J0.042
X-22.091 Y38.658 Z-2.511 I-0.091 J-0.042
X-21.909 Y38.742 Z-2.539 I0.091 J0.042
X-22.091 Y38.658 Z-2.566 I-0.091 J-0.042
X-21.909 Y38.742 Z-2.594 I0.091 J0.042
X-22.091 Y38.658 Z-2.621 I-0.091 J-0.042
X-21.909 Y38.742 Z-2.649 I0.091 J0.042
X-22.091 Y38.658 Z-2.676 I-0.091 J-0.042
X-21.909 Y38.742 Z-2.704 I0.091 J0.042
X-22.091 Y38.658 Z-2.731 I-0.091 J-0.042
X-21.909 Y38.742 Z-2.758 I0.091 J0.042
X-22.091 Y38.658 Z-2.786 I-0.091 J-0.042
X-21.909 Y38.742 Z-2.813 I0.091 J0.042
X-22.091 Y38.658 Z-2.841 I-0.091 J-0.042
X-21.909 Y38.742 Z-2.868 I0.091 J0.042
X-22.091 Y38.658 Z-2.896 I-0.091 J-0.042
X-21.909 Y38.742 Z-2.923 I0.091 J0.042
X-22.091 Y38.658 Z-2.951 I-0.091 J-0.042
X-21.909 Y38.742 Z-2.978 I0.091 J0.042
X-22.091 Y38.658 Z-3.006 I-0.091 J-0.042
X-21.909 Y38.742 Z-3.033 I0.091 J0.042
X-22.091 Y38.658 Z-3.061 I-0.091 J-0.042
X-21.909 Y38.742 Z-3.088 I0.091 J0.042
X-22.091 Y38.658 Z-3.116 I-0.091 J-0.042
X-21.909 Y38.742 Z-3.143 I0.091 J0.042
X-22.091 Y38.658 Z-3.171 I-0.091 J-0.042
X-21.909 Y38.742 Z-3.198 I0.091 J0.042
X-22.091 Y38.658 Z-3.226 I-0.091 J-0.042
X-21.909 Y38.742 Z-3.253 I0.091 J0.042
X-22.091 Y38.658 Z-3.281 I-0.091 J-0.042
X-21.909 Y38.742 Z-3.308 I0.091 J0.042
X-22.091 Y38.658 Z-3.336 I-0.091 J-0.042
X-21.909 Y38.742 Z-3.363 I0.091 J0.042
X-22.091 Y38.658 Z-3.391 I-0.091 J-0.042
X-21.909 Y38.742 Z-3.418 I0.091 J0.042
X-22.091 Y38.658 Z-3.446 I-0.091 J-0.042
X-21.909 Y38.742 Z-3.473 I0.091 J0.042
X-22.091 Y38.658 Z-3.501 I-0.091 J-0.042
X-21.909 Y38.742 Z-3.528 I0.091 J0.042
X-22.091 Y38.658 Z-3.556 I-0.091 J-0.042
X-21.909 Y38.742 Z-3.583 I0.091 J0.042
X-22.091 Y38.658 Z-3.611 I-0.091 J-0.042
X-21.909 Y38.742 Z-3.638 I0.091 J0.042
X-22.091 Y38.658 Z-3.665 I-0.091 J-0.042
X-21.909 Y38.742 Z-3.693 I0.091 J0.042
X-22.091 Y38.658 Z-3.72 I-0.091 J-0.042
X-21.909 Y38.742 Z-3.748 I0.091 J0.042
X-22.091 Y38.658 Z-3.775 I-0.091 J-0.042
X-21.909 Y38.742 Z-3.803 I0.091 J0.042
X-22.091 Y38.658 Z-3.83 I-0.091 J-0.042
X-21.909 Y38.742 Z-3.858 I0.091 J0.042
X-22.091 Y38.658 Z-3.885 I-0.091 J-0.042
X-21.909 Y38.742 Z-3.913 I0.091 J0.042
X-22.091 Y38.658 Z-3.94 I-0.091 J-0.042
X-21.909 Y38.742 Z-3.968 I0.091 J0.042
X-22.091 Y38.658 Z-3.995 I-0.091 J-0.042
X-21.909 Y38.742 Z-4.023 I0.091 J0.042
X-22.091 Y38.658 Z-4.05 I-0.091 J-0.042
X-21.909 Y38.742 Z-4.078 I0.091 J0.042
X-22.091 Y38.658 Z-4.105 I-0.091 J-0.042
X-21.909 Y38.742 Z-4.133 I0.091 J0.042
X-22.091 Y38.658 Z-4.16 I-0.091 J-0.042
X-21.909 Y38.742 Z-4.188 I0.091 J0.042
X-22.091 Y38.658 Z-4.215 I-0.091 J-0.042
X-21.909 Y38.742 Z-4.243 I0.091 J0.042
X-22.091 Y38.658 Z-4.27 I-0.091 J-0.042
X-21.909 Y38.742 Z-4.298 I0.091 J0.042
X-22.091 Y38.658 Z-4.325 I-0.091 J-0.042
X-21.909 Y38.742 Z-4.353 I0.091 J0.042
X-22.091 Y38.658 Z-4.38 I-0.091 J-0.042
X-21.909 Y38.742 Z-4.408 I0.091 J0.042
X-22.091 Y38.658 Z-4.435 I-0.091 J-0.042
X-21.909 Y38.742 Z-4.463 I0.091 J0.042
X-22.091 Y38.658 Z-4.49 I-0.091 J-0.042
X-22 Y38.6 Z-4.5 I0.091 J0.042
Y38.8 I0 J0.1
Y38.6 I0 J-0.1
G0 Z5
X-7.447 Y30.392
Z2
G1 Z0.1 F100
G3 X-7.628 Y30.308 Z0.073 I-0.091 J-0.042 F1000
X-7.447 Y30.392 Z0.045 I0.091 J0.042
X-7.628 Y30.308 Z0.018 I-0.091 J-0.042
X-7.447 Y30.392 Z-0.01 I0.091 J0.042
X-7.628 Y30.308 Z-0.037 I-0.091 J-0.042
X-7.447 Y30.392 Z-0.065 I0.091 J0.042
X-7.628 Y30.308 Z-0.092 I-0.091 J-0.042
X-7.447 Y30.392 Z-0.12 I0.091 J0.042
X-7.628 Y30.308 Z-0.147 I-0.091 J-0.042
X-7.447 Y30.392 Z-0.175 I0.091 J0.042
X-7.628 Y30.308 Z-0.202 I-0.091 J-0.042
X-7.447 Y30.392 Z-0.23 I0.091 J0.042
X-7.628 Y30.308 Z-0.257 I-0.091 J-0.042
X-7.447 Y30.392 Z-0.285 I0.091 J0.042
X-7.628 Y30.308 Z-0.312 I-0.091 J-0.042
X-7.447 Y30.392 Z-0.34 I0.091 J0.042
X-7.628 Y30.308 Z-0.367 I-0.091 J-0.042
X-7.447 Y30.392 Z-0.395 I0.091 J0.042
X-7.628 Y30.308 Z-0.422 I-0.091 J-0.042
X-7.447 Y30.392 Z-0.45 I0.091 J0.042
X-7.628 Y30.308 Z-0.477 I-0.091 J-0.042
X-7.447 Y30.392 Z-0.505 I0.091 J0.042
X-7.628 Y30.308 Z-0.532 I-0.091 J-0.042
X-7.447 Y30.392 Z-0.56 I0.091 J0.042
X-7.628 Y30.308 Z-0.587 I-0.091 J-0.042
X-7.447 Y30.392 Z-0.615 I0.091 J0.042
X-7.628 Y30.308 Z-0.642 I-0.091 J-0.042
X-7.447 Y30.392 Z-0.67 I0.091 J0.042
X-7.628 Y30.308 Z-0.697 I-0.091 J-0.042
X-7.447 Y30.392 Z-0.725 I0.091 J0.042
X-7.628 Y30.308 Z-0.752 I-0.091 J-0.042
X-7.447 Y30.392 Z-0.78 I0.091 J0.042
X-7.628 Y30.308 Z-0.807 I-0.091 J-0.042
X-7.447 Y30.392 Z-0.835 I0.091 J0.042
X-7.628 Y30.308 Z-0.862 I-0.091 J-0.042
X-7.447 Y30.392 Z-0.889 I0.091 J0.042
X-7.628 Y30.308 Z-0.917 I-0.091 J-0.042
X-7.447 Y30.392 Z-0.944 I0.091 J0.042
X-7.628 Y30.308 Z-0.972 I-0.091 J-0.042
X-7.447 Y30.392 Z-0.999 I0.091 J0.042
X-7.628 Y30.308 Z-1.027 I-0.091 J-0.042
X-7.447 Y30.392 Z-1.054 I0.091 J0.042
X-7.628 Y30.308 Z-1.082 I-0.091 J-0.042
X-7.447 Y30.392 Z-1.109 I0.091 J0.042
X-7.628 Y30.308 Z-1.137 I-0.091 J-0.042
X-7.447 Y30.392 Z-1.164 I0.091 J0.042
X-7.628 Y30.308 Z-1.192 I-0.091 J-0.042
X-7.447 Y30.392 Z-1.219 I0.091 J0.042
X-7.628 Y30.308 Z-1.247 I-0.091 J-0.042
X-7.447 Y30.392 Z-1.274 I0.091 J0.042
X-7.628 Y30.308 Z-1.302 I-0.091 J-0.042
X-7.447 Y30.392 Z-1.329 I0.091 J0.042
X-7.628 Y30.308 Z-1.357 I-0.091 J-0.042
X-7.447 Y30.392 Z-1.384 I0.091 J0.042
X-7.628 Y30.308 Z-1.412 I-0.091 J-0.042
X-7.447 Y30.392 Z-1.439 I0.091 J0.042
X-7.628 Y30.308 Z-1.467 I-0.091 J-0.042
X-7.447 Y30.392 Z-1.494 I0.091 J0.042
X-7.628 Y30.308 Z-1.522 I-0.091 J-0.042
X-7.447 Y30.392 Z-1.549 I0.091 J0.042
X-7.628 Y30.308 Z-1.577 I-0.091 J-0.042
X-7.447 Y30.392 Z-1.604 I0.091 J0.042
X-7.628 Y30.308 Z-1.632 I-0.091 J-0.042
X-7.447 Y30.392 Z-1.659 I0.091 J0.042
X-7.628 Y30.308 Z-1.687 I-0.091 J-0.042
X-7.447 Y30.392 Z-1.714 I0.091 J0.042
X-7.628 Y30.308 Z-1.742 I-0.091 J-0.042
X-7.447 Y30.392 Z-1.769 I0.091 J0.042
X-7.628 Y30.308 Z-1.796 I-0.091 J-0.042
X-7.447 Y30.392 Z-1.824 I0.091 J0.042
X-7.628 Y30.308 Z-1.851 I-0.091 J-0.042
X-7.447 Y30.392 Z-1.879 I0.091 J0.042
X-7.628 Y30.308 Z-1.906 I-0.091 J-0.042
X-7.447 Y30.392 Z-1.934 I0.091 J0.042
X-7.628 Y30.308 Z-1.961 I-0.091 J-0.042
X-7.447 Y30.392 Z-1.989 I0.091 J0.042
X-7.628 Y30.308 Z-2.016 I-0.091 J-0.042
X-7.447 Y30.392 Z-2.044 I0.091 J0.042
X-7.628 Y30.308 Z-2.071 I-0.091 J-0.042
X-7.447 Y30.392 Z-2.099 I0.091 J0.042
X-7.628 Y30.308 Z-2.126 I-0.091 J-0.042
X-7.447 Y30.392 Z-2.154 I0.091 J0.042
X-7.628 Y30.308 Z-2.181 I-0.091 J-0.042
X-7.447 Y30.392 Z-2.209 I0.091 J0.042
X-7.628 Y30.308 Z-2.236 I-0.091 J-0.042
X-7.447 Y30.392 Z-2.264 I0.091 J0.042
X-7.628 Y30.308 Z-2.291 I-0.091 J-0.042
X-7.447 Y30.392 Z-2.319 I0.091 J0.042
X-7.628 Y30.308 Z-2.346 I-0.091 J-0.042
X-7.447 Y30.392 Z-2.374 I0.091 J0.042
X-7.628 Y30.308 Z-2.401 I-0.091 J-0.042
X-7.447 Y30.392 Z-2.429 I0.091 J0.042
X-7.628 Y30.308 Z-2.456 I-0.091 J-0.042
X-7.447 Y30.392 Z-2.484 I0.091 J0.042
X-7.628 Y30.308 Z-2.511 I-0.091 J-0.042
X-7.447 Y30.392 Z-2.539 I0.091 J0.042
X-7.628 Y30.308 Z-2.566 I-0.091 J-0.042
X-7.447 Y30.392 Z-2.594 I0.091 J0.042
X-7.628 Y30.308 Z-2.621 I-0.091 J-0.042
X-7.447 Y30.392 Z-2.649 I0.091 J0.042
X-7.628 Y30.308 Z-2.676 I-0.091 J-0.042
X-7.447 Y30.392 Z-2.704 I0.091 J0.042
X-7.628 Y30.308 Z-2.731 I-0.091 J-0.042
X-7.447 Y30.392 Z-2.758 I0.091 J0.042
X-7.628 Y30.308 Z-2.786 I-0.091 J-0.042
X-7.447 Y30.392 Z-2.813 I0.091 J0.042
X-7.628 Y30.308 Z-2.841 I-0.091 J-0.042
X-7.447 Y30.392 Z-2.868 I0.091 J0.042
X-7.628 Y30.308 Z-2.896 I-0.091 J-0.042
X-7.447 Y30.392 Z-2.923 I0.091 J0.042
X-7.628 Y30.308 Z-2.951 I-0.091 J-0.042
X-7.447 Y30.392 Z-2.978 I0.091 J0.042
X-7.628 Y30.308 Z-3.006 I-0.091 J-0.042
X-7.447 Y30.392 Z-3.033 I0.091 J0.042
X-7.628 Y30.308 Z-3.061 I-0.091 J-0.042
X-7.447 Y30.392 Z-3.088 I0.091 J0.042
X-7.628 Y30.308 Z-3.116 I-0.091 J-0.042
X-7.447 Y30.392 Z-3.143 I0.091 J0.042
X-7.628 Y30.308 Z-3.171 I-0.091 J-0.042
X-7.447 Y30.392 Z-3.198 I0.091 J0.042
X-7.628 Y30.308 Z-3.226 I-0.091 J-0.042
X-7.447 Y30.392 Z-3.253 I0.091 J0.042
X-7.628 Y30.308 Z-3.281 I-0.091 J-0.042
X-7.447 Y30.392 Z-3.308 I0.091 J0.042
X-7.628 Y30.308 Z-3.336 I-0.091 J-0.042
X-7.447 Y30.392 Z-3.363 I0.091 J0.042
X-7.628 Y30.308 Z-3.391 I-0.091 J-0.042
X-7.447 Y30.392 Z-3.418 I0.091 J0.042
X-7.628 Y30.308 Z-3.446 I-0.091 J-0.042
X-7.447 Y30.392 Z-3.473 I0.091 J0.042
X-7.628 Y30.308 Z-3.501 I-0.091 J-0.042
X-7.447 Y30.392 Z-3.528 I0.091 J0.042
X-7.628 Y30.308 Z-3.556 I-0.091 J-0.042
X-7.447 Y30.392 Z-3.583 I0.091 J0.042
X-7.628 Y30.308 Z-3.611 I-0.091 J-0.042
X-7.447 Y30.392 Z-3.638 I0.091 J0.042
X-7.628 Y30.308 Z-3.665 I-0.091 J-0.042
X-7.447 Y30.392 Z-3.693 I0.091 J0.042
X-7.628 Y30.308 Z-3.72 I-0.091 J-0.042
X-7.447 Y30.392 Z-3.748 I0.091 J0.042
X-7.628 Y30.308 Z-3.775 I-0.091 J-0.042
X-7.447 Y30.392 Z-3.803 I0.091 J0.042
X-7.628 Y30.308 Z-3.83 I-0.091 J-0.042
X-7.447 Y30.392 Z-3.858 I0.091 J0.042
X-7.628 Y30.308 Z-3.885 I-0.091 J-0.042
X-7.447 Y30.392 Z-3.913 I0.091 J0.042
X-7.628 Y30.308 Z-3.94 I-0.091 J-0.042
X-7.447 Y30.392 Z-3.968 I0.091 J0.042
X-7.628 Y30.308 Z-3.995 I-0.091 J-0.042
X-7.447 Y30.392 Z-4.023 I0.091 J0.042
X-7.628 Y30.308 Z-4.05 I-0.091 J-0.042
X-7.447 Y30.392 Z-4.078 I0.091 J0.042
X-7.628 Y30.308 Z-4.105 I-0.091 J-0.042
X-7.447 Y30.392 Z-4.133 I0.091 J0.042
X-7.628 Y30.308 Z-4.16 I-0.091 J-0.042
X-7.447 Y30.392 Z-4.188 I0.091 J0.042
X-7.628 Y30.308 Z-4.215 I-0.091 J-0.042
X-7.447 Y30.392 Z-4.243 I0.091 J0.042
X-7.628 Y30.308 Z-4.27 I-0.091 J-0.042
X-7.447 Y30.392 Z-4.298 I0.091 J0.042
X-7.628 Y30.308 Z-4.325 I-0.091 J-0.042
X-7.447 Y30.392 Z-4.353 I0.091 J0.042
X-7.628 Y30.308 Z-4.38 I-0.091 J-0.042
X-7.447 Y30.392 Z-4.408 I0.091 J0.042
X-7.628 Y30.308 Z-4.435 I-0.091 J-0.042
X-7.447 Y30.392 Z-4.463 I0.091 J0.042
X-7.628 Y30.308 Z-4.49 I-0.091 J-0.042
X-7.537 Y30.25 Z-4.5 I0.091 J0.042
Y30.45 I0 J0.1
Y30.25 I0 J-0.1
G0 Z5
X-7.625 Y13.697
Z2
G1 Z0.1 F100
G3 X-7.449 Y13.603 Z0.073 I0.088 J-0.047 F1000
X-7.625 Y13.697 Z0.045 I-0.088 J0.047
X-7.449 Y13.603 Z0.018 I0.088 J-0.047
X-7.625 Y13.697 Z-0.01 I-0.088 J0.047
X-7.449 Y13.603 Z-0.037 I0.088 J-0.047
X-7.625 Y13.697 Z-0.065 I-0.088 J0.047
X-7.449 Y13.603 Z-0.092 I0.088 J-0.047
X-7.625 Y13.697 Z-0.12 I-0.088 J0.047
X-7.449 Y13.603 Z-0.147 I0.088 J-0.047
X-7.625 Y13.697 Z-0.175 I-0.088 J0.047
X-7.449 Y13.603 Z-0.202 I0.088 J-0.047
X-7.625 Y13.697 Z-0.23 I-0.088 J0.047
X-7.449 Y13.603 Z-0.257 I0.088 J-0.047
X-7.625 Y13.697 Z-0.285 I-0.088 J0.047
X-7.449 Y13.603 Z-0.312 I0.088 J-0.047
X-7.625 Y13.697 Z-0.34 I-0.088 J0.047
X-7.449 Y13.603 Z-0.367 I0.088 J-0.047
X-7.625 Y13.697 Z-0.395 I-0.088 J0.047
X-7.449 Y13.603 Z-0.422 I0.088 J-0.047
X-7.625 Y13.697 Z-0.45 I-0.088 J0.047
X-7.449 Y13.603 Z-0.477 I0.088 J-0.047
X-7.625 Y13.697 Z-0.505 I-0.088 J0.047
X-7.449 Y13.603 Z-0.532 I0.088 J-0.047
X-7.625 Y13.697 Z-0.56 I-0.088 J0.047
X-7.449 Y13.603 Z-0.587 I0.088 J-0.047
X-7.625 Y13.697 Z-0.615 I-0.088 J0.047
X-7.449 Y13.603 Z-0.642 I0.088 J-0.047
X-7.625 Y13.697 Z-0.67 I-0.088 J0.047
X-7.449 Y13.603 Z-0.697 I0.088 J-0.047
X-7.625 Y13.697 Z-0.725 I-0.088 J0.047
X-7.449 Y13.603 Z-0.752 I0.088 J-0.047
X-7.625 Y13.697 Z-0.78 I-0.088 J0.047
X-7.449 Y13.603 Z-0.807 I0.088 J-0.047
X-7.625 Y13.697 Z-0.835 I-0.088 J0.047
X-7.449 Y13.603 Z-0.862 I0.088 J-0.047
X-7.625 Y13.697 Z-0.889 I-0.088 J0.047
X-7.449 Y13.603 Z-0.917 I0.088 J-0.047
X-7.625 Y13.697 Z-0.944 I-0.088 J0.047
X-7.449 Y13.603 Z-0.972 I0.088 J-0.047
X-7.625 Y13.697 Z-0.999 I-0.088 J0.047
X-7.449 Y13.603 Z-1.027 I0.088 J-0.047
X-7.625 Y13.697 Z-1.054 I-0.088 J0.047
X-7.449 Y13.603 Z-1.082 I0.088 J-0.047
X-7.625 Y13.697 Z-1.109 I-0.088 J0.047
X-7.449 Y13.603 Z-1.137 I0.088 J-0.047
X-7.625 Y13.697 Z-1.164 I-0.088 J0.047
X-7.449 Y13.603 Z-1.192 I0.088 J-0.047
X-7.625 Y13.697 Z-1.219 I-0.088 J0.047
X-7.449 Y13.603 Z-1.247 I0.088 J-0.047
X-7.625 Y13.697 Z-1.274 I-0.088 J0.047
X-7.449 Y13.603 Z-1.302 I0.088 J-0.047
X-7.625 Y13.697 Z-1.329 I-0.088 J0.047
X-7.449 Y13.603 Z-1.357 I0.088 J-0.047
X-7.625 Y13.697 Z-1.384 I-0.088 J0.047
X-7.449 Y13.603 Z-1.412 I0.088 J-0.047
X-7.625 Y13.697 Z-1.439 I-0.088 J0.047
X-7.449 Y13.603 Z-1.467 I0.088 J-0.047
X-7.625 Y13.697 Z-1.494 I-0.088 J0.047
X-7.449 Y13.603 Z-1.522 I0.088 J-0.047
X-7.625 Y13.697 Z-1.549 I-0.088 J0.047
X-7.449 Y13.603 Z-1.577 I0.088 J-0.047
X-7.625 Y13.697 Z-1.604 I-0.088 J0.047
X-7.449 Y13.603 Z-1.632 I0.088 J-0.047
X-7.625 Y13.697 Z-1.659 I-0.088 J0.047
X-7.449 Y13.603 Z-1.687 I0.088 J-0.047
X-7.625 Y13.697 Z-1.714 I-0.088 J0.047
X-7.449 Y13.603 Z-1.742 I0.088 J-0.047
X-7.625 Y13.697 Z-1.769 I-0.088 J0.047
X-7.449 Y13.603 Z-1.796 I0.088 J-0.047
X-7.625 Y13.697 Z-1.824 I-0.088 J0.047
X-7.449 Y13.603 Z-1.851 I0.088 J-0.047
X-7.625 Y13.697 Z-1.879 I-0.088 J0.047
X-7.449 Y13.603 Z-1.906 I0.088 J-0.047
X-7.625 Y13.697 Z-1.934 I-0.088 J0.047
X-7.449 Y13.603 Z-1.961 I0.088 J-0.047
X-7.625 Y13.697 Z-1.989 I-0.088 J0.047
X-7.449 Y13.603 Z-2.016 I0.088 J-0.047
X-7.625 Y13.697 Z-2.044 I-0.088 J0.047
X-7.449 Y13.603 Z-2.071 I0.088 J-0.047
X-7.625 Y13.697 Z-2.099 I-0.088 J0.047
X-7.449 Y13.603 Z-2.126 I0.088 J-0.047
X-7.625 Y13.697 Z-2.154 I-0.088 J0.047
X-7.449 Y13.603 Z-2.181 I0.088 J-0.047
X-7.625 Y13.697 Z-2.209 I-0.088 J0.047
X-7.449 Y13.603 Z-2.236 I0.088 J-0.047
X-7.625 Y13.697 Z-2.264 I-0.088 J0.047
X-7.449 Y13.603 Z-2.291 I0.088 J-0.047
X-7.625 Y13.697 Z-2.319 I-0.088 J0.047
X-7.449 Y13.603 Z-2.346 I0.088 J-0.047
X-7.625 Y13.697 Z-2.374 I-0.088 J0.047
X-7.449 Y13.603 Z-2.401 I0.088 J-0.047
X-7.625 Y13.697 Z-2.429 I-0.088 J0.047
X-7.449 Y13.603 Z-2.456 I0.088 J-0.047
X-7.625 Y13.697 Z-2.484 I-0.088 J0.047
X-7.449 Y13.603 Z-2.511 I0.088 J-0.047
X-7.625 Y13.697 Z-2.539 I-0.088 J0.047
X-7.449 Y13.603 Z-2.566 I0.088 J-0.047
X-7.625 Y13.697 Z-2.594 I-0.088 J0.047
X-7.449 Y13.603 Z-2.621 I0.088 J-0.047
X-7.625 Y13.697 Z-2.649 I-0.088 J0.047
X-7.449 Y13.603 Z-2.676 I0.088 J-0.047
X-7.625 Y13.697 Z-2.704 I-0.088 J0.047
X-7.449 Y13.603 Z-2.731 I0.088 J-0.047
X-7.625 Y13.697 Z-2.758 I-0.088 J0.047
X-7.449 Y13.603 Z-2.786 I0.088 J-0.047
X-7.625 Y13.697 Z-2.813 I-0.088 J0.047
X-7.449 Y13.603 Z-2.841 I0.088 J-0.047
X-7.625 Y13.697 Z-2.868 I-0.088 J0.047
X-7.449 Y13.603 Z-2.896 I0.088 J-0.047
X-7.625 Y13.697 Z-2.923 I-0.088 J0.047
X-7.449 Y13.603 Z-2.951 I0.088 J-0.047
X-7.625 Y13.697 Z-2.978 I-0.088 J0.047
X-7.449 Y13.603 Z-3.006 I0.088 J-0.047
X-7.625 Y13.697 Z-3.033 I-0.088 J0.047
X-7.449 Y13.603 Z-3.061 I0.088 J-0.047
X-7.625 Y13.697 Z-3.088 I-0.088 J0.047
X-7.449 Y13.603 Z-3.116 I0.088 J-0.047
X-7.625 Y13.697 Z-3.143 I-0.088 J0.047
X-7.449 Y13.603 Z-3.171 I0.088 J-0.047
X-7.625 Y13.697 Z-3.198 I-0.088 J0.047
X-7.449 Y13.603 Z-3.226 I0.088 J-0.047
X-7.625 Y13.697 Z-3.253 I-0.088 J0.047
X-7.449 Y13.603 Z-3.281 I0.088 J-0.047
X-7.625 Y13.697 Z-3.308 I-0.088 J0.047
X-7.449 Y13.603 Z-3.336 I0.088 J-0.047
X-7.625 Y13.697 Z-3.363 I-0.088 J0.047
X-7.449 Y13.603 Z-3.391 I0.088 J-0.047
X-7.625 Y13.697 Z-3.418 I-0.088 J0.047
X-7.449 Y13.603 Z-3.446 I0.088 J-0.047
X-7.625 Y13.697 Z-3.473 I-0.088 J0.047
X-7.449 Y13.603 Z-3.501 I0.088 J-0.047
X-7.625 Y13.697 Z-3.528 I-0.088 J0.047
X-7.449 Y13.603 Z-3.556 I0.088 J-0.047
X-7.625 Y13.697 Z-3.583 I-0.088 J0.047
X-7.449 Y13.603 Z-3.611 I0.088 J-0.047
X-7.625 Y13.697 Z-3.638 I-0.088 J0.047
X-7.449 Y13.603 Z-3.665 I0.088 J-0.047
X-7.625 Y13.697 Z-3.693 I-0.088 J0.047
X-7.449 Y13.603 Z-3.72 I0.088 J-0.047
X-7.625 Y13.697 Z-3.748 I-0.088 J0.047
X-7.449 Y13.603 Z-3.775 I0.088 J-0.047
X-7.625 Y13.697 Z-3.803 I-0.088 J0.047
X-7.449 Y13.603 Z-3.83 I0.088 J-0.047
X-7.625 Y13.697 Z-3.858 I-0.088 J0.047
X-7.449 Y13.603 Z-3.885 I0.088 J-0.047
X-7.625 Y13.697 Z-3.913 I-0.088 J0.047
X-7.449 Y13.603 Z-3.94 I0.088 J-0.047
X-7.625 Y13.697 Z-3.968 I-0.088 J0.047
X-7.449 Y13.603 Z-3.995 I0.088 J-0.047
X-7.625 Y13.697 Z-4.023 I-0.088 J0.047
X-7.449 Y13.603 Z-4.05 I0.088 J-0.047
X-7.625 Y13.697 Z-4.078 I-0.088 J0.047
X-7.449 Y13.603 Z-4.105 I0.088 J-0.047
X-7.625 Y13.697 Z-4.133 I-0.088 J0.047
X-7.449 Y13.603 Z-4.16 I0.088 J-0.047
X-7.625 Y13.697 Z-4.188 I-0.088 J0.047
X-7.449 Y13.603 Z-4.215 I0.088 J-0.047
X-7.625 Y13.697 Z-4.243 I-0.088 J0.047
X-7.449 Y13.603 Z-4.27 I0.088 J-0.047
X-7.625 Y13.697 Z-4.298 I-0.088 J0.047
X-7.449 Y13.603 Z-4.325 I0.088 J-0.047
X-7.625 Y13.697 Z-4.353 I-0.088 J0.047
X-7.449 Y13.603 Z-4.38 I0.088 J-0.047
X-7.625 Y13.697 Z-4.408 I-0.088 J0.047
X-7.449 Y13.603 Z-4.435 I0.088 J-0.047
X-7.625 Y13.697 Z-4.463 I-0.088 J0.047
X-7.449 Y13.603 Z-4.49 I0.088 J-0.047
X-7.457 Y13.71 Z-4.5 I-0.088 J0.047
X-7.617 Y13.59 I-0.08 J-0.06
X-7.457 Y13.71 I0.08 J0.06
G0 Z5
X-21.909 Y5.342
Z2
G1 Z0.1 F100
G3 X-22.091 Y5.258 Z0.073 I-0.091 J-0.042 F1000
X-21.909 Y5.342 Z0.045 I0.091 J0.042
X-22.091 Y5.258 Z0.018 I-0.091 J-0.042
X-21.909 Y5.342 Z-0.01 I0.091 J0.042
X-22.091 Y5.258 Z-0.037 I-0.091 J-0.042
X-21.909 Y5.342 Z-0.065 I0.091 J0.042
X-22.091 Y5.258 Z-0.092 I-0.091 J-0.042
X-21.909 Y5.342 Z-0.12 I0.091 J0.042
X-22.091 Y5.258 Z-0.147 I-0.091 J-0.042
X-21.909 Y5.342 Z-0.175 I0.091 J0.042
X-22.091 Y5.258 Z-0.202 I-0.091 J-0.042
X-21.909 Y5.342 Z-0.23 I0.091 J0.042
X-22.091 Y5.258 Z-0.257 I-0.091 J-0.042
X-21.909 Y5.342 Z-0.285 I0.091 J0.042
X-22.091 Y5.258 Z-0.312 I-0.091 J-0.042
X-21.909 Y5.342 Z-0.34 I0.091 J0.042
X-22.091 Y5.258 Z-0.367 I-0.091 J-0.042
X-21.909 Y5.342 Z-0.395 I0.091 J0.042
X-22.091 Y5.258 Z-0.422 I-0.091 J-0.042
X-21.909 Y5.342 Z-0.45 I0.091 J0.042
X-22.091 Y5.258 Z-0.477 I-0.091 J-0.042
X-21.909 Y5.342 Z-0.505 I0.091 J0.042
X-22.091 Y5.258 Z-0.532 I-0.091 J-0.042
X-21.909 Y5.342 Z-0.56 I0.091 J0.042
X-22.091 Y5.258 Z-0.587 I-0.091 J-0.042
X-21.909 Y5.342 Z-0.615 I0.091 J0.042
X-22.091 Y5.258 Z-0.642 I-0.091 J-0.042
X-21.909 Y5.342 Z-0.67 I0.091 J0.042
X-22.091 Y5.258 Z-0.697 I-0.091 J-0.042
X-21.909 Y5.342 Z-0.725 I0.091 J0.042
X-22.091 Y5.258 Z-0.752 I-0.091 J-0.042
X-21.909 Y5.342 Z-0.78 I0.091 J0.042
X-22.091 Y5.258 Z-0.807 I-0.091 J-0.042
X-21.909 Y5.342 Z-0.835 I0.091 J0.042
X-22.091 Y5.258 Z-0.862 I-0.091 J-0.042
X-21.909 Y5.342 Z-0.889 I0.091 J0.042
X-22.091 Y5.258 Z-0.917 I-0.091 J-0.042
X-21.909 Y5.342 Z-0.944 I0.091 J0.042
X-22.091 Y5.258 Z-0.972 I-0.091 J-0.042
X-21.909 Y5.342 Z-0.999 I0.091 J0.042
X-22.091 Y5.258 Z-1.027 I-0.091 J-0.042
X-21.909 Y5.342 Z-1.054 I0.091 J0.042
X-22.091 Y5.258 Z-1.082 I-0.091 J-0.042
X-21.909 Y5.342 Z-1.109 I0.091 J0.042
X-22.091 Y5.258 Z-1.137 I-0.091 J-0.042
X-21.909 Y5.342 Z-1.164 I0.091 J0.042
X-22.091 Y5.258 Z-1.192 I-0.091 J-0.042
X-21.909 Y5.342 Z-1.219 I0.091 J0.042
X-22.091 Y5.258 Z-1.247 I-0.091 J-0.042
X-21.909 Y5.342 Z-1.274 I0.091 J0.042
X-22.091 Y5.258 Z-1.302 I-0.091 J-0.042
X-21.909 Y5.342 Z-1.329 I0.091 J0.042
X-22.091 Y5.258 Z-1.357 I-0.091 J-0.042
X-21.909 Y5.342 Z-1.384 I0.091 J0.042
X-22.091 Y5.258 Z-1.412 I-0.091 J-0.042
X-21.909 Y5.342 Z-1.439 I0.091 J0.042
X-22.091 Y5.258 Z-1.467 I-0.091 J-0.042
X-21.909 Y5.342 Z-1.494 I0.091 J0.042
X-22.091 Y5.258 Z-1.522 I-0.091 J-0.042
X-21.909 Y5.342 Z-1.549 I0.091 J0.042
X-22.091 Y5.258 Z-1.577 I-0.091 J-0.042
X-21.909 Y5.342 Z-1.604 I0.091 J0.042
X-22.091 Y5.258 Z-1.632 I-0.091 J-0.042
X-21.909 Y5.342 Z-1.659 I0.091 J0.042
X-22.091 Y5.258 Z-1.687 I-0.091 J-0.042
X-21.909 Y5.342 Z-1.714 I0.091 J0.042
X-22.091 Y5.258 Z-1.742 I-0.091 J-0.042
X-21.909 Y5.342 Z-1.769 I0.091 J0.042
X-22.091 Y5.258 Z-1.796 I-0.091 J-0.042
X-21.909 Y5.342 Z-1.824 I0.091 J0.042
X-22.091 Y5.258 Z-1.851 I-0.091 J-0.042
X-21.909 Y5.342 Z-1.879 I0.091 J0.042
X-22.091 Y5.258 Z-1.906 I-0.091 J-0.042
X-21.909 Y5.342 Z-1.934 I0.091 J0.042
X-22.091 Y5.258 Z-1.961 I-0.091 J-0.042
X-21.909 Y5.342 Z-1.989 I0.091 J0.042
X-22.091 Y5.258 Z-2.016 I-0.091 J-0.042
X-21.909 Y5.342 Z-2.044 I0.091 J0.042
X-22.091 Y5.258 Z-2.071 I-0.091 J-0.042
X-21.909 Y5.342 Z-2.099 I0.091 J0.042
X-22.091 Y5.258 Z-2.126 I-0.091 J-0.042
X-21.909 Y5.342 Z-2.154 I0.091 J0.042
X-22.091 Y5.258 Z-2.181 I-0.091 J-0.042
X-21.909 Y5.342 Z-2.209 I0.091 J0.042
X-22.091 Y5.258 Z-2.236 I-0.091 J-0.042
X-21.909 Y5.342 Z-2.264 I0.091 J0.042
X-22.091 Y5.258 Z-2.291 I-0.091 J-0.042
X-21.909 Y5.342 Z-2.319 I0.091 J0.042
X-22.091 Y5.258 Z-2.346 I-0.091 J-0.042
X-21.909 Y5.342 Z-2.374 I0.091 J0.042
X-22.091 Y5.258 Z-2.401 I-0.091 J-0.042
X-21.909 Y5.342 Z-2.429 I0.091 J0.042
X-22.091 Y5.258 Z-2.456 I-0.091 J-0.042
X-21.909 Y5.342 Z-2.484 I0.091 J0.042
X-22.091 Y5.258 Z-2.511 I-0.091 J-0.042
X-21.909 Y5.342 Z-2.539 I0.091 J0.042
X-22.091 Y5.258 Z-2.566 I-0.091 J-0.042
X-21.909 Y5.342 Z-2.594 I0.091 J0.042
X-22.091 Y5.258 Z-2.621 I-0.091 J-0.042
X-21.909 Y5.342 Z-2.649 I0.091 J0.042
X-22.091 Y5.258 Z-2.676 I-0.091 J-0.042
X-21.909 Y5.342 Z-2.704 I0.091 J0.042
X-22.091 Y5.258 Z-2.731 I-0.091 J-0.042
X-21.909 Y5.342 Z-2.758 I0.091 J0.042
X-22.091 Y5.258 Z-2.786 I-0.091 J-0.042
X-21.909 Y5.342 Z-2.813 I0.091 J0.042
X-22.091 Y5.258 Z-2.841 I-0.091 J-0.042
X-21.909 Y5.342 Z-2.868 I0.091 J0.042
X-22.091 Y5.258 Z-2.896 I-0.091 J-0.042
X-21.909 Y5.342 Z-2.923 I0.091 J0.042
X-22.091 Y5.258 Z-2.951 I-0.091 J-0.042
X-21.909 Y5.342 Z-2.978 I0.091 J0.042
X-22.091 Y5.258 Z-3.006 I-0.091 J-0.042
X-21.909 Y5.342 Z-3.033 I0.091 J0.042
X-22.091 Y5.258 Z-3.061 I-0.091 J-0.042
X-21.909 Y5.342 Z-3.088 I0.091 J0.042
X-22.091 Y5.258 Z-3.116 I-0.091 J-0.042
X-21.909 Y5.342 Z-3.143 I0.091 J0.042
X-22.091 Y5.258 Z-3.171 I-0.091 J-0.042
X-21.909 Y5.342 Z-3.198 I0.091 J0.042
X-22.091 Y5.258 Z-3.226 I-0.091 J-0.042
X-21.909 Y5.342 Z-3.253 I0.091 J0.042
X-22.091 Y5.258 Z-3.281 I-0.091 J-0.042
X-21.909 Y5.342 Z-3.308 I0.091 J0.042
X-22.091 Y5.258 Z-3.336 I-0.091 J-0.042
X-21.909 Y5.342 Z-3.363 I0.091 J0.042
X-22.091 Y5.258 Z-3.391 I-0.091 J-0.042
X-21.909 Y5.342 Z-3.418 I0.091 J0.042
X-22.091 Y5.258 Z-3.446 I-0.091 J-0.042
X-21.909 Y5.342 Z-3.473 I0.091 J0.042
X-22.091 Y5.258 Z-3.501 I-0.091 J-0.042
X-21.909 Y5.342 Z-3.528 I0.091 J0.042
X-22.091 Y5.258 Z-3.556 I-0.091 J-0.042
X-21.909 Y5.342 Z-3.583 I0.091 J0.042
X-22.091 Y5.258 Z-3.611 I-0.091 J-0.042
X-21.909 Y5.342 Z-3.638 I0.091 J0.042
X-22.091 Y5.258 Z-3.665 I-0.091 J-0.042
X-21.909 Y5.342 Z-3.693 I0.091 J0.042
X-22.091 Y5.258 Z-3.72 I-0.091 J-0.042
X-21.909 Y5.342 Z-3.748 I0.091 J0.042
X-22.091 Y5.258 Z-3.775 I-0.091 J-0.042
X-21.909 Y5.342 Z-3.803 I0.091 J0.042
X-22.091 Y5.258 Z-3.83 I-0.091 J-0.042
X-21.909 Y5.342 Z-3.858 I0.091 J0.042
X-22.091 Y5.258 Z-3.885 I-0.091 J-0.042
X-21.909 Y5.342 Z-3.913 I0.091 J0.042
X-22.091 Y5.258 Z-3.94 I-0.091 J-0.042
X-21.909 Y5.342 Z-3.968 I0.091 J0.042
X-22.091 Y5.258 Z-3.995 I-0.091 J-0.042
X-21.909 Y5.342 Z-4.023 I0.091 J0.042
X-22.091 Y5.258 Z-4.05 I-0.091 J-0.042
X-21.909 Y5.342 Z-4.078 I0.091 J0.042
X-22.091 Y5.258 Z-4.105 I-0.091 J-0.042
X-21.909 Y5.342 Z-4.133 I0.091 J0.042
X-22.091 Y5.258 Z-4.16 I-0.091 J-0.042
X-21.909 Y5.342 Z-4.188 I0.091 J0.042
X-22.091 Y5.258 Z-4.215 I-0.091 J-0.042
X-21.909 Y5.342 Z-4.243 I0.091 J0.042
X-22.091 Y5.258 Z-4.27 I-0.091 J-0.042
X-21.909 Y5.342 Z-4.298 I0.091 J0.042
X-22.091 Y5.258 Z-4.325 I-0.091 J-0.042
X-21.909 Y5.342 Z-4.353 I0.091 J0.042
X-22.091 Y5.258 Z-4.38 I-0.091 J-0.042
X-21.909 Y5.342 Z-4.408 I0.091 J0.042
X-22.091 Y5.258 Z-4.435 I-0.091 J-0.042
X-21.909 Y5.342 Z-4.463 I0.091 J0.042
X-22.091 Y5.258 Z-4.49 I-0.091 J-0.042
X-22 Y5.2 Z-4.5 I0.091 J0.042
Y5.4 I0 J0.1
Y5.2 I0 J-0.1
G0 Z5
X-36.372 Y13.692
Z2
G1 Z0.1 F100
G3 X-36.383 Y13.71 Z0.098 I-0.091 J-0.042 F1000
X-36.543 Y13.59 Z0.071 I-0.08 J-0.06
X-36.383 Y13.71 Z0.043 I0.08 J0.06
X-36.543 Y13.59 Z0.016 I-0.08 J-0.06
X-36.383 Y13.71 Z-0.012 I0.08 J0.06
X-36.543 Y13.59 Z-0.039 I-0.08 J-0.06
X-36.383 Y13.71 Z-0.067 I0.08 J0.06
X-36.543 Y13.59 Z-0.094 I-0.08 J-0.06
X-36.383 Y13.71 Z-0.122 I0.08 J0.06
X-36.543 Y13.59 Z-0.149 I-0.08 J-0.06
X-36.383 Y13.71 Z-0.177 I0.08 J0.06
X-36.543 Y13.59 Z-0.204 I-0.08 J-0.06
X-36.383 Y13.71 Z-0.232 I0.08 J0.06
X-36.543 Y13.59 Z-0.259 I-0.08 J-0.06
X-36.383 Y13.71 Z-0.287 I0.08 J0.06
X-36.543 Y13.59 Z-0.314 I-0.08 J-0.06
X-36.383 Y13.71 Z-0.342 I0.08 J0.06
X-36.543 Y13.59 Z-0.369 I-0.08 J-0.06
X-36.383 Y13.71 Z-0.397 I0.08 J0.06
X-36.543 Y13.59 Z-0.424 I-0.08 J-0.06
X-36.383 Y13.71 Z-0.452 I0.08 J0.06
X-36.543 Y13.59 Z-0.479 I-0.08 J-0.06
X-36.383 Y13.71 Z-0.507 I0.08 J0.06
X-36.543 Y13.59 Z-0.534 I-0.08 J-0.06
X-36.383 Y13.71 Z-0.561 I0.08 J0.06
X-36.543 Y13.59 Z-0.589 I-0.08 J-0.06
X-36.383 Y13.71 Z-0.616 I0.08 J0.06
X-36.543 Y13.59 Z-0.644 I-0.08 J-0.06
X-36.383 Y13.71 Z-0.671 I0.08 J0.06
X-36.543 Y13.59 Z-0.699 I-0.08 J-0.06
X-36.383 Y13.71 Z-0.726 I0.08 J0.06
X-36.543 Y13.59 Z-0.754 I-0.08 J-0.06
X-36.383 Y13.71 Z-0.781 I0.08 J0.06
X-36.543 Y13.59 Z-0.809 I-0.08 J-0.06
X-36.383 Y13.71 Z-0.836 I0.08 J0.06
X-36.543 Y13.59 Z-0.864 I-0.08 J-0.06
X-36.383 Y13.71 Z-0.891 I0.08 J0.06
X-36.543 Y13.59 Z-0.919 I-0.08 J-0.06
X-36.383 Y13.71 Z-0.946 I0.08 J0.06
X-36.543 Y13.59 Z-0.974 I-0.08 J-0.06
X-36.383 Y13.71 Z-1.001 I0.08 J0.06
X-36.543 Y13.59 Z-1.029 I-0.08 J-0.06
X-36.383 Y13.71 Z-1.056 I0.08 J0.06
X-36.543 Y13.59 Z-1.084 I-0.08 J-0.06
X-36.383 Y13.71 Z-1.111 I0.08 J0.06
X-36.543 Y13.59 Z-1.139 I-0.08 J-0.06
X-36.383 Y13.71 Z-1.166 I0.08 J0.06
X-36.543 Y13.59 Z-1.194 I-0.08 J-0.06
X-36.383 Y13.71 Z-1.221 I0.08 J0.06
X-36.543 Y13.59 Z-1.249 I-0.08 J-0.06
X-36.383 Y13.71 Z-1.276 I0.08 J0.06
X-36.543 Y13.59 Z-1.304 I-0.08 J-0.06
X-36.383 Y13.71 Z-1.331 I0.08 J0.06
X-36.543 Y13.59 Z-1.359 I-0.08 J-0.06
X-36.383 Y13.71 Z-1.386 I0.08 J0.06
X-36.543 Y13.59 Z-1.414 I-0.08 J-0.06
X-36.383 Y13.71 Z-1.441 I0.08 J0.06
X-36.543 Y13.59 Z-1.468 I-0.08 J-0.06
X-36.383 Y13.71 Z-1.496 I0.08 J0.06
X-36.543 Y13.59 Z-1.523 I-0.08 J-0.06
X-36.383 Y13.71 Z-1.551 I0.08 J0.06
X-36.543 Y13.59 Z-1.578 I-0.08 J-0.06
X-36.383 Y13.71 Z-1.606 I0.08 J0.06
X-36.543 Y13.59 Z-1.633 I-0.08 J-0.06
X-36.383 Y13.71 Z-1.661 I0.08 J0.06
X-36.543 Y13.59 Z-1.688 I-0.08 J-0.06
X-36.383 Y13.71 Z-1.716 I0.08 J0.06
X-36.543 Y13.59 Z-1.743 I-0.08 J-0.06
X-36.383 Y13.71 Z-1.771 I0.08 J0.06
X-36.543 Y13.59 Z-1.798 I-0.08 J-0.06
X-36.383 Y13.71 Z-1.826 I0.08 J0.06
X-36.543 Y13.59 Z-1.853 I-0.08 J-0.06
X-36.383 Y13.71 Z-1.881 I0.08 J0.06
X-36.543 Y13.59 Z-1.908 I-0.08 J-0.06
X-36.383 Y13.71 Z-1.936 I0.08 J0.06
X-36.543 Y13.59 Z-1.963 I-0.08 J-0.06
X-36.383 Y13.71 Z-1.991 I0.08 J0.06
X-36.543 Y13.59 Z-2.018 I-0.08 J-0.06
X-36.383 Y13.71 Z-2.046 I0.08 J0.06
X-36.543 Y13.59 Z-2.073 I-0.08 J-0.06
X-36.383 Y13.71 Z-2.101 I0.08 J0.06
X-36.543 Y13.59 Z-2.128 I-0.08 J-0.06
X-36.383 Y13.71 Z-2.156 I0.08 J0.06
X-36.543 Y13.59 Z-2.183 I-0.08 J-0.06
X-36.383 Y13.71 Z-2.211 I0.08 J0.06
X-36.543 Y13.59 Z-2.238 I-0.08 J-0.06
X-36.383 Y13.71 Z-2.266 I0.08 J0.06
X-36.543 Y13.59 Z-2.293 I-0.08 J-0.06
X-36.383 Y13.71 Z-2.321 I0.08 J0.06
X-36.543 Y13.59 Z-2.348 I-0.08 J-0.06
X-36.383 Y13.71 Z-2.376 I0.08 J0.06
X-36.543 Y13.59 Z-2.403 I-0.08 J-0.06
X-36.383 Y13.71 Z-2.43 I0.08 J0.06
X-36.543 Y13.59 Z-2.458 I-0.08 J-0.06
X-36.383 Y13.71 Z-2.485 I0.08 J0.06
X-36.543 Y13.59 Z-2.513 I-0.08 J-0.06
X-36.383 Y13.71 Z-2.54 I0.08 J0.06
X-36.543 Y13.59 Z-2.568 I-0.08 J-0.06
X-36.383 Y13.71 Z-2.595 I0.08 J0.06
X-36.543 Y13.59 Z-2.623 I-0.08 J-0.06
X-36.383 Y13.71 Z-2.65 I0.08 J0.06
X-36.543 Y13.59 Z-2.678 I-0.08 J-0.06
X-36.383 Y13.71 Z-2.705 I0.08 J0.06
X-36.543 Y13.59 Z-2.733 I-0.08 J-0.06
X-36.383 Y13.71 Z-2.76 I0.08 J0.06
X-36.543 Y13.59 Z-2.788 I-0.08 J-0.06
X-36.383 Y13.71 Z-2.815 I0.08 J0.06
X-36.543 Y13.59 Z-2.843 I-0.08 J-0.06
X-36.383 Y13.71 Z-2.87 I0.08 J0.06
X-36.543 Y13.59 Z-2.898 I-0.08 J-0.06
X-36.383 Y13.71 Z-2.925 I0.08 J0.06
X-36.543 Y13.59 Z-2.953 I-0.08 J-0.06
X-36.383 Y13.71 Z-2.98 I0.08 J0.06
X-36.543 Y13.59 Z-3.008 I-0.08 J-0.06
X-36.383 Y13.71 Z-3.035 I0.08 J0.06
X-36.543 Y13.59 Z-3.063 I-0.08 J-0.06
X-36.383 Y13.71 Z-3.09 I0.08 J0.06
X-36.543 Y13.59 Z-3.118 I-0.08 J-0.06
X-36.383 Y13.71 Z-3.145 I0.08 J0.06
X-36.543 Y13.59 Z-3.173 I-0.08 J-0.06
X-36.383 Y13.71 Z-3.2 I0.08 J0.06
X-36.543 Y13.59 Z-3.228 I-0.08 J-0.06
X-36.383 Y13.71 Z-3.255 I0.08 J0.06
X-36.543 Y13.59 Z-3.283 I-0.08 J-0.06
X-36.383 Y13.71 Z-3.31 I0.08 J0.06
X-36.543 Y13.59 Z-3.338 I-0.08 J-0.06
X-36.383 Y13.71 Z-3.365 I0.08 J0.06
X-36.543 Y13.59 Z-3.392 I-0.08 J-0.06
X-36.383 Y13.71 Z-3.42 I0.08 J0.06
X-36.543 Y13.59 Z-3.447 I-0.08 J-0.06
X-36.383 Y13.71 Z-3.475 I0.08 J0.06
X-36.543 Y13.59 Z-3.502 I-0.08 J-0.06
X-36.383 Y13.71 Z-3.53 I0.08 J0.06
X-36.543 Y13.59 Z-3.557 I-0.08 J-0.06
X-36.383 Y13.71 Z-3.585 I0.08 J0.06
X-36.543 Y13.59 Z-3.612 I-0.08 J-0.06
X-36.383 Y13.71 Z-3.64 I0.08 J0.06
X-36.543 Y13.59 Z-3.667 I-0.08 J-0.06
X-36.383 Y13.71 Z-3.695 I0.08 J0.06
X-36.543 Y13.59 Z-3.722 I-0.08 J-0.06
X-36.383 Y13.71 Z-3.75 I0.08 J0.06
X-36.543 Y13.59 Z-3.777 I-0.08 J-0.06
X-36.383 Y13.71 Z-3.805 I0.08 J0.06
X-36.543 Y13.59 Z-3.832 I-0.08 J-0.06
X-36.383 Y13.71 Z-3.86 I0.08 J0.06
X-36.543 Y13.59 Z-3.887 I-0.08 J-0.06
X-36.383 Y13.71 Z-3.915 I0.08 J0.06
X-36.543 Y13.59 Z-3.942 I-0.08 J-0.06
X-36.383 Y13.71 Z-3.97 I0.08 J0.06
X-36.543 Y13.59 Z-3.997 I-0.08 J-0.06
X-36.383 Y13.71 Z-4.025 I0.08 J0.06
X-36.543 Y13.59 Z-4.052 I-0.08 J-0.06
X-36.383 Y13.71 Z-4.08 I0.08 J0.06
X-36.543 Y13.59 Z-4.107 I-0.08 J-0.06
X-36.383 Y13.71 Z-4.135 I0.08 J0.06
X-36.543 Y13.59 Z-4.162 I-0.08 J-0.06
X-36.383 Y13.71 Z-4.19 I0.08 J0.06
X-36.543 Y13.59 Z-4.217 I-0.08 J-0.06
X-36.383 Y13.71 Z-4.245 I0.08 J0.06
X-36.543 Y13.59 Z-4.272 I-0.08 J-0.06
X-36.383 Y13.71 Z-4.299 I0.08 J0.06
X-36.543 Y13.59 Z-4.327 I-0.08 J-0.06
X-36.383 Y13.71 Z-4.354 I0.08 J0.06
X-36.543 Y13.59 Z-4.382 I-0.08 J-0.06
X-36.383 Y13.71 Z-4.409 I0.08 J0.06
X-36.543 Y13.59 Z-4.437 I-0.08 J-0.06
X-36.383 Y13.71 Z-4.464 I0.08 J0.06
X-36.543 Y13.59 Z-4.492 I-0.08 J-0.06
X-36.463 Y13.55 Z-4.5 I0.08 J0.06
Y13.75 I0 J0.1
Y13.55 I0 J-0.1
G0 Z15

M9
M30
