(WHEEL)
(T11  D=2 CR=0 - ZMIN=-4.5 - FLAT END MILL)
G90 G94 G91.1 G40 G49 G17
G21

(2MM FLAT INSIDE)
M5
M9
T11
(DIAMOND OR SPIRAL)
S20000 M3
G54
M8
G0 X-7.928 Y9.962
G43 Z15 H1
Z2
G1 Z0.1 F100
G2 X-6.887 Y17.188 Z0.073 I0.521 J3.613 F1000
X-3.764 Y13.788 Z0.061 I-0.521 J-3.613
G3 Y30.212 Z0.022 I-18.236 J8.212
G2 X-11.051 Y30.638 Z-0.005 I-3.644 J0.213
X-5.77 Y33.687 Z-0.022 I3.644 J-0.213
G3 X-19.994 Y41.899 Z-0.061 I-16.23 J-11.687
G2 X-22 Y35.2 Z-0.083 I-2.006 J-3.049
X-24.006 Y41.899 Z-0.105 I0 J3.65
G3 X-38.23 Y33.687 Z-0.145 I2.006 J-19.899
G2 X-33.432 Y28.6 Z-0.167 I1.637 J-3.262
X-40.236 Y30.212 Z-0.189 I-3.161 J1.825
G3 Y13.788 Z-0.228 I18.236 J-8.212
G2 X-32.949 Y13.362 Z-0.255 I3.644 J-0.213
X-38.23 Y10.313 Z-0.272 I-3.644 J0.213
G3 X-24.006 Y2.101 Z-0.311 I16.23 J11.687
G2 X-19.994 Y8.199 Z-0.338 I2.006 J3.049
Y2.101 Z-0.355 I-2.006 J-3.049
G3 X-5.77 Y10.313 Z-0.395 I-2.006 J19.899
G2 X-9.045 Y16.837 Z-0.422 I-1.637 J3.262
X-3.764 Y13.788 Z-0.439 I1.637 J-3.262
G3 Y30.212 Z-0.478 I-18.236 J8.212
G2 X-11.051 Y30.638 Z-0.505 I-3.644 J0.213
X-5.77 Y33.687 Z-0.522 I3.644 J-0.213
G3 X-19.994 Y41.899 Z-0.561 I-16.23 J-11.687
G2 X-22 Y35.2 Z-0.583 I-2.006 J-3.049
X-24.006 Y41.899 Z-0.605 I0 J3.65
G3 X-38.23 Y33.687 Z-0.645 I2.006 J-19.899
G2 X-33.432 Y28.6 Z-0.667 I1.637 J-3.262
X-40.236 Y30.212 Z-0.689 I-3.161 J1.825
G3 Y13.788 Z-0.728 I18.236 J-8.212
G2 X-32.949 Y13.362 Z-0.755 I3.644 J-0.213
X-38.23 Y10.313 Z-0.772 I-3.644 J0.213
G3 X-24.006 Y2.101 Z-0.811 I16.23 J11.687
G2 X-19.994 Y8.199 Z-0.838 I2.006 J3.049
Y2.101 Z-0.855 I-2.006 J-3.049
G3 X-5.77 Y10.313 Z-0.895 I-2.006 J19.899
G2 X-9.045 Y16.837 Z-0.922 I-1.637 J3.262
X-3.764 Y13.788 Z-0.939 I1.637 J-3.262
G3 Y30.212 Z-0.978 I-18.236 J8.212
G2 X-11.051 Y30.638 Z-1.005 I-3.644 J0.213
X-5.77 Y33.687 Z-1.022 I3.644 J-0.213
G3 X-19.994 Y41.899 Z-1.061 I-16.23 J-11.687
G2 X-22 Y35.2 Z-1.083 I-2.006 J-3.049
X-24.006 Y41.899 Z-1.105 I0 J3.65
G3 X-38.23 Y33.687 Z-1.145 I2.006 J-19.899
G2 X-33.432 Y28.6 Z-1.167 I1.637 J-3.262
X-40.236 Y30.212 Z-1.189 I-3.161 J1.825
G3 Y13.788 Z-1.228 I18.236 J-8.212
G2 X-32.949 Y13.362 Z-1.255 I3.644 J-0.213
X-38.23 Y10.313 Z-1.272 I-3.644 J0.213
G3 X-24.006 Y2.101 Z-1.311 I16.23 J11.687
G2 X-19.994 Y8.199 Z-1.338 I2.006 J3.049
Y2.101 Z-1.355 I-2.006 J-3.049
G3 X-5.77 Y10.313 Z-1.395 I-2.006 J19.899
G2 X-9.045 Y16.837 Z-1.422 I-1.637 J3.262
X-3.764 Y13.788 Z-1.439 I1.637 J-3.262
G3 Y30.212 Z-1.478 I-18.236 J8.212
G2 X-11.051 Y30.638 Z-1.505 I-3.644 J0.213
X-5.77 Y33.687 Z-1.522 I3.644 J-0.213
G3 X-19.994 Y41.899 Z-1.561 I-16.23 J-11.687
G2 X-22 Y35.2 Z-1.583 I-2.006 J-3.049
X-24.006 Y41.899 Z-1.605 I0 J3.65
G3 X-38.23 Y33.687 Z-1.645 I2.006 J-19.899
G2 X-33.432 Y28.6 Z-1.667 I1.637 J-3.262
X-40.236 Y30.212 Z-1.689 I-3.161 J1.825
G3 Y13.788 Z-1.728 I18.236 J-8.212
G2 X-32.949 Y13.362 Z-1.755 I3.644 J-0.213
X-38.23 Y10.313 Z-1.772 I-3.644 J0.213
G3 X-24.006 Y2.101 Z-1.811 I16.23 J11.687
G2 X-19.994 Y8.199 Z-1.838 I2.006 J3.049
Y2.101 Z-1.855 I-2.006 J-3.049
G3 X-5.77 Y10.313 Z-1.895 I-2.006 J19.899
G2 X-9.045 Y16.837 Z-1.922 I-1.637 J3.262
X-3.764 Y13.788 Z-1.939 I1.637 J-3.262
G3 Y30.212 Z-1.978 I-18.236 J8.212
G2 X-11.051 Y30.638 Z-2.005 I-3.644 J0.213
X-5.77 Y33.687 Z-2.022 I3.644 J-0.213
G3 X-19.994 Y41.899 Z-2.061 I-16.23 J-11.687
G2 X-22 Y35.2 Z-2.083 I-2.006 J-3.049
X-24.006 Y41.899 Z-2.105 I0 J3.65
G3 X-38.23 Y33.687 Z-2.145 I2.006 J-19.899
G2 X-33.432 Y28.6 Z-2.167 I1.637 J-3.262
X-40.236 Y30.212 Z-2.189 I-3.161 J1.825
G3 Y13.788 Z-2.228 I18.236 J-8.212
G2 X-32.949 Y13.362 Z-2.255 I3.644 J-0.213
X-38.23 Y10.313 Z-2.272 I-3.644 J0.213
G3 X-24.006 Y2.101 Z-2.311 I16.23 J11.687
G2 X-19.994 Y8.199 Z-2.338 I2.006 J3.049
Y2.101 Z-2.355 I-2.006 J-3.049
G3 X-5.77 Y10.313 Z-2.395 I-2.006 J19.899
G2 X-9.045 Y16.837 Z-2.422 I-1.637 J3.262
X-3.764 Y13.788 Z-2.439 I1.637 J-3.262
G3 Y30.212 Z-2.478 I-18.236 J8.212
G2 X-11.051 Y30.638 Z-2.505 I-3.644 J0.213
X-5.77 Y33.687 Z-2.522 I3.644 J-0.213
G3 X-19.994 Y41.899 Z-2.561 I-16.23 J-11.687
G2 X-22 Y35.2 Z-2.583 I-2.006 J-3.049
X-24.006 Y41.899 Z-2.605 I0 J3.65
G3 X-38.23 Y33.687 Z-2.645 I2.006 J-19.899
G2 X-33.432 Y28.6 Z-2.667 I1.637 J-3.262
X-40.236 Y30.212 Z-2.689 I-3.161 J1.825
G3 Y13.788 Z-2.728 I18.236 J-8.212
G2 X-32.949 Y13.362 Z-2.755 I3.644 J-0.213
X-38.23 Y10.313 Z-2.772 I-3.644 J0.213
G3 X-24.006 Y2.101 Z-2.811 I16.23 J11.687
G2 X-19.994 Y8.199 Z-2.838 I2.006 J3.049
Y2.101 Z-2.855 I-2.006 J-3.049
G3 X-5.77 Y10.313 Z-2.895 I-2.006 J19.899
G2 X-9.045 Y16.837 Z-2.922 I-1.637 J3.262
X-3.764 Y13.788 Z-2.939 I1.637 J-3.262
G3 Y30.212 Z-2.978 I-18.236 J8.212
G2 X-11.051 Y30.638 Z-3.005 I-3.644 J0.213
X-5.77 Y33.687 Z-3.022 I3.644 J-0.213
G3 X-19.994 Y41.899 Z-3.061 I-16.23 J-11.687
G2 X-22 Y35.2 Z-3.083 I-2.006 J-3.049
X-24.006 Y41.899 Z-3.105 I0 J3.65
G3 X-38.23 Y33.687 Z-3.145 I2.006 J-19.899
G2 X-33.432 Y28.6 Z-3.167 I1.637 J-3.262
X-40.236 Y30.212 Z-3.189 I-3.161 J1.825
G3 Y13.788 Z-3.228 I18.236 J-8.212
G2 X-32.949 Y13.362 Z-3.255 I3.644 J-0.213
X-38.23 Y10.313 Z-3.272 I-3.644 J0.213
G3 X-24.006 Y2.101 Z-3.311 I16.23 J11.687
G2 X-19.994 Y8.199 Z-3.338 I2.006 J3.049
Y2.101 Z-3.355 I-2.006 J-3.049
G3 X-5.77 Y10.313 Z-3.395 I-2.006 J19.899
G2 X-9.045 Y16.837 Z-3.422 I-1.637 J3.262
X-3.764 Y13.788 Z-3.439 I1.637 J-3.262
G3 Y30.212 Z-3.478 I-18.236 J8.212
G2 X-11.051 Y30.638 Z-3.505 I-3.644 J0.213
X-5.77 Y33.687 Z-3.522 I3.644 J-0.213
G3 X-19.994 Y41.899 Z-3.561 I-16.23 J-11.687
G2 X-22 Y35.2 Z-3.583 I-2.006 J-3.049
X-24.006 Y41.899 Z-3.605 I0 J3.65
G3 X-38.23 Y33.687 Z-3.645 I2.006 J-19.899
G2 X-33.432 Y28.6 Z-3.667 I1.637 J-3.262
X-40.236 Y30.212 Z-3.689 I-3.161 J1.825
G3 Y13.788 Z-3.728 I18.236 J-8.212
G2 X-32.949 Y13.362 Z-3.755 I3.644 J-0.213
X-38.23 Y10.313 Z-3.772 I-3.644 J0.213
G3 X-24.006 Y2.101 Z-3.811 I16.23 J11.687
G2 X-19.994 Y8.199 Z-3.838 I2.006 J3.049
Y2.101 Z-3.855 I-2.006 J-3.049
G3 X-5.77 Y10.313 Z-3.895 I-2.006 J19.899
G2 X-9.045 Y16.837 Z-3.922 I-1.637 J3.262
X-3.764 Y13.788 Z-3.939 I1.637 J-3.262
G3 Y30.212 Z-3.978 I-18.236 J8.212
G2 X-11.051 Y30.638 Z-4.005 I-3.644 J0.213
X-5.77 Y33.687 Z-4.022 I3.644 J-0.213
G3 X-19.994 Y41.899 Z-4.061 I-16.23 J-11.687
G2 X-22 Y35.2 Z-4.083 I-2.006 J-3.049
X-24.006 Y41.899 Z-4.105 I0 J3.65
G3 X-38.23 Y33.687 Z-4.145 I2.006 J-19.899
G2 X-33.432 Y28.6 Z-4.167 I1.637 J-3.262
X-40.236 Y30.212 Z-4.189 I-3.161 J1.825
G3 Y13.788 Z-4.228 I18.236 J-8.212
G2 X-32.949 Y13.362 Z-4.255 I3.644 J-0.213
X-38.23 Y10.313 Z-4.272 I-3.644 J0.213
G3 X-24.006 Y2.101 Z-4.311 I16.23 J11.687
G2 X-19.994 Y8.199 Z-4.338 I2.006 J3.049
Y2.101 Z-4.355 I-2.006 J-3.049
G3 X-5.77 Y10.313 Z-4.395 I-2.006 J19.899
G2 X-9.045 Y16.837 Z-4.422 I-1.637 J3.262
X-3.764 Y13.788 Z-4.439 I1.637 J-3.262
G3 Y30.212 Z-4.478 I-18.236 J8.212
G2 X-10.568 Y28.6 Z-4.5 I-3.644 J0.213
X-5.77 Y33.687 I3.161 J1.825
G3 X-19.994 Y41.899 I-16.23 J-11.687
G2 X-22 Y35.2 I-2.006 J-3.049
X-24.006 Y41.899 I0 J3.65
G3 X-38.23 Y33.687 I2.006 J-19.899
G2 X-33.432 Y28.6 I1.637 J-3.262
X-40.236 Y30.212 I-3.161 J1.825
G3 Y13.788 I18.236 J-8.212
G2 X-32.949 Y13.362 I3.644 J-0.213
X-38.23 Y10.313 I-3.644 J0.213
G3 X-24.006 Y2.101 I16.23 J11.687
G2 X-19.994 Y8.199 I2.006 J3.049
Y2.101 I-2.006 J-3.049
G3 X-5.77 Y10.313 I-2.006 J19.899
G2 X-9.045 Y16.837 I-1.637 J3.262
X-3.764 Y13.788 I1.637 J-3.262
G3 Y30.212 I-18.236 J8.212
G2 X-10.568 Y28.6 I-3.644 J0.213
G0 Z15

M9
M30
