(T11  D=2 CR=0 - ZMIN=-4.5 - FLAT END MILL)
G90 G94 G91.1 G40 G49 G17
G21

(2MM FLAT INSIDE)
M5
M9
T11
(DIAMOND OR SPIRAL)
S20000 M3
G54
M8
G0 X-4.644 Y27.887
G43 Z15 H1
Z2
G1 Z0.1 F100
G2 X-10.431 Y32.813 Z0.073 I-2.894 J2.463 F1000
X-5.801 Y33.73 Z0.061 I2.894 J-2.463
G3 X-19.941 Y41.894 Z0.022 I-16.199 J-11.73
G2 X-24.059 Y35.506 Z-0.005 I-2.059 J-3.194
Y41.894 Z-0.022 I2.059 J3.194
G3 X-38.199 Y33.73 Z-0.061 I2.059 J-19.894
G2 X-33.172 Y28.45 Z-0.083 I1.736 J-3.38
X-40.258 Y30.164 Z-0.106 I-3.291 J1.9
G3 Y13.836 Z-0.144 I18.258 J-8.164
G2 X-32.667 Y13.464 Z-0.172 I3.795 J-0.186
X-38.199 Y10.27 Z-0.189 I-3.795 J0.186
G3 X-24.059 Y2.106 Z-0.228 I16.199 J11.73
G2 X-19.941 Y8.494 Z-0.255 I2.059 J3.194
Y2.106 Z-0.272 I-2.059 J-3.194
G3 X-5.801 Y10.27 Z-0.311 I-2.059 J19.894
G2 X-10.828 Y15.55 Z-0.333 I-1.736 J3.38
X-3.742 Y13.836 Z-0.356 I3.291 J-1.9
G3 Y30.164 Z-0.394 I-18.258 J8.164
G2 X-11.333 Y30.536 Z-0.422 I-3.795 J0.186
X-5.801 Y33.73 Z-0.439 I3.795 J-0.186
G3 X-19.941 Y41.894 Z-0.478 I-16.199 J-11.73
G2 X-24.059 Y35.506 Z-0.505 I-2.059 J-3.194
Y41.894 Z-0.522 I2.059 J3.194
G3 X-38.199 Y33.73 Z-0.561 I2.059 J-19.894
G2 X-33.172 Y28.45 Z-0.583 I1.736 J-3.38
X-40.258 Y30.164 Z-0.606 I-3.291 J1.9
G3 Y13.836 Z-0.644 I18.258 J-8.164
G2 X-32.667 Y13.464 Z-0.672 I3.795 J-0.186
X-38.199 Y10.27 Z-0.689 I-3.795 J0.186
G3 X-24.059 Y2.106 Z-0.728 I16.199 J11.73
G2 X-19.941 Y8.494 Z-0.755 I2.059 J3.194
Y2.106 Z-0.772 I-2.059 J-3.194
G3 X-5.801 Y10.27 Z-0.811 I-2.059 J19.894
G2 X-10.828 Y15.55 Z-0.833 I-1.736 J3.38
X-3.742 Y13.836 Z-0.856 I3.291 J-1.9
G3 Y30.164 Z-0.894 I-18.258 J8.164
G2 X-11.333 Y30.536 Z-0.922 I-3.795 J0.186
X-5.801 Y33.73 Z-0.939 I3.795 J-0.186
G3 X-19.941 Y41.894 Z-0.978 I-16.199 J-11.73
G2 X-24.059 Y35.506 Z-1.005 I-2.059 J-3.194
Y41.894 Z-1.022 I2.059 J3.194
G3 X-38.199 Y33.73 Z-1.061 I2.059 J-19.894
G2 X-33.172 Y28.45 Z-1.083 I1.736 J-3.38
X-40.258 Y30.164 Z-1.106 I-3.291 J1.9
G3 Y13.836 Z-1.144 I18.258 J-8.164
G2 X-32.667 Y13.464 Z-1.172 I3.795 J-0.186
X-38.199 Y10.27 Z-1.189 I-3.795 J0.186
G3 X-24.059 Y2.106 Z-1.228 I16.199 J11.73
G2 X-19.941 Y8.494 Z-1.255 I2.059 J3.194
Y2.106 Z-1.272 I-2.059 J-3.194
G3 X-5.801 Y10.27 Z-1.311 I-2.059 J19.894
G2 X-10.828 Y15.55 Z-1.333 I-1.736 J3.38
X-3.742 Y13.836 Z-1.356 I3.291 J-1.9
G3 Y30.164 Z-1.394 I-18.258 J8.164
G2 X-11.333 Y30.536 Z-1.422 I-3.795 J0.186
X-5.801 Y33.73 Z-1.439 I3.795 J-0.186
G3 X-19.941 Y41.894 Z-1.478 I-16.199 J-11.73
G2 X-24.059 Y35.506 Z-1.505 I-2.059 J-3.194
Y41.894 Z-1.522 I2.059 J3.194
G3 X-38.199 Y33.73 Z-1.561 I2.059 J-19.894
G2 X-33.172 Y28.45 Z-1.583 I1.736 J-3.38
X-40.258 Y30.164 Z-1.606 I-3.291 J1.9
G3 Y13.836 Z-1.644 I18.258 J-8.164
G2 X-32.667 Y13.464 Z-1.672 I3.795 J-0.186
X-38.199 Y10.27 Z-1.689 I-3.795 J0.186
G3 X-24.059 Y2.106 Z-1.728 I16.199 J11.73
G2 X-19.941 Y8.494 Z-1.755 I2.059 J3.194
Y2.106 Z-1.772 I-2.059 J-3.194
G3 X-5.801 Y10.27 Z-1.811 I-2.059 J19.894
G2 X-10.828 Y15.55 Z-1.833 I-1.736 J3.38
X-3.742 Y13.836 Z-1.856 I3.291 J-1.9
G3 Y30.164 Z-1.894 I-18.258 J8.164
G2 X-11.333 Y30.536 Z-1.922 I-3.795 J0.186
X-5.801 Y33.73 Z-1.939 I3.795 J-0.186
G3 X-19.941 Y41.894 Z-1.978 I-16.199 J-11.73
G2 X-24.059 Y35.506 Z-2.005 I-2.059 J-3.194
Y41.894 Z-2.022 I2.059 J3.194
G3 X-38.199 Y33.73 Z-2.061 I2.059 J-19.894
G2 X-33.172 Y28.45 Z-2.083 I1.736 J-3.38
X-40.258 Y30.164 Z-2.106 I-3.291 J1.9
G3 Y13.836 Z-2.144 I18.258 J-8.164
G2 X-32.667 Y13.464 Z-2.172 I3.795 J-0.186
X-38.199 Y10.27 Z-2.189 I-3.795 J0.186
G3 X-24.059 Y2.106 Z-2.228 I16.199 J11.73
G2 X-19.941 Y8.494 Z-2.255 I2.059 J3.194
Y2.106 Z-2.272 I-2.059 J-3.194
G3 X-5.801 Y10.27 Z-2.311 I-2.059 J19.894
G2 X-10.828 Y15.55 Z-2.333 I-1.736 J3.38
X-3.742 Y13.836 Z-2.356 I3.291 J-1.9
G3 Y30.164 Z-2.394 I-18.258 J8.164
G2 X-11.333 Y30.536 Z-2.422 I-3.795 J0.186
X-5.801 Y33.73 Z-2.439 I3.795 J-0.186
G3 X-19.941 Y41.894 Z-2.478 I-16.199 J-11.73
G2 X-24.059 Y35.506 Z-2.505 I-2.059 J-3.194
Y41.894 Z-2.522 I2.059 J3.194
G3 X-38.199 Y33.73 Z-2.561 I2.059 J-19.894
G2 X-33.172 Y28.45 Z-2.583 I1.736 J-3.38
X-40.258 Y30.164 Z-2.606 I-3.291 J1.9
G3 Y13.836 Z-2.644 I18.258 J-8.164
G2 X-32.667 Y13.464 Z-2.672 I3.795 J-0.186
X-38.199 Y10.27 Z-2.689 I-3.795 J0.186
G3 X-24.059 Y2.106 Z-2.728 I16.199 J11.73
G2 X-19.941 Y8.494 Z-2.755 I2.059 J3.194
Y2.106 Z-2.772 I-2.059 J-3.194
G3 X-5.801 Y10.27 Z-2.811 I-2.059 J19.894
G2 X-10.828 Y15.55 Z-2.833 I-1.736 J3.38
X-3.742 Y13.836 Z-2.856 I3.291 J-1.9
G3 Y30.164 Z-2.894 I-18.258 J8.164
G2 X-11.333 Y30.536 Z-2.922 I-3.795 J0.186
X-5.801 Y33.73 Z-2.939 I3.795 J-0.186
G3 X-19.941 Y41.894 Z-2.978 I-16.199 J-11.73
G2 X-24.059 Y35.506 Z-3.005 I-2.059 J-3.194
Y41.894 Z-3.022 I2.059 J3.194
G3 X-38.199 Y33.73 Z-3.061 I2.059 J-19.894
G2 X-33.172 Y28.45 Z-3.083 I1.736 J-3.38
X-40.258 Y30.164 Z-3.106 I-3.291 J1.9
G3 Y13.836 Z-3.144 I18.258 J-8.164
G2 X-32.667 Y13.464 Z-3.172 I3.795 J-0.186
X-38.199 Y10.27 Z-3.189 I-3.795 J0.186
G3 X-24.059 Y2.106 Z-3.228 I16.199 J11.73
G2 X-19.941 Y8.494 Z-3.255 I2.059 J3.194
Y2.106 Z-3.272 I-2.059 J-3.194
G3 X-5.801 Y10.27 Z-3.311 I-2.059 J19.894
G2 X-10.828 Y15.55 Z-3.333 I-1.736 J3.38
X-3.742 Y13.836 Z-3.356 I3.291 J-1.9
G3 Y30.164 Z-3.394 I-18.258 J8.164
G2 X-11.333 Y30.536 Z-3.422 I-3.795 J0.186
X-5.801 Y33.73 Z-3.439 I3.795 J-0.186
G3 X-19.941 Y41.894 Z-3.478 I-16.199 J-11.73
G2 X-24.059 Y35.506 Z-3.505 I-2.059 J-3.194
Y41.894 Z-3.522 I2.059 J3.194
G3 X-38.199 Y33.73 Z-3.561 I2.059 J-19.894
G2 X-33.172 Y28.45 Z-3.583 I1.736 J-3.38
X-40.258 Y30.164 Z-3.606 I-3.291 J1.9
G3 Y13.836 Z-3.644 I18.258 J-8.164
G2 X-32.667 Y13.464 Z-3.672 I3.795 J-0.186
X-38.199 Y10.27 Z-3.689 I-3.795 J0.186
G3 X-24.059 Y2.106 Z-3.728 I16.199 J11.73
G2 X-19.941 Y8.494 Z-3.755 I2.059 J3.194
Y2.106 Z-3.772 I-2.059 J-3.194
G3 X-5.801 Y10.27 Z-3.811 I-2.059 J19.894
G2 X-10.828 Y15.55 Z-3.833 I-1.736 J3.38
X-3.742 Y13.836 Z-3.856 I3.291 J-1.9
G3 Y30.164 Z-3.894 I-18.258 J8.164
G2 X-11.333 Y30.536 Z-3.922 I-3.795 J0.186
X-5.801 Y33.73 Z-3.939 I3.795 J-0.186
G3 X-19.941 Y41.894 Z-3.978 I-16.199 J-11.73
G2 X-24.059 Y35.506 Z-4.005 I-2.059 J-3.194
Y41.894 Z-4.022 I2.059 J3.194
G3 X-38.199 Y33.73 Z-4.061 I2.059 J-19.894
G2 X-33.172 Y28.45 Z-4.083 I1.736 J-3.38
X-40.258 Y30.164 Z-4.106 I-3.291 J1.9
G3 Y13.836 Z-4.144 I18.258 J-8.164
G2 X-32.667 Y13.464 Z-4.172 I3.795 J-0.186
X-38.199 Y10.27 Z-4.189 I-3.795 J0.186
G3 X-24.059 Y2.106 Z-4.228 I16.199 J11.73
G2 X-19.941 Y8.494 Z-4.255 I2.059 J3.194
Y2.106 Z-4.272 I-2.059 J-3.194
G3 X-5.801 Y10.27 Z-4.311 I-2.059 J19.894
G2 X-10.828 Y15.55 Z-4.333 I-1.736 J3.38
X-3.742 Y13.836 Z-4.356 I3.291 J-1.9
G3 Y30.164 Z-4.394 I-18.258 J8.164
G2 X-11.333 Y30.536 Z-4.422 I-3.795 J0.186
X-5.801 Y33.73 Z-4.439 I3.795 J-0.186
G3 X-19.941 Y41.894 Z-4.478 I-16.199 J-11.73
G2 X-22 Y34.9 Z-4.5 I-2.059 J-3.194
X-24.059 Y41.894 I0 J3.8
G3 X-38.199 Y33.73 I2.059 J-19.894
G2 X-33.172 Y28.45 I1.736 J-3.38
X-40.258 Y30.164 I-3.291 J1.9
G3 Y13.836 I18.258 J-8.164
G2 X-32.667 Y13.464 I3.795 J-0.186
X-38.199 Y10.27 I-3.795 J0.186
G3 X-24.059 Y2.106 I16.199 J11.73
G2 X-19.941 Y8.494 I2.059 J3.194
Y2.106 I-2.059 J-3.194
G3 X-5.801 Y10.27 I-2.059 J19.894
G2 X-10.828 Y15.55 I-1.736 J3.38
X-3.742 Y13.836 I3.291 J-1.9
G3 Y30.164 I-18.258 J8.164
G2 X-11.333 Y30.536 I-3.795 J0.186
X-5.801 Y33.73 I3.795 J-0.186
G3 X-19.941 Y41.894 I-16.199 J-11.73
G2 X-22 Y34.9 I-2.059 J-3.194
G0 Z15

M9
M30
