(2MM FLAT POCKET CONTOURS)
(T11  D=2 CR=0 - ZMIN=-4.5 - FLAT END MILL)
G90 G94 G91.1 G40 G49 G17
G21

(2MM FLAT OUTSIDE)
M5
M9
T11
(DIAMOND OR SPIRAL)
S20000 M3
G54
M8
G0 X-0.126 Y14.893
G43 Z15 H1
Z2
G1 Z0.1 F100
G2 X-43.874 Y29.107 Z-0.15 I-21.874 J7.107 F1000
X-0.126 Y14.893 Z-0.4 I21.874 J-7.107
X-43.874 Y29.107 Z-0.65 I-21.874 J7.107
X-0.126 Y14.893 Z-0.9 I21.874 J-7.107
X-43.874 Y29.107 Z-1.15 I-21.874 J7.107
X-0.126 Y14.893 Z-1.4 I21.874 J-7.107
X-43.874 Y29.107 Z-1.65 I-21.874 J7.107
X-0.126 Y14.893 Z-1.9 I21.874 J-7.107
X-43.874 Y29.107 Z-2.15 I-21.874 J7.107
X-0.126 Y14.893 Z-2.4 I21.874 J-7.107
X-43.874 Y29.107 Z-2.65 I-21.874 J7.107
X-0.126 Y14.893 Z-2.9 I21.874 J-7.107
X-43.874 Y29.107 Z-3.15 I-21.874 J7.107
X-0.126 Y14.893 Z-3.4 I21.874 J-7.107
X-43.874 Y29.107 Z-3.65 I-21.874 J7.107
X-0.126 Y14.893 Z-3.9 I21.874 J-7.107
X-43.874 Y29.107 Z-4.15 I-21.874 J7.107
X-0.126 Y14.893 Z-4.4 I21.874 J-7.107
X-22 Y-1 Z-4.5 I-21.874 J7.107
Y45 I0 J23
Y-1 I0 J-23
G0 Z15

M9
M30
