(DRILL 2MM HOLES)
(T11  D=2 CR=0 - ZMIN=-3.5 - FLAT END MILL)
G90 G94 G91.1 G40 G49 G17
G21

(LED PCB POCKET)
M5
M9
T11
(DIAMOND OR SPIRAL)
S16000 M3
G54
M8
G0 X11.223 Y19.966
G43 Z15 H1
Z5
G1 Z0.699 F120
G3 X11.234 Y19.987 Z0.604 I-0.818 J0.484 F60
X11.265 Y20.046 Z0.532 I-0.829 J0.463
X11.3 Y20.131 Z0.5 I-0.86 J0.404
X9.51 Y20.769 Z0.239 I-0.895 J0.319
X11.3 Y20.131 Z-0.022 I0.895 J-0.319
X9.51 Y20.769 Z-0.283 I-0.895 J0.319
X11.3 Y20.131 Z-0.544 I0.895 J-0.319
X9.51 Y20.769 Z-0.806 I-0.895 J0.319
X9.455 Y20.45 Z-0.834 I0.895 J-0.319
G1 Y20.224 F240
G3 X9.774 Y19.905 I0.319 J0
G1 X10.226
G3 X10.545 Y20.224 I0 J0.319
G1 Y61.376
G3 X10.226 Y61.695 I-0.319 J0
G1 X9.774
G3 X9.455 Y61.376 I0 J-0.319
G1 Y20.45
G2 X9.064 Y19.765 I-0.795 J0
G3 X9.272 Y19.005 I0.208 J-0.352
G1 X11.126
G3 X11.445 Y19.324 I0 J0.319
G1 Y62.276
G3 X11.126 Y62.595 I-0.319 J0
G1 X8.874
G3 X8.555 Y62.276 I0 J-0.319
G1 Y19.324
G3 X8.874 Y19.005 I0.319 J0
G1 X9.272
G2 X9.947 Y18.555 I0 J-0.731
G3 X10.622 Y18.105 I0.675 J0.281
G1 X12.026
G3 X12.345 Y18.424 I0 J0.319
G1 Y63.176
G3 X12.026 Y63.495 I-0.319 J0
G1 X7.974
G3 X7.655 Y63.176 I0 J-0.319
G1 Y18.424
G3 X7.974 Y18.105 I0.319 J0
G1 X10.622
G2 X11.297 Y17.655 I0 J-0.731
G3 X11.972 Y17.205 I0.675 J0.281
G1 X12.926
G3 X13.245 Y17.524 I0 J0.319
G1 Y64.076
G3 X12.926 Y64.395 I-0.319 J0
G1 X7.074
G3 X6.755 Y64.076 I0 J-0.319
G1 Y17.524
G3 X7.074 Y17.205 I0.319 J0
G1 X11.972
G2 X12.651 Y16.753 I0 J-0.735
G3 X13.33 Y16.3 I0.679 J0.283
G1 X14.15
Y65.3
X5.85
Y16.3
X13.33
G3 X13.489 Y16.62 I0 J0.2
G1 X11.188 Y19.671
G2 X11.184 Y19.906 I0.16 J0.12
G3 X9.626 Y20.994 Z-1.095 I-0.779 J0.544 F60
X11.184 Y19.906 Z-1.356 I0.779 J-0.544
X9.626 Y20.994 Z-1.617 I-0.779 J0.544
X9.455 Y20.45 Z-1.668 I0.779 J-0.544
G1 Y20.224 F240
G3 X9.774 Y19.905 I0.319 J0
G1 X10.226
G3 X10.545 Y20.224 I0 J0.319
G1 Y61.376
G3 X10.226 Y61.695 I-0.319 J0
G1 X9.774
G3 X9.455 Y61.376 I0 J-0.319
G1 Y20.45
G2 X9.064 Y19.765 I-0.795 J0
G3 X9.272 Y19.005 I0.208 J-0.352
G1 X11.126
G3 X11.445 Y19.324 I0 J0.319
G1 Y62.276
G3 X11.126 Y62.595 I-0.319 J0
G1 X8.874
G3 X8.555 Y62.276 I0 J-0.319
G1 Y19.324
G3 X8.874 Y19.005 I0.319 J0
G1 X9.272
G2 X9.947 Y18.555 I0 J-0.731
G3 X10.622 Y18.105 I0.675 J0.281
G1 X12.026
G3 X12.345 Y18.424 I0 J0.319
G1 Y63.176
G3 X12.026 Y63.495 I-0.319 J0
G1 X7.974
G3 X7.655 Y63.176 I0 J-0.319
G1 Y18.424
G3 X7.974 Y18.105 I0.319 J0
G1 X10.622
G2 X11.297 Y17.655 I0 J-0.731
G3 X11.972 Y17.205 I0.675 J0.281
G1 X12.926
G3 X13.245 Y17.524 I0 J0.319
G1 Y64.076
G3 X12.926 Y64.395 I-0.319 J0
G1 X7.074
G3 X6.755 Y64.076 I0 J-0.319
G1 Y17.524
G3 X7.074 Y17.205 I0.319 J0
G1 X11.972
G2 X12.651 Y16.753 I0 J-0.735
G3 X13.33 Y16.3 I0.679 J0.283
G1 X14.15
Y65.3
X5.85
Y16.3
X13.33
G3 X13.49 Y16.619 I0 J0.2
G1 X11.203 Y19.695
G2 X11.197 Y19.925 I0.16 J0.119
G3 X9.613 Y20.975 Z-1.929 I-0.792 J0.525 F60
X11.197 Y19.925 Z-2.19 I0.792 J-0.525
X9.613 Y20.975 Z-2.451 I-0.792 J0.525
X9.455 Y20.45 Z-2.5 I0.792 J-0.525
G1 Y20.224 F240
G3 X9.774 Y19.905 I0.319 J0
G1 X10.226
G3 X10.545 Y20.224 I0 J0.319
G1 Y61.376
G3 X10.226 Y61.695 I-0.319 J0
G1 X9.774
G3 X9.455 Y61.376 I0 J-0.319
G1 Y20.45
G2 X9.064 Y19.765 I-0.795 J0
G3 X9.272 Y19.005 I0.208 J-0.352
G1 X11.126
G3 X11.445 Y19.324 I0 J0.319
G1 Y62.276
G3 X11.126 Y62.595 I-0.319 J0
G1 X8.874
G3 X8.555 Y62.276 I0 J-0.319
G1 Y19.324
G3 X8.874 Y19.005 I0.319 J0
G1 X9.272
G2 X9.947 Y18.555 I0 J-0.731
G3 X10.622 Y18.105 I0.675 J0.281
G1 X12.026
G3 X12.345 Y18.424 I0 J0.319
G1 Y63.176
G3 X12.026 Y63.495 I-0.319 J0
G1 X7.974
G3 X7.655 Y63.176 I0 J-0.319
G1 Y18.424
G3 X7.974 Y18.105 I0.319 J0
G1 X10.622
G2 X11.297 Y17.655 I0 J-0.731
G3 X11.972 Y17.205 I0.675 J0.281
G1 X12.926
G3 X13.245 Y17.524 I0 J0.319
G1 Y64.076
G3 X12.926 Y64.395 I-0.319 J0
G1 X7.074
G3 X6.755 Y64.076 I0 J-0.319
G1 Y17.524
G3 X7.074 Y17.205 I0.319 J0
G1 X11.972
G2 X12.651 Y16.753 I0 J-0.735
G3 X13.33 Y16.3 I0.679 J0.283
G1 X14.15
Y65.3
X5.85
Y16.3
X13.33
G3 X13.425 Y16.324 Z-2.473 I0 J0.2 F480
X13.482 Y16.37 Z-2.4 I-0.096 J0.176
X13.498 Y16.392 Z-2.3 I-0.152 J0.13
G0 Z15

(LED WIRE POCKETS)
M8
G0 X7.71 Y17.981
Z15
Z3
G1 Z-1.801 F120
G3 X7.719 Y17.958 Z-1.896 I0.895 J0.319 F60
X7.744 Y17.898 Z-1.968 I0.886 J0.342
X7.788 Y17.816 Z-2 I0.861 J0.402
X9.422 Y18.784 Z-2.261 I0.817 J0.484
X7.788 Y17.816 Z-2.522 I-0.817 J-0.484
X9.422 Y18.784 Z-2.783 I0.817 J0.484
X7.655 Y18.3 Z-3 I-0.817 J-0.484
G1 Y18.28 F240
G3 X7.83 Y18.105 I0.175 J0
G1 X12.15
G3 Y18.495 I0 J0.195
G1 X7.83
G3 X7.655 Y18.32 I0 J-0.175
G1 Y18.3
G2 X7.399 Y17.764 I-0.689 J0
G3 X7.597 Y17.205 I0.198 J-0.245
G1 X12.926
G3 X13.245 Y17.524 I0 J0.319
G1 Y19.076
G3 X12.926 Y19.395 I-0.319 J0
G1 X7.07
G3 X6.755 Y19.08 I0 J-0.315
G1 Y17.524
G3 X7.074 Y17.205 I0.319 J0
G1 X7.597
G2 X8.276 Y16.753 I0 J-0.735
G3 X8.955 Y16.3 I0.679 J0.283
G1 X14.15
Y20.3
X5.85
Y16.3
X8.955
G3 X9.049 Y16.432 I0 J0.1
G1 X8.654 Y17.61
G3 X8.619 Y17.651 I-0.09 J-0.044
G1 X7.84 Y18.159
G3 X7.689 Y18.049 I-0.055 J-0.084
X9.521 Y18.551 Z-3.261 I0.916 J0.251 F60
X7.655 Y18.3 Z-3.5 I-0.916 J-0.251
G1 Y18.28 F240
G3 X7.83 Y18.105 I0.175 J0
G1 X12.15
G3 Y18.495 I0 J0.195
G1 X7.83
G3 X7.655 Y18.32 I0 J-0.175
G1 Y18.3
G2 X7.399 Y17.764 I-0.689 J0
G3 X7.597 Y17.205 I0.198 J-0.245
G1 X12.926
G3 X13.245 Y17.524 I0 J0.319
G1 Y19.076
G3 X12.926 Y19.395 I-0.319 J0
G1 X7.07
G3 X6.755 Y19.08 I0 J-0.315
G1 Y17.524
G3 X7.074 Y17.205 I0.319 J0
G1 X7.597
G2 X8.276 Y16.753 I0 J-0.735
G3 X8.955 Y16.3 I0.679 J0.283
G1 X14.15
Y20.3
X5.85
Y16.3
X8.955
G3 X9.05 Y16.324 Z-3.473 I0 J0.2 F480
X9.107 Y16.37 Z-3.4 I-0.096 J0.176
X9.123 Y16.392 Z-3.3 I-0.152 J0.13
G0 Z5
X8.169 Y63.16
Z3
G1 Z-1.801 F120
G3 X8.192 Y63.169 Z-1.896 I-0.319 J0.895 F60
X8.252 Y63.194 Z-1.968 I-0.342 J0.886
X8.334 Y63.238 Z-2 I-0.402 J0.861
X7.366 Y64.872 Z-2.261 I-0.484 J0.817
X8.334 Y63.238 Z-2.522 I0.484 J-0.817
X7.366 Y64.872 Z-2.783 I-0.484 J0.817
X7.85 Y63.105 Z-3 I0.484 J-0.817
G1 X12.17 F240
G3 X12.345 Y63.28 I0 J0.175
G1 Y63.32
G3 X12.17 Y63.495 I-0.175 J0
G1 X7.83
G3 X7.655 Y63.32 I0 J-0.175
G1 Y63.28
G3 X7.83 Y63.105 I0.175 J0
G1 X7.85
G2 X8.525 Y62.655 I0 J-0.731
G3 X9.2 Y62.205 I0.675 J0.281
G1 X12.926
G3 X13.245 Y62.524 I0 J0.319
G1 Y64.076
G3 X12.926 Y64.395 I-0.319 J0
G1 X7.074
G3 X6.755 Y64.076 I0 J-0.319
G1 Y62.524
G3 X7.074 Y62.205 I0.319 J0
G1 X9.2
G2 X9.879 Y61.752 I0 J-0.735
G3 X10.557 Y61.3 I0.679 J0.283
G1 X14.15
Y65.3
X5.85
Y61.3
X10.557
G3 X11.084 Y63.04 Z-3.132 I0 J0.95 F60
G1 X8.377 Y64.845 Z-3.308
G3 X7.323 Y63.265 Z-3.47 I-0.527 J-0.79
X7.85 Y63.105 Z-3.5 I0.527 J0.79
G1 X12.17 F240
G3 X12.345 Y63.28 I0 J0.175
G1 Y63.32
G3 X12.17 Y63.495 I-0.175 J0
G1 X7.83
G3 X7.655 Y63.32 I0 J-0.175
G1 Y63.28
G3 X7.83 Y63.105 I0.175 J0
G1 X7.85
G2 X8.525 Y62.655 I0 J-0.731
G3 X9.2 Y62.205 I0.675 J0.281
G1 X12.926
G3 X13.245 Y62.524 I0 J0.319
G1 Y64.076
G3 X12.926 Y64.395 I-0.319 J0
G1 X7.074
G3 X6.755 Y64.076 I0 J-0.319
G1 Y62.524
G3 X7.074 Y62.205 I0.319 J0
G1 X9.2
G2 X9.879 Y61.752 I0 J-0.735
G3 X10.557 Y61.3 I0.679 J0.283
G1 X14.15
Y65.3
X5.85
Y61.3
X10.557
G3 X10.653 Y61.324 Z-3.473 I0 J0.2 F480
X10.71 Y61.37 Z-3.4 I-0.096 J0.176
X10.726 Y61.392 Z-3.3 I-0.152 J0.13
G0 Z15

(MILL 2MM CONTOURS)
M8
G0 X0.2 Y-0.3
Z15
Z2
G1 Z-0.675 F60
Y-0.293 Z-0.727
Y-0.273 Z-0.775
Y-0.241 Z-0.816
Y-0.2 Z-0.848
Y-0.152 Z-0.868
Y-0.1 Z-0.875
Y0.1 F120
G3 X0 Y0.3 I-0.2 J0
G2 X-1 Y1.3 I0 J1 F240
G1 Y80.3
G2 X0 Y81.3 I1 J0
G1 X3.95
G2 X4.95 Y80.3 I0 J-1
G1 Y77.3
G2 X3.95 Y76.3 I-1 J0
G1 X3.6
Y76
X6.4
Y76.3
X6.05
G2 X5.05 Y77.3 I0 J1
G1 Y81.6
G2 X6.05 Y82.6 I1 J0
G1 X13.95
G2 X14.95 Y81.6 I0 J-1
G1 Y77.3
G2 X13.95 Y76.3 I-1 J0
G1 X13.6
Y76
X16.4
Y76.3
X16.05
G2 X15.05 Y77.3 I0 J1
G1 Y80.3
G2 X16.05 Y81.3 I1 J0
G1 X20.5
G2 X21.5 Y80.3 I0 J-1
G1 Y1.3
G2 X20.5 Y0.3 I-1 J0
G1 X16.05
G2 X15.05 Y1.3 I0 J1
G1 Y4.3
G2 X16.05 Y5.3 I1 J0
G1 X16.4
Y5.6
X13.6
Y5.3
X13.95
G2 X14.95 Y4.3 I0 J-1
G1 Y1.3
Y0
G2 X13.95 Y-1 I-1 J0
G1 X6.05
G2 X5.05 Y0 I0 J1
G1 Y4.3
G2 X6.05 Y5.3 I1 J0
G1 X6.4
Y5.6
X3.6
Y5.3
X3.95
G2 X4.95 Y4.3 I0 J-1
G1 Y1.3
G2 X3.95 Y0.3 I-1 J0
G1 X0
G3 X-0.2 Y0.1 I0 J-0.2 F480
G1 Y-0.1
Y-0.152 Z-0.868
Y-0.2 Z-0.848
Y-0.241 Z-0.816
Y-0.273 Z-0.775
Y-0.293 Z-0.727
Y-0.3 Z-0.675
X0.2 F240
Z-1.55 F60
Y-0.293 Z-1.602
Y-0.273 Z-1.65
Y-0.241 Z-1.691
Y-0.2 Z-1.723
Y-0.152 Z-1.743
Y-0.1 Z-1.75
Y0.1 F120
G3 X0 Y0.3 I-0.2 J0
G2 X-1 Y1.3 I0 J1 F240
G1 Y80.3
G2 X0 Y81.3 I1 J0
G1 X3.95
G2 X4.95 Y80.3 I0 J-1
G1 Y77.3
G2 X3.95 Y76.3 I-1 J0
G1 X3.6
Y76
X6.4
Y76.3
X6.05
G2 X5.05 Y77.3 I0 J1
G1 Y81.6
G2 X6.05 Y82.6 I1 J0
G1 X13.95
G2 X14.95 Y81.6 I0 J-1
G1 Y77.3
G2 X13.95 Y76.3 I-1 J0
G1 X13.6
Y76
X16.4
Y76.3
X16.05
G2 X15.05 Y77.3 I0 J1
G1 Y80.3
G2 X16.05 Y81.3 I1 J0
G1 X20.5
G2 X21.5 Y80.3 I0 J-1
G1 Y1.3
G2 X20.5 Y0.3 I-1 J0
G1 X16.05
G2 X15.05 Y1.3 I0 J1
G1 Y4.3
G2 X16.05 Y5.3 I1 J0
G1 X16.4
Y5.6
X13.6
Y5.3
X13.95
G2 X14.95 Y4.3 I0 J-1
G1 Y1.3
Y0
G2 X13.95 Y-1 I-1 J0
G1 X6.05
G2 X5.05 Y0 I0 J1
G1 Y4.3
G2 X6.05 Y5.3 I1 J0
G1 X6.4
Y5.6
X3.6
Y5.3
X3.95
G2 X4.95 Y4.3 I0 J-1
G1 Y1.3
G2 X3.95 Y0.3 I-1 J0
G1 X0
G3 X-0.2 Y0.1 I0 J-0.2 F480
G1 Y-0.1
Y-0.152 Z-1.743
Y-0.2 Z-1.723
Y-0.241 Z-1.691
Y-0.273 Z-1.65
Y-0.293 Z-1.602
Y-0.3 Z-1.55
X0.2 F240
Z-2.425 F60
Y-0.293 Z-2.477
Y-0.273 Z-2.525
Y-0.241 Z-2.566
Y-0.2 Z-2.598
Y-0.152 Z-2.618
Y-0.1 Z-2.625
Y0.1 F120
G3 X0 Y0.3 I-0.2 J0
G2 X-1 Y1.3 I0 J1 F240
G1 Y80.3
G2 X0 Y81.3 I1 J0
G1 X3.95
G2 X4.95 Y80.3 I0 J-1
G1 Y77.3
G2 X3.95 Y76.3 I-1 J0
G1 X3.6
Y76
X6.4
Y76.3
X6.05
G2 X5.05 Y77.3 I0 J1
G1 Y81.6
G2 X6.05 Y82.6 I1 J0
G1 X13.95
G2 X14.95 Y81.6 I0 J-1
G1 Y77.3
G2 X13.95 Y76.3 I-1 J0
G1 X13.6
Y76
X16.4
Y76.3
X16.05
G2 X15.05 Y77.3 I0 J1
G1 Y80.3
G2 X16.05 Y81.3 I1 J0
G1 X20.5
G2 X21.5 Y80.3 I0 J-1
G1 Y1.3
G2 X20.5 Y0.3 I-1 J0
G1 X16.05
G2 X15.05 Y1.3 I0 J1
G1 Y4.3
G2 X16.05 Y5.3 I1 J0
G1 X16.4
Y5.6
X13.6
Y5.3
X13.95
G2 X14.95 Y4.3 I0 J-1
G1 Y1.3
Y0
G2 X13.95 Y-1 I-1 J0
G1 X6.05
G2 X5.05 Y0 I0 J1
G1 Y4.3
G2 X6.05 Y5.3 I1 J0
G1 X6.4
Y5.6
X3.6
Y5.3
X3.95
G2 X4.95 Y4.3 I0 J-1
G1 Y1.3
G2 X3.95 Y0.3 I-1 J0
G1 X0
G3 X-0.2 Y0.1 I0 J-0.2 F480
G1 Y-0.1
Y-0.152 Z-2.618
Y-0.2 Z-2.598
Y-0.241 Z-2.566
Y-0.273 Z-2.525
Y-0.293 Z-2.477
Y-0.3 Z-2.425
X0.2 F240
Z-3.3 F60
Y-0.293 Z-3.352
Y-0.273 Z-3.4
Y-0.241 Z-3.441
Y-0.2 Z-3.473
Y-0.152 Z-3.493
Y-0.1 Z-3.5
Y0.1 F120
G3 X0 Y0.3 I-0.2 J0
G2 X-1 Y1.3 I0 J1 F240
G1 Y80.3
G2 X0 Y81.3 I1 J0
G1 X3.95
G2 X4.95 Y80.3 I0 J-1
G1 Y77.3
G2 X3.95 Y76.3 I-1 J0
G1 X3.6
Y76
X6.4
Y76.3
X6.05
G2 X5.05 Y77.3 I0 J1
G1 Y81.6
G2 X6.05 Y82.6 I1 J0
G1 X13.95
G2 X14.95 Y81.6 I0 J-1
G1 Y77.3
G2 X13.95 Y76.3 I-1 J0
G1 X13.6
Y76
X16.4
Y76.3
X16.05
G2 X15.05 Y77.3 I0 J1
G1 Y80.3
G2 X16.05 Y81.3 I1 J0
G1 X20.5
G2 X21.5 Y80.3 I0 J-1
G1 Y1.3
G2 X20.5 Y0.3 I-1 J0
G1 X16.05
G2 X15.05 Y1.3 I0 J1
G1 Y4.3
G2 X16.05 Y5.3 I1 J0
G1 X16.4
Y5.6
X13.6
Y5.3
X13.95
G2 X14.95 Y4.3 I0 J-1
G1 Y1.3
Y0
G2 X13.95 Y-1 I-1 J0
G1 X6.05
G2 X5.05 Y0 I0 J1
G1 Y4.3
G2 X6.05 Y5.3 I1 J0
G1 X6.4
Y5.6
X3.6
Y5.3
X3.95
G2 X4.95 Y4.3 I0 J-1
G1 Y1.3
G2 X3.95 Y0.3 I-1 J0
G1 X0
G3 X-0.2 Y0.1 I0 J-0.2 F480
G1 Y-0.1
Y-0.152 Z-3.493
Y-0.2 Z-3.473
Y-0.241 Z-3.441
Y-0.273 Z-3.4
Y-0.293 Z-3.352
Y-0.3 Z-3.3
G0 Z15

M9
M30
