(DRILL 2MM HOLES)
(T46  D=2 CR=0 TAPER=118DEG - ZMIN=-4 - DRILL)
G90 G94 G91.1 G40 G49 G17
G21

(DRILL 2MM HOLES)
M5
M9
T46
(DIAMOND OR SPIRAL)
S16000 M3
G54
M8
G0 X5.5 Y183.1
G43 Z11 H1
Z1
G98 G73 X5.5 Y183.1 Z-4 R1 Q0.5 F60
X15.5
X19 Y147.8
Y92.8
Y37.8
X17.5 Y29.8
X3.5
X17.5 Y15.8
X3.5
X5.5 Y2.5
X15.5
G80
Z11

M9
M30
