(DRILL 2MM HOLES)
(T53  D=1.6 CR=0 TAPER=118DEG - ZMIN=-10.5 - DRILL)
G90 G94 G91.1 G40 G49 G17
G21

(DRILL 1.6MM MOUNT HOLES)
M5
M9
T53
(DIAMOND OR SPIRAL)
S16000 M3
G54
M8
G0 X17.5 Y15.8
G43 Z11 H1
Z1
G98 G73 X17.5 Y15.8 Z-10.5 R1 Q1 F60
X3.5
Y29.8
X17.5
X18 Y159.8
Y165.8
X3
Y159.8
G80
Z11

M9
M30
