(DRILL 2MM HOLES)
(T11  D=2 CR=0 - ZMIN=-3.5 - FLAT END MILL)
G90 G94 G91.1 G40 G49 G17
G21

(CONTOUR OUTER PERIMETER)
M5
M9
T11
(DIAMOND OR SPIRAL)
S16000 M3
G54
M8
G0 X35.462 Y163.701
G43 Z15 H1
Z2
G1 Z-0.625 F60
X35.455 Z-0.677
X35.435 Y163.698 Z-0.725
X35.404 Y163.694 Z-0.766
X35.362 Y163.689 Z-0.798
X35.315 Y163.683 Z-0.818
X35.263 Y163.676 Z-0.825
X35.065 Y163.651 F120
G3 X34.892 Y163.427 I0.025 J-0.198
G2 X34.9 Y163.3 I-0.992 J-0.127 F240
G1 Y158.3
G2 X33.9 Y157.3 I-1 J0
G1 Y101.85
G2 X34.9 Y100.85 I0 J-1
G1 Y95.85
G2 X33.9 Y94.85 I-1 J0
G1 Y78.507
G2 X33.233 Y77.564 I-1 J0
G3 X29.9 Y72.85 I1.667 J-4.714
G1 Y9.4
G2 X20.5 Y0 I-9.4 J0
G1 X18.049
G2 X15.6 Y-1 I-2.449 J2.5
G1 X5.4
G2 X2.951 Y0 I0 J3.5
G1 X0
G2 X-1 Y1 I0 J1
G1 Y184.6
G2 X0 Y185.6 I1 J0
G1 X2.95
G2 X5.4 Y186.6 I2.45 J-2.5
G1 X15.6
G2 X18.049 Y185.6 I0 J-3.5
G1 X20.5
G2 X33.9 Y172.2 I0 J-13.4
G1 Y164.3
G2 X34.892 Y163.427 I0 J-1
G3 X35.116 Y163.254 I0.198 J0.025 F480
G1 X35.314 Y163.279
X35.365 Y163.286 Z-0.818
X35.413 Y163.292 Z-0.798
X35.454 Y163.297 Z-0.766
X35.486 Y163.301 Z-0.725
X35.506 Y163.304 Z-0.677
X35.512 Y163.305 Z-0.625
X35.462 Y163.701 F240
Z-1.45 F60
X35.455 Z-1.502
X35.435 Y163.698 Z-1.55
X35.404 Y163.694 Z-1.591
X35.362 Y163.689 Z-1.623
X35.315 Y163.683 Z-1.643
X35.263 Y163.676 Z-1.65
X35.065 Y163.651 F120
G3 X34.892 Y163.427 I0.025 J-0.198
G2 X34.9 Y163.3 I-0.992 J-0.127 F240
G1 Y158.3
G2 X33.9 Y157.3 I-1 J0
G1 Y101.85
G2 X34.9 Y100.85 I0 J-1
G1 Y95.85
G2 X33.9 Y94.85 I-1 J0
G1 Y78.507
G2 X33.233 Y77.564 I-1 J0
G3 X29.9 Y72.85 I1.667 J-4.714
G1 Y9.4
G2 X20.5 Y0 I-9.4 J0
G1 X18.049
G2 X15.6 Y-1 I-2.449 J2.5
G1 X5.4
G2 X2.951 Y0 I0 J3.5
G1 X0
G2 X-1 Y1 I0 J1
G1 Y184.6
G2 X0 Y185.6 I1 J0
G1 X2.95
G2 X5.4 Y186.6 I2.45 J-2.5
G1 X15.6
G2 X18.049 Y185.6 I0 J-3.5
G1 X20.5
G2 X33.9 Y172.2 I0 J-13.4
G1 Y164.3
G2 X34.892 Y163.427 I0 J-1
G3 X35.116 Y163.254 I0.198 J0.025 F480
G1 X35.314 Y163.279
X35.365 Y163.286 Z-1.643
X35.413 Y163.292 Z-1.623
X35.454 Y163.297 Z-1.591
X35.486 Y163.301 Z-1.55
X35.506 Y163.304 Z-1.502
X35.512 Y163.305 Z-1.45
X35.462 Y163.701 F240
Z-2.275 F60
X35.455 Z-2.327
X35.435 Y163.698 Z-2.375
X35.404 Y163.694 Z-2.416
X35.362 Y163.689 Z-2.448
X35.315 Y163.683 Z-2.468
X35.263 Y163.676 Z-2.475
X35.065 Y163.651 F120
G3 X34.892 Y163.427 I0.025 J-0.198
G2 X34.9 Y163.3 I-0.992 J-0.127 F240
G1 Y158.3
G2 X33.9 Y157.3 I-1 J0
G1 Y101.85
G2 X34.9 Y100.85 I0 J-1
G1 Y95.85
G2 X33.9 Y94.85 I-1 J0
G1 Y78.507
G2 X33.233 Y77.564 I-1 J0
G3 X29.9 Y72.85 I1.667 J-4.714
G1 Y9.4
G2 X20.5 Y0 I-9.4 J0
G1 X18.049
G2 X15.6 Y-1 I-2.449 J2.5
G1 X5.4
G2 X2.951 Y0 I0 J3.5
G1 X0
G2 X-1 Y1 I0 J1
G1 Y184.6
G2 X0 Y185.6 I1 J0
G1 X2.95
G2 X5.4 Y186.6 I2.45 J-2.5
G1 X15.6
G2 X18.049 Y185.6 I0 J-3.5
G1 X20.5
G2 X33.9 Y172.2 I0 J-13.4
G1 Y164.3
G2 X34.892 Y163.427 I0 J-1
G3 X35.116 Y163.254 I0.198 J0.025 F480
G1 X35.314 Y163.279
X35.365 Y163.286 Z-2.468
X35.413 Y163.292 Z-2.448
X35.454 Y163.297 Z-2.416
X35.486 Y163.301 Z-2.375
X35.506 Y163.304 Z-2.327
X35.512 Y163.305 Z-2.275
X35.462 Y163.701 F240
Z-2.788 F60
X35.455 Z-2.839
X35.435 Y163.698 Z-2.888
X35.404 Y163.694 Z-2.929
X35.362 Y163.689 Z-2.961
X35.315 Y163.683 Z-2.981
X35.263 Y163.676 Z-2.987
X35.065 Y163.651 F120
G3 X34.892 Y163.427 I0.025 J-0.198
G2 X34.9 Y163.3 I-0.992 J-0.127 F240
G1 Y158.3
G2 X33.9 Y157.3 I-1 J0
G1 Y101.85
G2 X34.9 Y100.85 I0 J-1
G1 Y95.85
G2 X33.9 Y94.85 I-1 J0
G1 Y78.507
G2 X33.233 Y77.564 I-1 J0
G3 X29.9 Y72.85 I1.667 J-4.714
G1 Y9.4
G2 X20.5 Y0 I-9.4 J0
G1 X18.049
G2 X15.6 Y-1 I-2.449 J2.5
G1 X5.4
G2 X2.951 Y0 I0 J3.5
G1 X0
G2 X-1 Y1 I0 J1
G1 Y184.6
G2 X0 Y185.6 I1 J0
G1 X2.95
G2 X5.4 Y186.6 I2.45 J-2.5
G1 X15.6
G2 X18.049 Y185.6 I0 J-3.5
G1 X20.5
G2 X33.9 Y172.2 I0 J-13.4
G1 Y164.3
G2 X34.892 Y163.427 I0 J-1
G3 X35.116 Y163.254 I0.198 J0.025 F480
G1 X35.314 Y163.279
X35.365 Y163.286 Z-2.981
X35.413 Y163.292 Z-2.961
X35.454 Y163.297 Z-2.929
X35.486 Y163.301 Z-2.888
X35.506 Y163.304 Z-2.839
X35.512 Y163.305 Z-2.788
X35.462 Y163.701 F240
Z-3.3 F60
X35.455 Z-3.352
X35.435 Y163.698 Z-3.4
X35.404 Y163.694 Z-3.441
X35.362 Y163.689 Z-3.473
X35.315 Y163.683 Z-3.493
X35.263 Y163.676 Z-3.5
X35.065 Y163.651 F120
G3 X34.892 Y163.427 I0.025 J-0.198
G2 X34.9 Y163.3 I-0.992 J-0.127 F240
G1 Y158.3
G2 X33.9 Y157.3 I-1 J0
G1 Y101.85
G2 X34.9 Y100.85 I0 J-1
G1 Y95.85
G2 X33.9 Y94.85 I-1 J0
G1 Y78.507
G2 X33.233 Y77.564 I-1 J0
G3 X29.9 Y72.85 I1.667 J-4.714
G1 Y9.4
G2 X20.5 Y0 I-9.4 J0
G1 X18.049
G2 X15.6 Y-1 I-2.449 J2.5
G1 X5.4
G2 X2.951 Y0 I0 J3.5
G1 X0
G2 X-1 Y1 I0 J1
G1 Y184.6
G2 X0 Y185.6 I1 J0
G1 X2.95
G2 X5.4 Y186.6 I2.45 J-2.5
G1 X15.6
G2 X18.049 Y185.6 I0 J-3.5
G1 X20.5
G2 X33.9 Y172.2 I0 J-13.4
G1 Y164.3
G2 X34.892 Y163.427 I0 J-1
G3 X35.116 Y163.254 I0.198 J0.025 F480
G1 X35.314 Y163.279
X35.365 Y163.286 Z-3.493
X35.413 Y163.292 Z-3.473
X35.454 Y163.297 Z-3.441
X35.486 Y163.301 Z-3.4
X35.506 Y163.304 Z-3.352
X35.512 Y163.305 Z-3.3
G0 Z15

M9
M30
