(FRAME-SIDE)
(T11  D=2 CR=0 - ZMIN=-1.5 - FLAT END MILL)
G90 G94 G91.1 G40 G49 G17
G21

(CONTOUR 2MM)
M5
M9
T11
(DIAMOND OR SPIRAL)
S16000 M3
G54
M8
G0 X2.6 Y90.3
G43 Z15 H1
Z3
G1 Z2 F60
Z-0.7
Y95.486 F240
G2 X2.89 Y96.19 I1 J0
X2.186 Y95.9 I-0.705 J0.71
G1 X1.814
G2 X1.11 Y96.19 I0 J1
X1.4 Y95.486 I-0.71 J-0.705
G1 Y90.114
G2 X1.11 Y89.41 I-1 J0
X1.814 Y89.7 I0.705 J-0.71
G1 X2.186
G2 X2.89 Y89.41 I0 J-1
X2.6 Y90.114 I0.71 J0.705
G1 Y90.3
Z-1.4 F60
Y95.486 F240
G2 X2.89 Y96.19 I1 J0
X2.186 Y95.9 I-0.705 J0.71
G1 X1.814
G2 X1.11 Y96.19 I0 J1
X1.4 Y95.486 I-0.71 J-0.705
G1 Y90.114
G2 X1.11 Y89.41 I-1 J0
X1.814 Y89.7 I0.705 J-0.71
G1 X2.186
G2 X2.89 Y89.41 I0 J-1
X2.6 Y90.114 I0.71 J0.705
G1 Y90.3
G0 Z5
X-9.8 Y98.35
Z3
G1 Z2 F60
Z-0.7
Y98.536 F240
G2 X-9.51 Y99.24 I1 J0
X-10.214 Y98.95 I-0.704 J0.71
G1 X-10.586
G2 X-11.29 Y99.24 I0 J1
X-11 Y98.536 I-0.71 J-0.704
G1 Y98.164
G2 X-11.29 Y97.46 I-1 J0
X-10.586 Y97.75 I0.704 J-0.71
G1 X-10.214
G2 X-9.51 Y97.46 I0 J-1
X-9.8 Y98.164 I0.71 J0.704
G1 Y98.35
Z-1.4 F60
Y98.536 F240
G2 X-9.51 Y99.24 I1 J0
X-10.214 Y98.95 I-0.704 J0.71
G1 X-10.586
G2 X-11.29 Y99.24 I0 J1
X-11 Y98.536 I-0.71 J-0.704
G1 Y98.164
G2 X-11.29 Y97.46 I-1 J0
X-10.586 Y97.75 I0.704 J-0.71
G1 X-10.214
G2 X-9.51 Y97.46 I0 J-1
X-9.8 Y98.164 I0.71 J0.704
G1 Y98.35
G0 Z5
X2.6 Y150.3
Z3
G1 Z2 F60
Z-0.7
Y150.486 F240
G2 X2.884 Y151.184 I1 J0
X2.186 Y150.9 I-0.698 J0.716
G1 X1.814
G2 X1.116 Y151.184 I0 J1
X1.4 Y150.486 I-0.716 J-0.698
G1 Y145.114
G2 X1.116 Y144.416 I-1 J0
X1.814 Y144.7 I0.698 J-0.716
G1 X2.186
G2 X2.884 Y144.416 I0 J-1
X2.6 Y145.114 I0.716 J0.698
G1 Y150.3
Z-1.4 F60
Y150.486 F240
G2 X2.884 Y151.184 I1 J0
X2.186 Y150.9 I-0.698 J0.716
G1 X1.814
G2 X1.116 Y151.184 I0 J1
X1.4 Y150.486 I-0.716 J-0.698
G1 Y145.114
G2 X1.116 Y144.416 I-1 J0
X1.814 Y144.7 I0.698 J-0.716
G1 X2.186
G2 X2.884 Y144.416 I0 J-1
X2.6 Y145.114 I0.716 J0.698
G1 Y150.3
G0 Z5
X-0.4 Y160.8
Z3
G1 Z2 F60
Z-0.7
Y160.986 F240
G2 X-0.116 Y161.684 I1 J0
X-0.814 Y161.4 I-0.698 J0.716
G1 X-1.186
G2 X-1.884 Y161.684 I0 J1
X-1.6 Y160.986 I-0.716 J-0.698
G1 Y160.614
G2 X-1.884 Y159.916 I-1 J0
X-1.186 Y160.2 I0.698 J-0.716
G1 X-0.814
G2 X-0.116 Y159.916 I0 J-1
X-0.4 Y160.614 I0.716 J0.698
G1 Y160.8
Z-1.4 F60
Y160.986 F240
G2 X-0.116 Y161.684 I1 J0
X-0.814 Y161.4 I-0.698 J0.716
G1 X-1.186
G2 X-1.884 Y161.684 I0 J1
X-1.6 Y160.986 I-0.716 J-0.698
G1 Y160.614
G2 X-1.884 Y159.916 I-1 J0
X-1.186 Y160.2 I0.698 J-0.716
G1 X-0.814
G2 X-0.116 Y159.916 I0 J-1
X-0.4 Y160.614 I0.716 J0.698
G1 Y160.8
G0 Z5
X-9.8
Z3
G1 Z2 F60
Z-0.7
Y160.986 F240
G2 X-9.516 Y161.684 I1 J0
X-10.214 Y161.4 I-0.698 J0.716
G1 X-10.586
G2 X-11.284 Y161.684 I0 J1
X-11 Y160.986 I-0.716 J-0.698
G1 Y160.614
G2 X-11.284 Y159.916 I-1 J0
X-10.586 Y160.2 I0.698 J-0.716
G1 X-10.214
G2 X-9.516 Y159.916 I0 J-1
X-9.8 Y160.614 I0.716 J0.698
G1 Y160.8
Z-1.4 F60
Y160.986 F240
G2 X-9.516 Y161.684 I1 J0
X-10.214 Y161.4 I-0.698 J0.716
G1 X-10.586
G2 X-11.284 Y161.684 I0 J1
X-11 Y160.986 I-0.716 J-0.698
G1 Y160.614
G2 X-11.284 Y159.916 I-1 J0
X-10.586 Y160.2 I0.698 J-0.716
G1 X-10.214
G2 X-9.516 Y159.916 I0 J-1
X-9.8 Y160.614 I0.716 J0.698
G1 Y160.8
G0 Z5
X14.9 Y151.3
Z3
G1 Z2 F60
Z-0.7
G3 X14.7 I-0.1 J0 F240
G1 Y148.3
G3 X14.9 I0.1 J0
G1 Y151.3
Z-1.4 F60
G3 X14.7 I-0.1 J0 F240
G1 Y148.3
G3 X14.9 I0.1 J0
G1 Y151.3
G0 Z5
X18.5 Y177.7
Z3
G1 Z2 F60
Z-0.7
Y177.886 F240
G2 X18.784 Y178.584 I1 J0
X18.086 Y178.3 I-0.698 J0.716
G1 X17.714
G2 X17.016 Y178.584 I0 J1
X17.3 Y177.886 I-0.716 J-0.698
G1 Y177.514
G2 X17.016 Y176.816 I-1 J0
X17.714 Y177.1 I0.698 J-0.716
G1 X18.086
G2 X18.784 Y176.816 I0 J-1
X18.5 Y177.514 I0.716 J0.698
G1 Y177.7
Z-1.4 F60
Y177.886 F240
G2 X18.784 Y178.584 I1 J0
X18.086 Y178.3 I-0.698 J0.716
G1 X17.714
G2 X17.016 Y178.584 I0 J1
X17.3 Y177.886 I-0.716 J-0.698
G1 Y177.514
G2 X17.016 Y176.816 I-1 J0
X17.714 Y177.1 I0.698 J-0.716
G1 X18.086
G2 X18.784 Y176.816 I0 J-1
X18.5 Y177.514 I0.716 J0.698
G1 Y177.7
G0 Z5
X14.08 Y182.78
Z3
G1 Z2 F60
Z-0.7
G2 X14.382 Y183.1 I0.861 J-0.509 F240
X13.943 Y183.993 I0.559 J0.829
X13.236 Y183.7 I-0.707 J0.707
G1 X7.764
G2 X7.057 Y183.993 I0 J1
X6.618 Y183.1 I-0.998 J-0.064
X7.057 Y182.207 I-0.559 J-0.829
X7.764 Y182.5 I0.707 J-0.707
G1 X13.236
G2 X13.943 Y182.207 I0 J-1
X14.08 Y182.78 I0.998 J0.064
G1 Z-1.4 F60
G2 X14.382 Y183.1 I0.861 J-0.509 F240
X13.943 Y183.993 I0.559 J0.829
X13.236 Y183.7 I-0.707 J0.707
G1 X7.764
G2 X7.057 Y183.993 I0 J1
X6.618 Y183.1 I-0.998 J-0.064
X7.057 Y182.207 I-0.559 J-0.829
X7.764 Y182.5 I0.707 J-0.707
G1 X13.236
G2 X13.943 Y182.207 I0 J-1
X14.08 Y182.78 I0.998 J0.064
G0 Z5
X2.6 Y35.3
Z3
G1 Z2 F60
Z-0.7
Y40.486 F240
G2 X2.89 Y41.19 I1 J0
X2.186 Y40.9 I-0.705 J0.71
G1 X1.814
G2 X1.11 Y41.19 I0 J1
X1.4 Y40.486 I-0.71 J-0.705
G1 Y35.114
G2 X1.11 Y34.41 I-1 J0
X1.814 Y34.7 I0.705 J-0.71
G1 X2.186
G2 X2.89 Y34.41 I0 J-1
X2.6 Y35.114 I0.71 J0.705
G1 Y35.3
Z-1.4 F60
Y40.486 F240
G2 X2.89 Y41.19 I1 J0
X2.186 Y40.9 I-0.705 J0.71
G1 X1.814
G2 X1.11 Y41.19 I0 J1
X1.4 Y40.486 I-0.71 J-0.705
G1 Y35.114
G2 X1.11 Y34.41 I-1 J0
X1.814 Y34.7 I0.705 J-0.71
G1 X2.186
G2 X2.89 Y34.41 I0 J-1
X2.6 Y35.114 I0.71 J0.705
G1 Y35.3
G0 Z5
X-0.4 Y24.8
Z3
G1 Z2 F60
Z-0.7
Y24.986 F240
G2 X-0.109 Y25.691 I1 J0
X-0.814 Y25.4 I-0.705 J0.709
G1 X-1.186
G2 X-1.89 Y25.69 I0 J1
X-1.6 Y24.986 I-0.71 J-0.705
G1 Y24.614
G2 X-1.89 Y23.91 I-1 J0
X-1.186 Y24.2 I0.705 J-0.71
G1 X-0.814
G2 X-0.109 Y23.909 I0 J-1
X-0.4 Y24.614 I0.709 J0.705
G1 Y24.8
Z-1.4 F60
Y24.986 F240
G2 X-0.109 Y25.691 I1 J0
X-0.814 Y25.4 I-0.705 J0.709
G1 X-1.186
G2 X-1.89 Y25.69 I0 J1
X-1.6 Y24.986 I-0.71 J-0.705
G1 Y24.614
G2 X-1.89 Y23.91 I-1 J0
X-1.186 Y24.2 I0.705 J-0.71
G1 X-0.814
G2 X-0.109 Y23.909 I0 J-1
X-0.4 Y24.614 I0.709 J0.705
G1 Y24.8
G0 Z5
X14.9 Y34.3
Z3
G1 Z2 F60
Z-0.7
Y37.3 F240
G3 X14.7 I-0.1 J0
G1 Y34.3
G3 X14.9 I0.1 J0
G1 Z-1.4 F60
Y37.3 F240
G3 X14.7 I-0.1 J0
G1 Y34.3
G3 X14.9 I0.1 J0
G0 Z5
X18.5 Y7.9
Z3
G1 Z2 F60
Z-0.7
Y8.086 F240
G2 X18.79 Y8.79 I1 J0
X18.086 Y8.5 I-0.705 J0.71
G1 X17.714
G2 X17.01 Y8.79 I0 J1
X17.3 Y8.086 I-0.71 J-0.705
G1 Y7.714
G2 X17.01 Y7.01 I-1 J0
X17.714 Y7.3 I0.705 J-0.71
G1 X18.086
G2 X18.79 Y7.01 I0 J-1
X18.5 Y7.714 I0.71 J0.705
G1 Y7.9
Z-1.4 F60
Y8.086 F240
G2 X18.79 Y8.79 I1 J0
X18.086 Y8.5 I-0.705 J0.71
G1 X17.714
G2 X17.01 Y8.79 I0 J1
X17.3 Y8.086 I-0.71 J-0.705
G1 Y7.714
G2 X17.01 Y7.01 I-1 J0
X17.714 Y7.3 I0.705 J-0.71
G1 X18.086
G2 X18.79 Y7.01 I0 J-1
X18.5 Y7.714 I0.71 J0.705
G1 Y7.9
G0 Z5
X14.08 Y2.82
Z3
G1 Z2 F60
Z-0.7
G2 X13.943 Y3.393 I0.861 J0.509 F240
X13.236 Y3.1 I-0.707 J0.707
G1 X7.764
G2 X7.057 Y3.393 I0 J1
X6.618 Y2.5 I-0.998 J-0.064
X7.057 Y1.607 I-0.559 J-0.829
X7.764 Y1.9 I0.707 J-0.707
G1 X13.236
G2 X13.943 Y1.607 I0 J-1
X14.382 Y2.5 I0.998 J0.064
X14.08 Y2.82 I0.559 J0.829
G1 Z-1.4 F60
G2 X13.943 Y3.393 I0.861 J0.509 F240
X13.236 Y3.1 I-0.707 J0.707
G1 X7.764
G2 X7.057 Y3.393 I0 J1
X6.618 Y2.5 I-0.998 J-0.064
X7.057 Y1.607 I-0.559 J-0.829
X7.764 Y1.9 I0.707 J-0.707
G1 X13.236
G2 X13.943 Y1.607 I0 J-1
X14.382 Y2.5 I0.998 J0.064
X14.08 Y2.82 I0.559 J0.829
G0 Z15

(POCKET 2MM PCB)
M8
G0 X19.61 Y148.529
Z15
Z5
G1 Z0.699 F120
G3 X19.634 Y148.533 Z0.604 I-0.166 J0.935 F60
X19.698 Y148.549 Z0.532 I-0.189 J0.931
X19.786 Y148.578 Z0.5 I-0.254 J0.915
X20.205 Y148.894 Z0.453 I-0.341 J0.887
X19.445 Y150.414 Z0.269 I-0.76 J0.57
Y148.514 Z0.008 I0 J-0.95
X20.205 Y148.894 Z-0.069 I0 J0.95
X19.445 Y150.414 Z-0.253 I-0.76 J0.57
Y148.514 Z-0.514 I0 J-0.95
X20.205 Y148.894 Z-0.591 I0 J0.95
X19.445 Y150.414 Z-0.775 I-0.76 J0.57
G1 X19.43 F240
G3 X19.111 Y150.095 I0 J-0.319
G1 Y35.375
G3 X19.299 I0.094 J0
G1 X19.779 Y150.095
G3 X19.461 Y150.414 I-0.318 J0.001
G1 X19.445
G2 X18.438 Y150.98 I0 J1.178
G3 X17.681 Y151.851 I-2.927 J-1.78
G2 X17.616 Y151.909 I0.633 J0.774
X17.9 Y151.211 I-0.716 J-0.698
G1 Y34.389
G2 X17.61 Y33.685 I-1 J0
X18.314 Y33.975 I0.704 J-0.71
G1 X20.504
X20.996 Y151.625
X18.314
G2 X17.681 Y151.851 I0 J1
G1 Z-0.575 F480
G0 Z15

(SLOT 2MM BOTTOM COVER)
M8
G0 X21.5 Y96.325
Z15
Z5
G1 Z4.5 F120
Z2.5
Y182.234 Z-0.5 F60
Y3.366 F240
Y182.234 Z-1.5 F60
Y3.366 F240
G0 Z15

M9
M30
