(INSERT-BRACE)
(T11  D=2 CR=0 - ZMIN=-3.5 - FLAT END MILL)
G90 G94 G91.1 G40 G49 G17
G21

(EDGE SLOTS)
M5
M9
T11
(DIAMOND OR SPIRAL)
S16000 M3
G54
M8
G0 X4.104 Y0.3
G43 Z15 H1
Z1
G1 Z0.5 F120
X0.896 Z0.25 F60
X4.104 Z0
X0.896 Z-0.25
X4.104 F240
X0.896 Z-0.5 F60
X4.104 Z-0.75
X0.896 Z-1
X4.104 F240
G0 Z5
X0.896 Y81.3
Z1
G1 Z0.5 F120
X4.104 Z0.25 F60
X0.896 Z0
X4.104 Z-0.25
X0.896 F240
X4.104 Z-0.5 F60
X0.896 Z-0.75
X4.104 Z-1
X0.896 F240
G0 Z15

(MILL 2MM CONTOURS)
M8
G0 X2.298 Y77.954
Z15
Z2
G1 Z-0.625 F60
Y77.947 Z-0.677
X2.297 Y77.927 Z-0.725
Y77.896 Z-0.766
X2.296 Y77.854 Z-0.798
X2.295 Y77.806 Z-0.818
X2.294 Y77.754 Z-0.825
X2.29 Y77.554 F120
G3 X2.486 Y77.35 I0.2 J-0.004
X2.514 Y78.75 I0.014 J0.7 F240
X2.486 Y77.35 I-0.014 J-0.7
X2.69 Y77.546 I0.004 J0.2 F480
G1 X2.694 Y77.746
X2.695 Y77.798 Z-0.818
X2.696 Y77.846 Z-0.798
X2.697 Y77.887 Z-0.766
Y77.919 Z-0.725
X2.698 Y77.939 Z-0.677
Y77.946 Z-0.625
X2.298 Y77.954 F240
Z-1.45 F60
Y77.947 Z-1.502
X2.297 Y77.927 Z-1.55
Y77.896 Z-1.591
X2.296 Y77.854 Z-1.623
X2.295 Y77.806 Z-1.643
X2.294 Y77.754 Z-1.65
X2.29 Y77.554 F120
G3 X2.486 Y77.35 I0.2 J-0.004
X2.514 Y78.75 I0.014 J0.7 F240
X2.486 Y77.35 I-0.014 J-0.7
X2.69 Y77.546 I0.004 J0.2 F480
G1 X2.694 Y77.746
X2.695 Y77.798 Z-1.643
X2.696 Y77.846 Z-1.623
X2.697 Y77.887 Z-1.591
Y77.919 Z-1.55
X2.698 Y77.939 Z-1.502
Y77.946 Z-1.45
X2.298 Y77.954 F240
Z-2.275 F60
Y77.947 Z-2.327
X2.297 Y77.927 Z-2.375
Y77.896 Z-2.416
X2.296 Y77.854 Z-2.448
X2.295 Y77.806 Z-2.468
X2.294 Y77.754 Z-2.475
X2.29 Y77.554 F120
G3 X2.486 Y77.35 I0.2 J-0.004
X2.514 Y78.75 I0.014 J0.7 F240
X2.486 Y77.35 I-0.014 J-0.7
X2.69 Y77.546 I0.004 J0.2 F480
G1 X2.694 Y77.746
X2.695 Y77.798 Z-2.468
X2.696 Y77.846 Z-2.448
X2.697 Y77.887 Z-2.416
Y77.919 Z-2.375
X2.698 Y77.939 Z-2.327
Y77.946 Z-2.275
X2.298 Y77.954 F240
Z-2.788 F60
Y77.947 Z-2.839
X2.297 Y77.927 Z-2.887
Y77.896 Z-2.929
X2.296 Y77.854 Z-2.961
X2.295 Y77.806 Z-2.981
X2.294 Y77.754 Z-2.987
X2.29 Y77.554 F120
G3 X2.486 Y77.35 I0.2 J-0.004
X2.514 Y78.75 I0.014 J0.7 F240
X2.486 Y77.35 I-0.014 J-0.7
X2.69 Y77.546 I0.004 J0.2 F480
G1 X2.694 Y77.746
X2.695 Y77.798 Z-2.981
X2.696 Y77.846 Z-2.961
X2.697 Y77.887 Z-2.929
Y77.919 Z-2.888
X2.698 Y77.939 Z-2.839
Y77.946 Z-2.788
X2.298 Y77.954 F240
Z-3.3 F60
Y77.947 Z-3.352
X2.297 Y77.927 Z-3.4
Y77.896 Z-3.441
X2.296 Y77.854 Z-3.473
X2.295 Y77.806 Z-3.493
X2.294 Y77.754 Z-3.5
X2.29 Y77.554 F120
G3 X2.486 Y77.35 I0.2 J-0.004
X2.514 Y78.75 I0.014 J0.7 F240
X2.486 Y77.35 I-0.014 J-0.7
X2.69 Y77.546 I0.004 J0.2 F480
G1 X2.694 Y77.746
X2.695 Y77.798 Z-3.493
X2.696 Y77.846 Z-3.473
X2.697 Y77.887 Z-3.441
Y77.919 Z-3.4
X2.698 Y77.939 Z-3.352
Y77.946 Z-3.3
G0 Z5
X2.277 Y3.541
Z2
G1 Z-0.625 F60
X2.274 Y3.535 Z-0.677
X2.266 Y3.517 Z-0.725
X2.253 Y3.488 Z-0.766
X2.235 Y3.45 Z-0.798
X2.216 Y3.406 Z-0.818
X2.194 Y3.359 Z-0.825
X2.112 Y3.176 F120
G3 X2.212 Y2.912 I0.182 J-0.082
X2.788 Y4.188 I0.288 J0.638 F240
X2.212 Y2.912 I-0.288 J-0.638
X2.477 Y3.012 I0.082 J0.182 F480
G1 X2.559 Y3.194
X2.58 Y3.242 Z-0.818
X2.6 Y3.285 Z-0.798
X2.617 Y3.323 Z-0.766
X2.63 Y3.352 Z-0.725
X2.638 Y3.37 Z-0.677
X2.641 Y3.377 Z-0.625
X2.277 Y3.541 F240
Z-1.45 F60
X2.274 Y3.535 Z-1.502
X2.266 Y3.517 Z-1.55
X2.253 Y3.488 Z-1.591
X2.235 Y3.45 Z-1.623
X2.216 Y3.406 Z-1.643
X2.194 Y3.359 Z-1.65
X2.112 Y3.176 F120
G3 X2.212 Y2.912 I0.182 J-0.082
X2.788 Y4.188 I0.288 J0.638 F240
X2.212 Y2.912 I-0.288 J-0.638
X2.477 Y3.012 I0.082 J0.182 F480
G1 X2.559 Y3.194
X2.58 Y3.242 Z-1.643
X2.6 Y3.285 Z-1.623
X2.617 Y3.323 Z-1.591
X2.63 Y3.352 Z-1.55
X2.638 Y3.37 Z-1.502
X2.641 Y3.377 Z-1.45
X2.277 Y3.541 F240
Z-2.275 F60
X2.274 Y3.535 Z-2.327
X2.266 Y3.517 Z-2.375
X2.253 Y3.488 Z-2.416
X2.235 Y3.45 Z-2.448
X2.216 Y3.406 Z-2.468
X2.194 Y3.359 Z-2.475
X2.112 Y3.176 F120
G3 X2.212 Y2.912 I0.182 J-0.082
X2.788 Y4.188 I0.288 J0.638 F240
X2.212 Y2.912 I-0.288 J-0.638
X2.477 Y3.012 I0.082 J0.182 F480
G1 X2.559 Y3.194
X2.58 Y3.242 Z-2.468
X2.6 Y3.285 Z-2.448
X2.617 Y3.323 Z-2.416
X2.63 Y3.352 Z-2.375
X2.638 Y3.37 Z-2.327
X2.641 Y3.377 Z-2.275
X2.277 Y3.541 F240
Z-2.788 F60
X2.274 Y3.535 Z-2.839
X2.266 Y3.517 Z-2.888
X2.253 Y3.488 Z-2.929
X2.235 Y3.45 Z-2.961
X2.216 Y3.406 Z-2.981
X2.194 Y3.359 Z-2.987
X2.112 Y3.176 F120
G3 X2.212 Y2.912 I0.182 J-0.082
X2.788 Y4.188 I0.288 J0.638 F240
X2.212 Y2.912 I-0.288 J-0.638
X2.477 Y3.012 I0.082 J0.182 F480
G1 X2.559 Y3.194
X2.58 Y3.242 Z-2.981
X2.6 Y3.285 Z-2.961
X2.617 Y3.323 Z-2.929
X2.63 Y3.352 Z-2.888
X2.638 Y3.37 Z-2.839
X2.641 Y3.377 Z-2.788
X2.277 Y3.541 F240
Z-3.3 F60
X2.274 Y3.535 Z-3.352
X2.266 Y3.517 Z-3.4
X2.253 Y3.488 Z-3.441
X2.235 Y3.45 Z-3.473
X2.216 Y3.406 Z-3.493
X2.194 Y3.359 Z-3.5
X2.112 Y3.176 F120
G3 X2.212 Y2.912 I0.182 J-0.082
X2.788 Y4.188 I0.288 J0.638 F240
X2.212 Y2.912 I-0.288 J-0.638
X2.477 Y3.012 I0.082 J0.182 F480
G1 X2.559 Y3.194
X2.58 Y3.242 Z-3.493
X2.6 Y3.285 Z-3.473
X2.617 Y3.323 Z-3.441
X2.63 Y3.352 Z-3.4
X2.638 Y3.37 Z-3.352
X2.641 Y3.377 Z-3.3
G0 Z5
X1.1 Y-1.6
Z2
G1 Z-0.625 F60
Y-1.593 Z-0.677
Y-1.573 Z-0.725
Y-1.541 Z-0.766
Y-1.5 Z-0.798
Y-1.452 Z-0.818
Y-1.4 Z-0.825
Y-1.2 F120
G3 X0.9 Y-1 I-0.2 J0
G2 X-0.1 Y0 I0 J1 F240
G1 Y1.207
G2 Y5.893 I2.6 J2.343
G1 Y75.707
G2 Y80.393 I2.6 J2.343
G1 Y81.6
G2 X0.9 Y82.6 I1 J0
G1 X4.1
G2 X5.1 Y81.6 I0 J-1
G1 Y80.393
G2 Y75.707 I-2.6 J-2.343
G1 Y5.893
G2 Y1.207 I-2.6 J-2.343
G1 Y0
G2 X4.1 Y-1 I-1 J0
G1 X0.9
G3 X0.7 Y-1.2 I0 J-0.2 F480
G1 Y-1.4
Y-1.452 Z-0.818
Y-1.5 Z-0.798
Y-1.541 Z-0.766
Y-1.573 Z-0.725
Y-1.593 Z-0.677
Y-1.6 Z-0.625
X1.1 F240
Z-1.45 F60
Y-1.593 Z-1.502
Y-1.573 Z-1.55
Y-1.541 Z-1.591
Y-1.5 Z-1.623
Y-1.452 Z-1.643
Y-1.4 Z-1.65
Y-1.2 F120
G3 X0.9 Y-1 I-0.2 J0
G2 X-0.1 Y0 I0 J1 F240
G1 Y1.207
G2 Y5.893 I2.6 J2.343
G1 Y75.707
G2 Y80.393 I2.6 J2.343
G1 Y81.6
G2 X0.9 Y82.6 I1 J0
G1 X4.1
G2 X5.1 Y81.6 I0 J-1
G1 Y80.393
G2 Y75.707 I-2.6 J-2.343
G1 Y5.893
G2 Y1.207 I-2.6 J-2.343
G1 Y0
G2 X4.1 Y-1 I-1 J0
G1 X0.9
G3 X0.7 Y-1.2 I0 J-0.2 F480
G1 Y-1.4
Y-1.452 Z-1.643
Y-1.5 Z-1.623
Y-1.541 Z-1.591
Y-1.573 Z-1.55
Y-1.593 Z-1.502
Y-1.6 Z-1.45
X1.1 F240
Z-2.275 F60
Y-1.593 Z-2.327
Y-1.573 Z-2.375
Y-1.541 Z-2.416
Y-1.5 Z-2.448
Y-1.452 Z-2.468
Y-1.4 Z-2.475
Y-1.2 F120
G3 X0.9 Y-1 I-0.2 J0
G2 X-0.1 Y0 I0 J1 F240
G1 Y1.207
G2 Y5.893 I2.6 J2.343
G1 Y75.707
G2 Y80.393 I2.6 J2.343
G1 Y81.6
G2 X0.9 Y82.6 I1 J0
G1 X4.1
G2 X5.1 Y81.6 I0 J-1
G1 Y80.393
G2 Y75.707 I-2.6 J-2.343
G1 Y5.893
G2 Y1.207 I-2.6 J-2.343
G1 Y0
G2 X4.1 Y-1 I-1 J0
G1 X0.9
G3 X0.7 Y-1.2 I0 J-0.2 F480
G1 Y-1.4
Y-1.452 Z-2.468
Y-1.5 Z-2.448
Y-1.541 Z-2.416
Y-1.573 Z-2.375
Y-1.593 Z-2.327
Y-1.6 Z-2.275
X1.1 F240
Z-2.788 F60
Y-1.593 Z-2.839
Y-1.573 Z-2.888
Y-1.541 Z-2.929
Y-1.5 Z-2.961
Y-1.452 Z-2.981
Y-1.4 Z-2.987
Y-1.2 F120
G3 X0.9 Y-1 I-0.2 J0
G2 X-0.1 Y0 I0 J1 F240
G1 Y1.207
G2 Y5.893 I2.6 J2.343
G1 Y75.707
G2 Y80.393 I2.6 J2.343
G1 Y81.6
G2 X0.9 Y82.6 I1 J0
G1 X4.1
G2 X5.1 Y81.6 I0 J-1
G1 Y80.393
G2 Y75.707 I-2.6 J-2.343
G1 Y5.893
G2 Y1.207 I-2.6 J-2.343
G1 Y0
G2 X4.1 Y-1 I-1 J0
G1 X0.9
G3 X0.7 Y-1.2 I0 J-0.2 F480
G1 Y-1.4
Y-1.452 Z-2.981
Y-1.5 Z-2.961
Y-1.541 Z-2.929
Y-1.573 Z-2.888
Y-1.593 Z-2.839
Y-1.6 Z-2.788
X1.1 F240
Z-3.3 F60
Y-1.593 Z-3.352
Y-1.573 Z-3.4
Y-1.541 Z-3.441
Y-1.5 Z-3.473
Y-1.452 Z-3.493
Y-1.4 Z-3.5
Y-1.2 F120
G3 X0.9 Y-1 I-0.2 J0
G2 X-0.1 Y0 I0 J1 F240
G1 Y1.207
G2 Y5.893 I2.6 J2.343
G1 Y75.707
G2 Y80.393 I2.6 J2.343
G1 Y81.6
G2 X0.9 Y82.6 I1 J0
G1 X4.1
G2 X5.1 Y81.6 I0 J-1
G1 Y80.393
G2 Y75.707 I-2.6 J-2.343
G1 Y5.893
G2 Y1.207 I-2.6 J-2.343
G1 Y0
G2 X4.1 Y-1 I-1 J0
G1 X0.9
G3 X0.7 Y-1.2 I0 J-0.2 F480
G1 Y-1.4
Y-1.452 Z-3.493
Y-1.5 Z-3.473
Y-1.541 Z-3.441
Y-1.573 Z-3.4
Y-1.593 Z-3.352
Y-1.6 Z-3.3
G0 Z15

M9
M30
