(FRAME-SIDE-LEFT)
(T11  D=2 CR=0 - ZMIN=-3.5 - FLAT END MILL)
G90 G94 G91.1 G40 G49 G17
G21

(CONTOUR INNER HOLES)
M5
M9
T11
(DIAMOND OR SPIRAL)
S16000 M3
G54
M8
G0 X12.575 Y159.6
G43 Z15 H1
Z2
G1 Z-0.625 F60
X12.582 Z-0.677
X12.602 Z-0.725
X12.634 Z-0.766
X12.675 Z-0.798
X12.723 Z-0.818
X12.775 Z-0.825
X12.975 F120
G3 X13.175 Y159.8 I0 J0.2
G1 Y165.8 F240
G3 X7.825 I-2.675 J0
G1 Y159.8
G3 X13.175 I2.675 J0
X12.975 Y160 I-0.2 J0 F480
G1 X12.775
X12.723 Z-0.818
X12.675 Z-0.798
X12.634 Z-0.766
X12.602 Z-0.725
X12.582 Z-0.677
X12.575 Z-0.625
Y159.6 F240
Z-1.45 F60
X12.582 Z-1.502
X12.602 Z-1.55
X12.634 Z-1.591
X12.675 Z-1.623
X12.723 Z-1.643
X12.775 Z-1.65
X12.975 F120
G3 X13.175 Y159.8 I0 J0.2
G1 Y165.8 F240
G3 X7.825 I-2.675 J0
G1 Y159.8
G3 X13.175 I2.675 J0
X12.975 Y160 I-0.2 J0 F480
G1 X12.775
X12.723 Z-1.643
X12.675 Z-1.623
X12.634 Z-1.591
X12.602 Z-1.55
X12.582 Z-1.502
X12.575 Z-1.45
Y159.6 F240
Z-2.275 F60
X12.582 Z-2.327
X12.602 Z-2.375
X12.634 Z-2.416
X12.675 Z-2.448
X12.723 Z-2.468
X12.775 Z-2.475
X12.975 F120
G3 X13.175 Y159.8 I0 J0.2
G1 Y165.8 F240
G3 X7.825 I-2.675 J0
G1 Y159.8
G3 X13.175 I2.675 J0
X12.975 Y160 I-0.2 J0 F480
G1 X12.775
X12.723 Z-2.468
X12.675 Z-2.448
X12.634 Z-2.416
X12.602 Z-2.375
X12.582 Z-2.327
X12.575 Z-2.275
Y159.6 F240
Z-2.788 F60
X12.582 Z-2.839
X12.602 Z-2.888
X12.634 Z-2.929
X12.675 Z-2.961
X12.723 Z-2.981
X12.775 Z-2.987
X12.975 F120
G3 X13.175 Y159.8 I0 J0.2
G1 Y165.8 F240
G3 X7.825 I-2.675 J0
G1 Y159.8
G3 X13.175 I2.675 J0
X12.975 Y160 I-0.2 J0 F480
G1 X12.775
X12.723 Z-2.981
X12.675 Z-2.961
X12.634 Z-2.929
X12.602 Z-2.888
X12.582 Z-2.839
X12.575 Z-2.788
Y159.6 F240
Z-3.3 F60
X12.582 Z-3.352
X12.602 Z-3.4
X12.634 Z-3.441
X12.675 Z-3.473
X12.723 Z-3.493
X12.775 Z-3.5
X12.975 F120
G3 X13.175 Y159.8 I0 J0.2
G1 Y165.8 F240
G3 X7.825 I-2.675 J0
G1 Y159.8
G3 X13.175 I2.675 J0
X12.975 Y160 I-0.2 J0 F480
G1 X12.775
X12.723 Z-3.493
X12.675 Z-3.473
X12.634 Z-3.441
X12.602 Z-3.4
X12.582 Z-3.352
X12.575 Z-3.3
G0 Z5
X17.825 Y159.6
Z2
G1 Z-0.625 F60
X17.832 Z-0.677
X17.852 Z-0.725
X17.884 Z-0.766
X17.925 Z-0.798
X17.973 Z-0.818
X18.025 Z-0.825
X18.225 F120
G3 X18.425 Y159.8 I0 J0.2
G1 Y165.8 F240
G3 X17.575 I-0.425 J0
G1 Y159.8
G3 X18.425 I0.425 J0
X18.225 Y160 I-0.2 J0 F480
G1 X18.025
X17.973 Z-0.818
X17.925 Z-0.798
X17.884 Z-0.766
X17.852 Z-0.725
X17.832 Z-0.677
X17.825 Z-0.625
Y159.6 F240
Z-1.45 F60
X17.832 Z-1.502
X17.852 Z-1.55
X17.884 Z-1.591
X17.925 Z-1.623
X17.973 Z-1.643
X18.025 Z-1.65
X18.225 F120
G3 X18.425 Y159.8 I0 J0.2
G1 Y165.8 F240
G3 X17.575 I-0.425 J0
G1 Y159.8
G3 X18.425 I0.425 J0
X18.225 Y160 I-0.2 J0 F480
G1 X18.025
X17.973 Z-1.643
X17.925 Z-1.623
X17.884 Z-1.591
X17.852 Z-1.55
X17.832 Z-1.502
X17.825 Z-1.45
Y159.6 F240
Z-2.275 F60
X17.832 Z-2.327
X17.852 Z-2.375
X17.884 Z-2.416
X17.925 Z-2.448
X17.973 Z-2.468
X18.025 Z-2.475
X18.225 F120
G3 X18.425 Y159.8 I0 J0.2
G1 Y165.8 F240
G3 X17.575 I-0.425 J0
G1 Y159.8
G3 X18.425 I0.425 J0
X18.225 Y160 I-0.2 J0 F480
G1 X18.025
X17.973 Z-2.468
X17.925 Z-2.448
X17.884 Z-2.416
X17.852 Z-2.375
X17.832 Z-2.327
X17.825 Z-2.275
Y159.6 F240
Z-2.788 F60
X17.832 Z-2.839
X17.852 Z-2.888
X17.884 Z-2.929
X17.925 Z-2.961
X17.973 Z-2.981
X18.025 Z-2.987
X18.225 F120
G3 X18.425 Y159.8 I0 J0.2
G1 Y165.8 F240
G3 X17.575 I-0.425 J0
G1 Y159.8
G3 X18.425 I0.425 J0
X18.225 Y160 I-0.2 J0 F480
G1 X18.025
X17.973 Z-2.981
X17.925 Z-2.961
X17.884 Z-2.929
X17.852 Z-2.888
X17.832 Z-2.839
X17.825 Z-2.788
Y159.6 F240
Z-3.3 F60
X17.832 Z-3.352
X17.852 Z-3.4
X17.884 Z-3.441
X17.925 Z-3.473
X17.973 Z-3.493
X18.025 Z-3.5
X18.225 F120
G3 X18.425 Y159.8 I0 J0.2
G1 Y165.8 F240
G3 X17.575 I-0.425 J0
G1 Y159.8
G3 X18.425 I0.425 J0
X18.225 Y160 I-0.2 J0 F480
G1 X18.025
X17.973 Z-3.493
X17.925 Z-3.473
X17.884 Z-3.441
X17.852 Z-3.4
X17.832 Z-3.352
X17.825 Z-3.3
G0 Z5
X2.825 Y159.6
Z2
G1 Z-0.625 F60
X2.832 Z-0.677
X2.852 Z-0.725
X2.884 Z-0.766
X2.925 Z-0.798
X2.973 Z-0.818
X3.025 Z-0.825
X3.225 F120
G3 X3.425 Y159.8 I0 J0.2
G1 Y165.8 F240
G3 X2.575 I-0.425 J0
G1 Y159.8
G3 X3.425 I0.425 J0
X3.225 Y160 I-0.2 J0 F480
G1 X3.025
X2.973 Z-0.818
X2.925 Z-0.798
X2.884 Z-0.766
X2.852 Z-0.725
X2.832 Z-0.677
X2.825 Z-0.625
Y159.6 F240
Z-1.45 F60
X2.832 Z-1.502
X2.852 Z-1.55
X2.884 Z-1.591
X2.925 Z-1.623
X2.973 Z-1.643
X3.025 Z-1.65
X3.225 F120
G3 X3.425 Y159.8 I0 J0.2
G1 Y165.8 F240
G3 X2.575 I-0.425 J0
G1 Y159.8
G3 X3.425 I0.425 J0
X3.225 Y160 I-0.2 J0 F480
G1 X3.025
X2.973 Z-1.643
X2.925 Z-1.623
X2.884 Z-1.591
X2.852 Z-1.55
X2.832 Z-1.502
X2.825 Z-1.45
Y159.6 F240
Z-2.275 F60
X2.832 Z-2.327
X2.852 Z-2.375
X2.884 Z-2.416
X2.925 Z-2.448
X2.973 Z-2.468
X3.025 Z-2.475
X3.225 F120
G3 X3.425 Y159.8 I0 J0.2
G1 Y165.8 F240
G3 X2.575 I-0.425 J0
G1 Y159.8
G3 X3.425 I0.425 J0
X3.225 Y160 I-0.2 J0 F480
G1 X3.025
X2.973 Z-2.468
X2.925 Z-2.448
X2.884 Z-2.416
X2.852 Z-2.375
X2.832 Z-2.327
X2.825 Z-2.275
Y159.6 F240
Z-2.788 F60
X2.832 Z-2.839
X2.852 Z-2.888
X2.884 Z-2.929
X2.925 Z-2.961
X2.973 Z-2.981
X3.025 Z-2.987
X3.225 F120
G3 X3.425 Y159.8 I0 J0.2
G1 Y165.8 F240
G3 X2.575 I-0.425 J0
G1 Y159.8
G3 X3.425 I0.425 J0
X3.225 Y160 I-0.2 J0 F480
G1 X3.025
X2.973 Z-2.981
X2.925 Z-2.961
X2.884 Z-2.929
X2.852 Z-2.888
X2.832 Z-2.839
X2.825 Z-2.788
Y159.6 F240
Z-3.3 F60
X2.832 Z-3.352
X2.852 Z-3.4
X2.884 Z-3.441
X2.925 Z-3.473
X2.973 Z-3.493
X3.025 Z-3.5
X3.225 F120
G3 X3.425 Y159.8 I0 J0.2
G1 Y165.8 F240
G3 X2.575 I-0.425 J0
G1 Y159.8
G3 X3.425 I0.425 J0
X3.225 Y160 I-0.2 J0 F480
G1 X3.025
X2.973 Z-3.493
X2.925 Z-3.473
X2.884 Z-3.441
X2.852 Z-3.4
X2.832 Z-3.352
X2.825 Z-3.3
G0 Z5
X13.43 Y24.858
Z2
G1 Z-0.625 F60
X13.436 Y24.862 Z-0.677
X13.451 Y24.874 Z-0.725
X13.476 Y24.894 Z-0.766
X13.509 Y24.919 Z-0.798
X13.547 Y24.949 Z-0.818
X13.587 Y24.981 Z-0.825
X13.744 Y25.105 F120
G3 X13.778 Y25.386 I-0.124 J0.157
X7.222 Y20.214 I-3.278 J-2.586 F240
X13.778 Y25.386 I3.278 J2.586
X13.497 Y25.419 I-0.157 J-0.124 F480
G1 X13.34 Y25.295
X13.299 Y25.263 Z-0.818
X13.261 Y25.233 Z-0.798
X13.229 Y25.208 Z-0.766
X13.204 Y25.188 Z-0.725
X13.188 Y25.176 Z-0.677
X13.183 Y25.172 Z-0.625
X13.43 Y24.858 F240
Z-1.45 F60
X13.436 Y24.862 Z-1.502
X13.451 Y24.874 Z-1.55
X13.476 Y24.894 Z-1.591
X13.509 Y24.919 Z-1.623
X13.547 Y24.949 Z-1.643
X13.587 Y24.981 Z-1.65
X13.744 Y25.105 F120
G3 X13.778 Y25.386 I-0.124 J0.157
X7.222 Y20.214 I-3.278 J-2.586 F240
X13.778 Y25.386 I3.278 J2.586
X13.497 Y25.419 I-0.157 J-0.124 F480
G1 X13.34 Y25.295
X13.299 Y25.263 Z-1.643
X13.261 Y25.233 Z-1.623
X13.229 Y25.208 Z-1.591
X13.204 Y25.188 Z-1.55
X13.188 Y25.176 Z-1.502
X13.183 Y25.172 Z-1.45
X13.43 Y24.858 F240
Z-2.275 F60
X13.436 Y24.862 Z-2.327
X13.451 Y24.874 Z-2.375
X13.476 Y24.894 Z-2.416
X13.509 Y24.919 Z-2.448
X13.547 Y24.949 Z-2.468
X13.587 Y24.981 Z-2.475
X13.744 Y25.105 F120
G3 X13.778 Y25.386 I-0.124 J0.157
X7.222 Y20.214 I-3.278 J-2.586 F240
X13.778 Y25.386 I3.278 J2.586
X13.497 Y25.419 I-0.157 J-0.124 F480
G1 X13.34 Y25.295
X13.299 Y25.263 Z-2.468
X13.261 Y25.233 Z-2.448
X13.229 Y25.208 Z-2.416
X13.204 Y25.188 Z-2.375
X13.188 Y25.176 Z-2.327
X13.183 Y25.172 Z-2.275
X13.43 Y24.858 F240
Z-2.788 F60
X13.436 Y24.862 Z-2.839
X13.451 Y24.874 Z-2.888
X13.476 Y24.894 Z-2.929
X13.509 Y24.919 Z-2.961
X13.547 Y24.949 Z-2.981
X13.587 Y24.981 Z-2.987
X13.744 Y25.105 F120
G3 X13.778 Y25.386 I-0.124 J0.157
X7.222 Y20.214 I-3.278 J-2.586 F240
X13.778 Y25.386 I3.278 J2.586
X13.497 Y25.419 I-0.157 J-0.124 F480
G1 X13.34 Y25.295
X13.299 Y25.263 Z-2.981
X13.261 Y25.233 Z-2.961
X13.229 Y25.208 Z-2.929
X13.204 Y25.188 Z-2.888
X13.188 Y25.176 Z-2.839
X13.183 Y25.172 Z-2.788
X13.43 Y24.858 F240
Z-3.3 F60
X13.436 Y24.862 Z-3.352
X13.451 Y24.874 Z-3.4
X13.476 Y24.894 Z-3.441
X13.509 Y24.919 Z-3.473
X13.547 Y24.949 Z-3.493
X13.587 Y24.981 Z-3.5
X13.744 Y25.105 F120
G3 X13.778 Y25.386 I-0.124 J0.157
X7.222 Y20.214 I-3.278 J-2.586 F240
X13.778 Y25.386 I3.278 J2.586
X13.497 Y25.419 I-0.157 J-0.124 F480
G1 X13.34 Y25.295
X13.299 Y25.263 Z-3.493
X13.261 Y25.233 Z-3.473
X13.229 Y25.208 Z-3.441
X13.204 Y25.188 Z-3.4
X13.188 Y25.176 Z-3.352
X13.183 Y25.172 Z-3.3
G0 Z15

M9
M30
