(FRAME-SIDE-LEFT)
(T11  D=2 CR=0 - ZMIN=-3.5 - FLAT END MILL)
G90 G94 G91.1 G40 G49 G17
G21

(CONTOUR OUTER PERIMETER)
M5
M9
T11
(DIAMOND OR SPIRAL)
S16000 M3
G54
M8
G0 X-1.6 Y0.8
G43 Z15 H1
Z2
G1 Z-0.625 F60
X-1.593 Z-0.677
X-1.573 Z-0.725
X-1.541 Z-0.766
X-1.5 Z-0.798
X-1.452 Z-0.818
X-1.4 Z-0.825
X-1.2 F120
G3 X-1 Y1 I0 J0.2
G1 Y184.6 F240
G2 X0 Y185.6 I1 J0
G1 X2.95
G2 X5.4 Y186.6 I2.45 J-2.5
G1 X15.6
G2 X18.049 Y185.6 I0 J-3.5
G1 X20.5
G2 X29.9 Y176.2 I0 J-9.4
G1 Y112.75
G3 X33.233 Y108.036 I5 J0
G2 X33.9 Y107.093 I-0.333 J-0.943
G1 Y90.75
G2 X34.9 Y89.75 I0 J-1
G1 Y84.75
G2 X33.9 Y83.75 I-1 J0
G1 Y28.3
G2 X34.9 Y27.3 I0 J-1
G1 Y22.3
G2 X33.9 Y21.3 I-1 J0
G1 Y13.4
G2 X20.5 Y0 I-13.4 J0
G1 X18.049
G2 X15.6 Y-1 I-2.449 J2.5
G1 X5.4
G2 X2.951 Y0 I0 J3.5
G1 X0
G2 X-1 Y1 I0 J1
G3 X-1.2 Y1.2 I-0.2 J0 F480
G1 X-1.4
X-1.452 Z-0.818
X-1.5 Z-0.798
X-1.541 Z-0.766
X-1.573 Z-0.725
X-1.593 Z-0.677
X-1.6 Z-0.625
G0 Z5
X0.2 Y-0.6
Z1.175
G1 Z-1.45 F60
Y-0.593 Z-1.502
Y-0.573 Z-1.55
Y-0.541 Z-1.591
Y-0.5 Z-1.623
Y-0.452 Z-1.643
Y-0.4 Z-1.65
Y-0.2 F120
G3 X0 Y0 I-0.2 J0
G2 X-1 Y1 I0 J1 F240
G1 Y184.6
G2 X0 Y185.6 I1 J0
G1 X2.95
G2 X5.4 Y186.6 I2.45 J-2.5
G1 X15.6
G2 X18.049 Y185.6 I0 J-3.5
G1 X20.5
G2 X29.9 Y176.2 I0 J-9.4
G1 Y112.75
G3 X33.233 Y108.036 I5 J0
G2 X33.9 Y107.093 I-0.333 J-0.943
G1 Y90.75
G2 X34.9 Y89.75 I0 J-1
G1 Y84.75
G2 X33.9 Y83.75 I-1 J0
G1 Y28.3
G2 X34.9 Y27.3 I0 J-1
G1 Y22.3
G2 X33.9 Y21.3 I-1 J0
G1 Y13.4
G2 X20.5 Y0 I-13.4 J0
G1 X18.049
G2 X15.6 Y-1 I-2.449 J2.5
G1 X5.4
G2 X2.951 Y0 I0 J3.5
G1 X0
G3 X-0.2 Y-0.2 I0 J-0.2 F480
G1 Y-0.4
Y-0.452 Z-1.643
Y-0.5 Z-1.623
Y-0.541 Z-1.591
Y-0.573 Z-1.55
Y-0.593 Z-1.502
Y-0.6 Z-1.45
X0.2 F240
Z-2.275 F60
Y-0.593 Z-2.327
Y-0.573 Z-2.375
Y-0.541 Z-2.416
Y-0.5 Z-2.448
Y-0.452 Z-2.468
Y-0.4 Z-2.475
Y-0.2 F120
G3 X0 Y0 I-0.2 J0
G2 X-1 Y1 I0 J1 F240
G1 Y184.6
G2 X0 Y185.6 I1 J0
G1 X2.95
G2 X5.4 Y186.6 I2.45 J-2.5
G1 X15.6
G2 X18.049 Y185.6 I0 J-3.5
G1 X20.5
G2 X29.9 Y176.2 I0 J-9.4
G1 Y112.75
G3 X33.233 Y108.036 I5 J0
G2 X33.9 Y107.093 I-0.333 J-0.943
G1 Y90.75
G2 X34.9 Y89.75 I0 J-1
G1 Y84.75
G2 X33.9 Y83.75 I-1 J0
G1 Y28.3
G2 X34.9 Y27.3 I0 J-1
G1 Y22.3
G2 X33.9 Y21.3 I-1 J0
G1 Y13.4
G2 X20.5 Y0 I-13.4 J0
G1 X18.049
G2 X15.6 Y-1 I-2.449 J2.5
G1 X5.4
G2 X2.951 Y0 I0 J3.5
G1 X0
G3 X-0.2 Y-0.2 I0 J-0.2 F480
G1 Y-0.4
Y-0.452 Z-2.468
Y-0.5 Z-2.448
Y-0.541 Z-2.416
Y-0.573 Z-2.375
Y-0.593 Z-2.327
Y-0.6 Z-2.275
X0.2 F240
Z-2.788 F60
Y-0.593 Z-2.839
Y-0.573 Z-2.888
Y-0.541 Z-2.929
Y-0.5 Z-2.961
Y-0.452 Z-2.981
Y-0.4 Z-2.987
Y-0.2 F120
G3 X0 Y0 I-0.2 J0
G2 X-1 Y1 I0 J1 F240
G1 Y184.6
G2 X0 Y185.6 I1 J0
G1 X2.95
G2 X5.4 Y186.6 I2.45 J-2.5
G1 X15.6
G2 X18.049 Y185.6 I0 J-3.5
G1 X20.5
G2 X29.9 Y176.2 I0 J-9.4
G1 Y112.75
G3 X33.233 Y108.036 I5 J0
G2 X33.9 Y107.093 I-0.333 J-0.943
G1 Y90.75
G2 X34.9 Y89.75 I0 J-1
G1 Y84.75
G2 X33.9 Y83.75 I-1 J0
G1 Y28.3
G2 X34.9 Y27.3 I0 J-1
G1 Y22.3
G2 X33.9 Y21.3 I-1 J0
G1 Y13.4
G2 X20.5 Y0 I-13.4 J0
G1 X18.049
G2 X15.6 Y-1 I-2.449 J2.5
G1 X5.4
G2 X2.951 Y0 I0 J3.5
G1 X0
G3 X-0.2 Y-0.2 I0 J-0.2 F480
G1 Y-0.4
Y-0.452 Z-2.981
Y-0.5 Z-2.961
Y-0.541 Z-2.929
Y-0.573 Z-2.888
Y-0.593 Z-2.839
Y-0.6 Z-2.788
X0.2 F240
Z-3.3 F60
Y-0.593 Z-3.352
Y-0.573 Z-3.4
Y-0.541 Z-3.441
Y-0.5 Z-3.473
Y-0.452 Z-3.493
Y-0.4 Z-3.5
Y-0.2 F120
G3 X0 Y0 I-0.2 J0
G2 X-1 Y1 I0 J1 F240
G1 Y184.6
G2 X0 Y185.6 I1 J0
G1 X2.95
G2 X5.4 Y186.6 I2.45 J-2.5
G1 X15.6
G2 X18.049 Y185.6 I0 J-3.5
G1 X20.5
G2 X29.9 Y176.2 I0 J-9.4
G1 Y112.75
G3 X33.233 Y108.036 I5 J0
G2 X33.9 Y107.093 I-0.333 J-0.943
G1 Y90.75
G2 X34.9 Y89.75 I0 J-1
G1 Y84.75
G2 X33.9 Y83.75 I-1 J0
G1 Y28.3
G2 X34.9 Y27.3 I0 J-1
G1 Y22.3
G2 X33.9 Y21.3 I-1 J0
G1 Y13.4
G2 X20.5 Y0 I-13.4 J0
G1 X18.049
G2 X15.6 Y-1 I-2.449 J2.5
G1 X5.4
G2 X2.951 Y0 I0 J3.5
G1 X0
G3 X-0.2 Y-0.2 I0 J-0.2 F480
G1 Y-0.4
Y-0.452 Z-3.493
Y-0.5 Z-3.473
Y-0.541 Z-3.441
Y-0.573 Z-3.4
Y-0.593 Z-3.352
Y-0.6 Z-3.3
G0 Z15

M9
M30
