(FRAME-SIDE)
(T11  D=2 CR=0 - ZMIN=-1.5 - FLAT END MILL)
G90 G94 G91.1 G40 G49 G17
G21

(CONTOUR 2MM)
M5
M9
T11
(DIAMOND OR SPIRAL)
S16000 M3
G54
M8
G0 X2.6 Y90.3
G43 Z15 H1
Z3
G1 Z2 F60
Z-0.7
Y95.486 F240
G2 X2.89 Y96.19 I1 J0
X2.186 Y95.9 I-0.705 J0.71
G1 X1.814
G2 X1.11 Y96.19 I0 J1
X1.4 Y95.486 I-0.71 J-0.705
G1 Y90.114
G2 X1.11 Y89.41 I-1 J0
X1.814 Y89.7 I0.705 J-0.71
G1 X2.186
G2 X2.89 Y89.41 I0 J-1
X2.6 Y90.114 I0.71 J0.705
G1 Y90.3
Z-1.4 F60
Y95.486 F240
G2 X2.89 Y96.19 I1 J0
X2.186 Y95.9 I-0.705 J0.71
G1 X1.814
G2 X1.11 Y96.19 I0 J1
X1.4 Y95.486 I-0.71 J-0.705
G1 Y90.114
G2 X1.11 Y89.41 I-1 J0
X1.814 Y89.7 I0.705 J-0.71
G1 X2.186
G2 X2.89 Y89.41 I0 J-1
X2.6 Y90.114 I0.71 J0.705
G1 Y90.3
G0 Z5
X-9.8 Y87.25
Z3
G1 Z2 F60
Z-0.7
Y87.436 F240
G2 X-9.51 Y88.14 I1 J0
X-10.214 Y87.85 I-0.704 J0.71
G1 X-10.586
G2 X-11.29 Y88.14 I0 J1
X-11 Y87.436 I-0.71 J-0.704
G1 Y87.064
G2 X-11.29 Y86.36 I-1 J0
X-10.586 Y86.65 I0.704 J-0.71
G1 X-10.214
G2 X-9.51 Y86.36 I0 J-1
X-9.8 Y87.064 I0.71 J0.704
G1 Y87.25
Z-1.4 F60
Y87.436 F240
G2 X-9.51 Y88.14 I1 J0
X-10.214 Y87.85 I-0.704 J0.71
G1 X-10.586
G2 X-11.29 Y88.14 I0 J1
X-11 Y87.436 I-0.71 J-0.704
G1 Y87.064
G2 X-11.29 Y86.36 I-1 J0
X-10.586 Y86.65 I0.704 J-0.71
G1 X-10.214
G2 X-9.51 Y86.36 I0 J-1
X-9.8 Y87.064 I0.71 J0.704
G1 Y87.25
G0 Z5
X2.6 Y40.3
Z3
G1 Z2 F60
Z-0.7
Y40.486 F240
G2 X2.89 Y41.19 I1 J0
X2.186 Y40.9 I-0.705 J0.71
G1 X1.814
G2 X1.11 Y41.19 I0 J1
X1.4 Y40.486 I-0.71 J-0.705
G1 Y35.114
G2 X1.11 Y34.41 I-1 J0
X1.814 Y34.7 I0.705 J-0.71
G1 X2.186
G2 X2.89 Y34.41 I0 J-1
X2.6 Y35.114 I0.71 J0.705
G1 Y40.3
Z-1.4 F60
Y40.486 F240
G2 X2.89 Y41.19 I1 J0
X2.186 Y40.9 I-0.705 J0.71
G1 X1.814
G2 X1.11 Y41.19 I0 J1
X1.4 Y40.486 I-0.71 J-0.705
G1 Y35.114
G2 X1.11 Y34.41 I-1 J0
X1.814 Y34.7 I0.705 J-0.71
G1 X2.186
G2 X2.89 Y34.41 I0 J-1
X2.6 Y35.114 I0.71 J0.705
G1 Y40.3
G0 Z5
X14.9 Y37.3
Z3
G1 Z2 F60
Z-0.7
G3 X14.7 I-0.1 J0 F240
G1 Y34.3
G3 X14.9 I0.1 J0
G1 Y37.3
Z-1.4 F60
G3 X14.7 I-0.1 J0 F240
G1 Y34.3
G3 X14.9 I0.1 J0
G1 Y37.3
G0 Z5
X-0.4 Y24.8
Z3
G1 Z2 F60
Z-0.7
Y24.986 F240
G2 X-0.109 Y25.691 I1 J0
X-0.814 Y25.4 I-0.705 J0.709
G1 X-1.186
G2 X-1.89 Y25.69 I0 J1
X-1.6 Y24.986 I-0.71 J-0.705
G1 Y24.614
G2 X-1.89 Y23.91 I-1 J0
X-1.186 Y24.2 I0.705 J-0.71
G1 X-0.814
G2 X-0.109 Y23.909 I0 J-1
X-0.4 Y24.614 I0.709 J0.705
G1 Y24.8
Z-1.4 F60
Y24.986 F240
G2 X-0.109 Y25.691 I1 J0
X-0.814 Y25.4 I-0.705 J0.709
G1 X-1.186
G2 X-1.89 Y25.69 I0 J1
X-1.6 Y24.986 I-0.71 J-0.705
G1 Y24.614
G2 X-1.89 Y23.91 I-1 J0
X-1.186 Y24.2 I0.705 J-0.71
G1 X-0.814
G2 X-0.109 Y23.909 I0 J-1
X-0.4 Y24.614 I0.709 J0.705
G1 Y24.8
G0 Z5
X-9.8
Z3
G1 Z2 F60
Z-0.7
Y24.986 F240
G2 X-9.51 Y25.69 I1 J0
X-10.214 Y25.4 I-0.704 J0.71
G1 X-10.586
G2 X-11.29 Y25.69 I0 J1
X-11 Y24.986 I-0.71 J-0.704
G1 Y24.614
G2 X-11.29 Y23.91 I-1 J0
X-10.586 Y24.2 I0.704 J-0.71
G1 X-10.214
G2 X-9.51 Y23.91 I0 J-1
X-9.8 Y24.614 I0.71 J0.704
G1 Y24.8
Z-1.4 F60
Y24.986 F240
G2 X-9.51 Y25.69 I1 J0
X-10.214 Y25.4 I-0.704 J0.71
G1 X-10.586
G2 X-11.29 Y25.69 I0 J1
X-11 Y24.986 I-0.71 J-0.704
G1 Y24.614
G2 X-11.29 Y23.91 I-1 J0
X-10.586 Y24.2 I0.704 J-0.71
G1 X-10.214
G2 X-9.51 Y23.91 I0 J-1
X-9.8 Y24.614 I0.71 J0.704
G1 Y24.8
G0 Z5
X7.578 Y3.118
Z3
G1 Z2 F60
Z-0.7
G2 X7.057 Y3.393 I0.186 J0.982 F240
X6.618 Y2.5 I-0.998 J-0.064
X7.057 Y1.607 I-0.559 J-0.829
X7.764 Y1.9 I0.707 J-0.707
G1 X13.236
G2 X13.943 Y1.607 I0 J-1
X14.382 Y2.5 I0.998 J0.064
X13.943 Y3.393 I0.559 J0.829
X13.236 Y3.1 I-0.707 J0.707
G1 X7.764
G2 X7.578 Y3.118 I0 J1
G1 Z-1.4 F60
G2 X7.057 Y3.393 I0.186 J0.982 F240
X6.618 Y2.5 I-0.998 J-0.064
X7.057 Y1.607 I-0.559 J-0.829
X7.764 Y1.9 I0.707 J-0.707
G1 X13.236
G2 X13.943 Y1.607 I0 J-1
X14.382 Y2.5 I0.998 J0.064
X13.943 Y3.393 I0.559 J0.829
X13.236 Y3.1 I-0.707 J0.707
G1 X7.764
G2 X7.578 Y3.118 I0 J1
G0 Z5
X18.5 Y7.9
Z3
G1 Z2 F60
Z-0.7
Y8.086 F240
G2 X18.79 Y8.79 I1 J0
X18.086 Y8.5 I-0.705 J0.71
G1 X17.714
G2 X17.01 Y8.79 I0 J1
X17.3 Y8.086 I-0.71 J-0.705
G1 Y7.714
G2 X17.01 Y7.01 I-1 J0
X17.714 Y7.3 I0.705 J-0.71
G1 X18.086
G2 X18.79 Y7.01 I0 J-1
X18.5 Y7.714 I0.71 J0.705
G1 Y7.9
Z-1.4 F60
Y8.086 F240
G2 X18.79 Y8.79 I1 J0
X18.086 Y8.5 I-0.705 J0.71
G1 X17.714
G2 X17.01 Y8.79 I0 J1
X17.3 Y8.086 I-0.71 J-0.705
G1 Y7.714
G2 X17.01 Y7.01 I-1 J0
X17.714 Y7.3 I0.705 J-0.71
G1 X18.086
G2 X18.79 Y7.01 I0 J-1
X18.5 Y7.714 I0.71 J0.705
G1 Y7.9
G0 Z5
X2.6 Y145.3
Z3
G1 Z2 F60
Z-0.7
Y150.486 F240
G2 X2.884 Y151.184 I1 J0
X2.186 Y150.9 I-0.698 J0.716
G1 X1.814
G2 X1.116 Y151.184 I0 J1
X1.4 Y150.486 I-0.716 J-0.698
G1 Y145.114
G2 X1.116 Y144.416 I-1 J0
X1.814 Y144.7 I0.698 J-0.716
G1 X2.186
G2 X2.884 Y144.416 I0 J-1
X2.6 Y145.114 I0.716 J0.698
G1 Y145.3
Z-1.4 F60
Y150.486 F240
G2 X2.884 Y151.184 I1 J0
X2.186 Y150.9 I-0.698 J0.716
G1 X1.814
G2 X1.116 Y151.184 I0 J1
X1.4 Y150.486 I-0.716 J-0.698
G1 Y145.114
G2 X1.116 Y144.416 I-1 J0
X1.814 Y144.7 I0.698 J-0.716
G1 X2.186
G2 X2.884 Y144.416 I0 J-1
X2.6 Y145.114 I0.716 J0.698
G1 Y145.3
G0 Z5
X14.9 Y148.3
Z3
G1 Z2 F60
Z-0.7
Y151.3 F240
G3 X14.7 I-0.1 J0
G1 Y148.3
G3 X14.9 I0.1 J0
G1 Z-1.4 F60
Y151.3 F240
G3 X14.7 I-0.1 J0
G1 Y148.3
G3 X14.9 I0.1 J0
G0 Z5
X-0.4 Y160.8
Z3
G1 Z2 F60
Z-0.7
Y160.986 F240
G2 X-0.116 Y161.684 I1 J0
X-0.814 Y161.4 I-0.698 J0.716
G1 X-1.186
G2 X-1.884 Y161.684 I0 J1
X-1.6 Y160.986 I-0.716 J-0.698
G1 Y160.614
G2 X-1.884 Y159.916 I-1 J0
X-1.186 Y160.2 I0.698 J-0.716
G1 X-0.814
G2 X-0.116 Y159.916 I0 J-1
X-0.4 Y160.614 I0.716 J0.698
G1 Y160.8
Z-1.4 F60
Y160.986 F240
G2 X-0.116 Y161.684 I1 J0
X-0.814 Y161.4 I-0.698 J0.716
G1 X-1.186
G2 X-1.884 Y161.684 I0 J1
X-1.6 Y160.986 I-0.716 J-0.698
G1 Y160.614
G2 X-1.884 Y159.916 I-1 J0
X-1.186 Y160.2 I0.698 J-0.716
G1 X-0.814
G2 X-0.116 Y159.916 I0 J-1
X-0.4 Y160.614 I0.716 J0.698
G1 Y160.8
G0 Z5
X7.578 Y183.717
Z3
G1 Z2 F60
Z-0.7
G2 X7.057 Y183.993 I0.186 J0.982 F240
X6.618 Y183.1 I-0.998 J-0.064
X7.057 Y182.207 I-0.559 J-0.829
X7.764 Y182.5 I0.707 J-0.707
G1 X13.236
G2 X13.943 Y182.207 I0 J-1
X14.382 Y183.1 I0.998 J0.064
X13.943 Y183.993 I0.559 J0.829
X13.236 Y183.7 I-0.707 J0.707
G1 X7.764
G2 X7.578 Y183.717 I0 J1
G1 Z-1.4 F60
G2 X7.057 Y183.993 I0.186 J0.982 F240
X6.618 Y183.1 I-0.998 J-0.064
X7.057 Y182.207 I-0.559 J-0.829
X7.764 Y182.5 I0.707 J-0.707
G1 X13.236
G2 X13.943 Y182.207 I0 J-1
X14.382 Y183.1 I0.998 J0.064
X13.943 Y183.993 I0.559 J0.829
X13.236 Y183.7 I-0.707 J0.707
G1 X7.764
G2 X7.578 Y183.717 I0 J1
G0 Z5
X18.5 Y177.7
Z3
G1 Z2 F60
Z-0.7
Y177.886 F240
G2 X18.784 Y178.584 I1 J0
X18.086 Y178.3 I-0.698 J0.716
G1 X17.714
G2 X17.016 Y178.584 I0 J1
X17.3 Y177.886 I-0.716 J-0.698
G1 Y177.514
G2 X17.016 Y176.816 I-1 J0
X17.714 Y177.1 I0.698 J-0.716
G1 X18.086
G2 X18.784 Y176.816 I0 J-1
X18.5 Y177.514 I0.716 J0.698
G1 Y177.7
Z-1.4 F60
Y177.886 F240
G2 X18.784 Y178.584 I1 J0
X18.086 Y178.3 I-0.698 J0.716
G1 X17.714
G2 X17.016 Y178.584 I0 J1
X17.3 Y177.886 I-0.716 J-0.698
G1 Y177.514
G2 X17.016 Y176.816 I-1 J0
X17.714 Y177.1 I0.698 J-0.716
G1 X18.086
G2 X18.784 Y176.816 I0 J-1
X18.5 Y177.514 I0.716 J0.698
G1 Y177.7
G0 Z15

(POCKET 2MM PCB)
M8
G0 X19.807 Y35.441
Z15
Z5
G1 Z0.699 F120
G3 X19.802 Y35.464 Z0.604 I-0.935 J-0.166 F60
X19.787 Y35.529 Z0.532 I-0.931 J-0.189
X19.758 Y35.616 Z0.5 I-0.916 J-0.254
X17.985 Y34.934 Z0.239 I-0.887 J-0.341
X19.758 Y35.616 Z-0.022 I0.887 J0.341
X17.985 Y34.934 Z-0.283 I-0.887 J-0.341
X19.758 Y35.616 Z-0.544 I0.887 J0.341
X17.921 Y35.275 Z-0.775 I-0.887 J-0.341
X19.624 I0.851 J0
G1 Y150.43 F240
G3 X19.305 Y150.749 I-0.319 J0
G1 X19.091
G3 X18.776 Y150.434 I0 J-0.315
G1 Y35.17
G3 X19.095 Y34.851 I0.319 J0
G1 X19.305
G3 X19.624 Y35.17 I0 J0.319
G1 Y35.275
G2 X20.062 Y35.932 I0.712 J0
G3 X20.5 Y36.589 I-0.274 J0.657
G1 Y151.625
X18.314
G2 X17.616 Y151.909 I0 J1
X17.9 Y151.211 I-0.716 J-0.698
G1 Y34.389
G2 X17.61 Y33.685 I-1 J0
X18.314 Y33.975 I0.704 J-0.71
G1 X20.5
Y36.589
G3 X20.476 Y36.685 Z-0.748 I-0.2 J0 F480
X20.43 Y36.741 Z-0.675 I-0.176 J-0.096
X20.408 Y36.757 Z-0.575 I-0.13 J-0.152
G0 Z15

(SLOT 2MM BOTTOM COVER)
M8
G0 X21.5 Y96.325
Z15
Z5
G1 Z4.5 F120
Z2.5
Y182.234 Z-0.5 F60
Y3.366 F240
Y182.234 Z-1.5 F60
Y3.366 F240
G0 Z15

M9
M30
