(TAP EXPERIMENT)
(T46  D=2 CR=0 TAPER=118DEG - ZMIN=-12.9 - DRILL)
G90 G94 G91.1 G40 G49 G17
G21

(2MM HOLES)
M5
M9
T46
(DIAMOND OR SPIRAL)
S16000 M3
G54
M8
G0 X5 Y24.3
G43 Z15 H1
Z5
G98 G73 X5 Y24.3 Z-4.9 R2.1 Q0.5 F60
X-5
G80
Z15

(SUPPORT HOLES)
M8
G0 X0 Y15
Z15
Z5
G73 X0 Y15 Z-12.9 R2.1 Q0.5 F60
Y0
G80
Z15

M9
M30
