(MILL 2MM HOLES)
(T11  D=2 CR=0 - ZMIN=-3.5 - FLAT END MILL)
G90 G94 G91.1 G40 G49 G17
G21

(01 2MM FLAT INNER)
M5
M9
T11
(DIAMOND OR SPIRAL)
S20000 M3
G54
M8
G0 X49.509 Y34.39
G43 Z15 H1
Z2
G1 Z0.1 F100
X40.8 Y45.268 Z0.058 F1000
X9.124 Y5.7 Z-0.096
X72.476 Z-0.288
X40.8 Y45.268 Z-0.442
X9.124 Y5.7 Z-0.596
X72.476 Z-0.788
X40.8 Y45.268 Z-0.942
X9.124 Y5.7 Z-1.096
X72.476 Z-1.288
X40.8 Y45.268 Z-1.442
X9.124 Y5.7 Z-1.596
X72.476 Z-1.788
X40.8 Y45.268 Z-1.942
X9.124 Y5.7 Z-2.096
X72.476 Z-2.288
X40.8 Y45.268 Z-2.442
X9.124 Y5.7 Z-2.596
X72.476 Z-2.788
X40.8 Y45.268 Z-2.942
X9.124 Y5.7 Z-3.096
X72.476 Z-3.288
X40.8 Y45.268 Z-3.442
X28.92 Y30.428 Z-3.5
X9.124 Y5.7
X72.476
X40.8 Y45.268
X28.92 Y30.428
G0 Z5
X35.038 Y46.072
Z2
G1 Z0.1 F100
X37.598 Y49.269 Z0.086 F1000
X26.485 Y63.15 Z0.024
X5.3 Z-0.049
Y8.924 Z-0.236
X37.598 Y49.269 Z-0.414
X26.485 Y63.15 Z-0.476
X5.3 Z-0.549
Y8.924 Z-0.736
X37.598 Y49.269 Z-0.914
X26.485 Y63.15 Z-0.976
X5.3 Z-1.049
Y8.924 Z-1.236
X37.598 Y49.269 Z-1.414
X26.485 Y63.15 Z-1.476
X5.3 Z-1.549
Y8.924 Z-1.736
X37.598 Y49.269 Z-1.914
X26.485 Y63.15 Z-1.976
X5.3 Z-2.049
Y8.924 Z-2.236
X37.598 Y49.269 Z-2.414
X26.485 Y63.15 Z-2.476
X5.3 Z-2.549
Y8.924 Z-2.736
X37.598 Y49.269 Z-2.914
X26.485 Y63.15 Z-2.976
X5.3 Z-3.049
Y8.924 Z-3.236
X37.598 Y49.269 Z-3.414
X26.485 Y63.15 Z-3.476
X19.387 Z-3.5
X5.3
Y8.924
X37.598 Y49.269
X26.485 Y63.15
X19.387
G0 Z5
X19.168 Y77.058
Z2
G1 Z0.1 F100
G3 X18.592 Y76.242 Z-0.037 I-0.288 J-0.408 F1000
X19.168 Y77.058 Z-0.175 I0.288 J0.408
X18.592 Y76.242 Z-0.312 I-0.288 J-0.408
X19.168 Y77.058 Z-0.45 I0.288 J0.408
X18.592 Y76.242 Z-0.587 I-0.288 J-0.408
X19.168 Y77.058 Z-0.725 I0.288 J0.408
X18.592 Y76.242 Z-0.862 I-0.288 J-0.408
X19.168 Y77.058 Z-0.999 I0.288 J0.408
X18.592 Y76.242 Z-1.137 I-0.288 J-0.408
X19.168 Y77.058 Z-1.274 I0.288 J0.408
X18.592 Y76.242 Z-1.412 I-0.288 J-0.408
X19.168 Y77.058 Z-1.549 I0.288 J0.408
X18.592 Y76.242 Z-1.687 I-0.288 J-0.408
X19.168 Y77.058 Z-1.824 I0.288 J0.408
X18.592 Y76.242 Z-1.961 I-0.288 J-0.408
X19.168 Y77.058 Z-2.099 I0.288 J0.408
X18.592 Y76.242 Z-2.236 I-0.288 J-0.408
X19.168 Y77.058 Z-2.374 I0.288 J0.408
X18.592 Y76.242 Z-2.511 I-0.288 J-0.408
X19.168 Y77.058 Z-2.649 I0.288 J0.408
X18.592 Y76.242 Z-2.786 I-0.288 J-0.408
X19.168 Y77.058 Z-2.923 I0.288 J0.408
X18.592 Y76.242 Z-3.061 I-0.288 J-0.408
X19.168 Y77.058 Z-3.198 I0.288 J0.408
X18.592 Y76.242 Z-3.336 I-0.288 J-0.408
X19.168 Y77.058 Z-3.473 I0.288 J0.408
X18.88 Y77.15 Z-3.5 I-0.288 J-0.408
Y76.15 I0 J-0.5
Y77.15 I0 J0.5
G0 Z5
X76.3 Y20.088
Z2
G1 Z0.1 F100
Y63.15 Z-0.049 F1000
X55.115 Z-0.122
X44.002 Y49.269 Z-0.183
X76.3 Y8.924 Z-0.361
Y63.15 Z-0.549
X55.115 Z-0.622
X44.002 Y49.269 Z-0.683
X76.3 Y8.924 Z-0.861
Y63.15 Z-1.049
X55.115 Z-1.122
X44.002 Y49.269 Z-1.183
X76.3 Y8.924 Z-1.361
Y63.15 Z-1.549
X55.115 Z-1.622
X44.002 Y49.269 Z-1.683
X76.3 Y8.924 Z-1.861
Y63.15 Z-2.049
X55.115 Z-2.122
X44.002 Y49.269 Z-2.183
X76.3 Y8.924 Z-2.361
Y63.15 Z-2.549
X55.115 Z-2.622
X44.002 Y49.269 Z-2.683
X76.3 Y8.924 Z-2.861
Y63.15 Z-3.049
X55.115 Z-3.122
X44.002 Y49.269 Z-3.183
X76.3 Y8.924 Z-3.361
Y49.063 Z-3.5
Y63.15
X55.115
X44.002 Y49.269
X76.3 Y8.924
Y49.063
G0 Z5
X62.22 Y76.636
Z2
G1 Z0.1 F100
G3 X63.22 Y76.664 Z-0.037 I0.5 J0.014 F1000
X62.22 Y76.636 Z-0.175 I-0.5 J-0.014
X63.22 Y76.664 Z-0.312 I0.5 J0.014
X62.22 Y76.636 Z-0.45 I-0.5 J-0.014
X63.22 Y76.664 Z-0.587 I0.5 J0.014
X62.22 Y76.636 Z-0.725 I-0.5 J-0.014
X63.22 Y76.664 Z-0.862 I0.5 J0.014
X62.22 Y76.636 Z-0.999 I-0.5 J-0.014
X63.22 Y76.664 Z-1.137 I0.5 J0.014
X62.22 Y76.636 Z-1.274 I-0.5 J-0.014
X63.22 Y76.664 Z-1.412 I0.5 J0.014
X62.22 Y76.636 Z-1.549 I-0.5 J-0.014
X63.22 Y76.664 Z-1.687 I0.5 J0.014
X62.22 Y76.636 Z-1.824 I-0.5 J-0.014
X63.22 Y76.664 Z-1.961 I0.5 J0.014
X62.22 Y76.636 Z-2.099 I-0.5 J-0.014
X63.22 Y76.664 Z-2.236 I0.5 J0.014
X62.22 Y76.636 Z-2.374 I-0.5 J-0.014
X63.22 Y76.664 Z-2.511 I0.5 J0.014
X62.22 Y76.636 Z-2.649 I-0.5 J-0.014
X63.22 Y76.664 Z-2.786 I0.5 J0.014
X62.22 Y76.636 Z-2.923 I-0.5 J-0.014
X63.22 Y76.664 Z-3.061 I0.5 J0.014
X62.22 Y76.636 Z-3.198 I-0.5 J-0.014
X63.22 Y76.664 Z-3.336 I0.5 J0.014
X62.22 Y76.636 Z-3.473 I-0.5 J-0.014
X62.32 Y76.35 Z-3.5 I0.5 J0.014
X63.12 Y76.95 I0.4 J0.3
X62.32 Y76.35 I-0.4 J-0.3
G0 Z5
X77.968 Y3.608
Z2
G1 Z0.1 F100
G3 X77.392 Y2.792 Z-0.037 I-0.288 J-0.408 F1000
X77.968 Y3.608 Z-0.175 I0.288 J0.408
X77.392 Y2.792 Z-0.312 I-0.288 J-0.408
X77.968 Y3.608 Z-0.45 I0.288 J0.408
X77.392 Y2.792 Z-0.587 I-0.288 J-0.408
X77.968 Y3.608 Z-0.725 I0.288 J0.408
X77.392 Y2.792 Z-0.862 I-0.288 J-0.408
X77.968 Y3.608 Z-0.999 I0.288 J0.408
X77.392 Y2.792 Z-1.137 I-0.288 J-0.408
X77.968 Y3.608 Z-1.274 I0.288 J0.408
X77.392 Y2.792 Z-1.412 I-0.288 J-0.408
X77.968 Y3.608 Z-1.549 I0.288 J0.408
X77.392 Y2.792 Z-1.687 I-0.288 J-0.408
X77.968 Y3.608 Z-1.824 I0.288 J0.408
X77.392 Y2.792 Z-1.961 I-0.288 J-0.408
X77.968 Y3.608 Z-2.099 I0.288 J0.408
X77.392 Y2.792 Z-2.236 I-0.288 J-0.408
X77.968 Y3.608 Z-2.374 I0.288 J0.408
X77.392 Y2.792 Z-2.511 I-0.288 J-0.408
X77.968 Y3.608 Z-2.649 I0.288 J0.408
X77.392 Y2.792 Z-2.786 I-0.288 J-0.408
X77.968 Y3.608 Z-2.923 I0.288 J0.408
X77.392 Y2.792 Z-3.061 I-0.288 J-0.408
X77.968 Y3.608 Z-3.198 I0.288 J0.408
X77.392 Y2.792 Z-3.336 I-0.288 J-0.408
X77.968 Y3.608 Z-3.473 I0.288 J0.408
X77.68 Y3.7 Z-3.5 I-0.288 J-0.408
Y2.7 I0 J-0.5
Y3.7 I0 J0.5
G0 Z5
X4.074 Y2.724
Z2
G1 Z0.1 F100
G3 X3.766 Y3.676 Z-0.037 I-0.154 J0.476 F1000
X4.074 Y2.724 Z-0.175 I0.154 J-0.476
X3.766 Y3.676 Z-0.312 I-0.154 J0.476
X4.074 Y2.724 Z-0.45 I0.154 J-0.476
X3.766 Y3.676 Z-0.587 I-0.154 J0.476
X4.074 Y2.724 Z-0.725 I0.154 J-0.476
X3.766 Y3.676 Z-0.862 I-0.154 J0.476
X4.074 Y2.724 Z-0.999 I0.154 J-0.476
X3.766 Y3.676 Z-1.137 I-0.154 J0.476
X4.074 Y2.724 Z-1.274 I0.154 J-0.476
X3.766 Y3.676 Z-1.412 I-0.154 J0.476
X4.074 Y2.724 Z-1.549 I0.154 J-0.476
X3.766 Y3.676 Z-1.687 I-0.154 J0.476
X4.074 Y2.724 Z-1.824 I0.154 J-0.476
X3.766 Y3.676 Z-1.961 I-0.154 J0.476
X4.074 Y2.724 Z-2.099 I0.154 J-0.476
X3.766 Y3.676 Z-2.236 I-0.154 J0.476
X4.074 Y2.724 Z-2.374 I0.154 J-0.476
X3.766 Y3.676 Z-2.511 I-0.154 J0.476
X4.074 Y2.724 Z-2.649 I0.154 J-0.476
X3.766 Y3.676 Z-2.786 I-0.154 J0.476
X4.074 Y2.724 Z-2.923 I0.154 J-0.476
X3.766 Y3.676 Z-3.061 I-0.154 J0.476
X4.074 Y2.724 Z-3.198 I0.154 J-0.476
X3.766 Y3.676 Z-3.336 I-0.154 J0.476
X4.074 Y2.724 Z-3.473 I0.154 J-0.476
X4.32 Y2.9 Z-3.5 I-0.154 J0.476
X3.52 Y3.5 I-0.4 J0.3
X4.32 Y2.9 I0.4 J-0.3
G0 Z15

M9
M30
