(MILL 2MM HOLES)
(T28  D=6 CR=0 TAPER=45DEG - ZMIN=-3.2 - CHAMFER MILL)
G90 G94 G91.1 G40 G49 G17
G21

(02 6MM CHAMFER)
M5
M9
T28
(4 FLUTE FISH)
S20000 M3
G54
M8
G0 X62.72 Y76.65
G43 Z15 H26
Z5
Z1
G1 Z-0.5 F20
G0 Z-0.38
G1 Z-1 F20
G0 Z-0.88
G1 Z-1.5 F20
G0 Z-1.38
G1 Z-2 F20
G0 Z-1.88
G1 Z-2.5 F20
G0 Z-2.38
G1 Z-3 F20
G0 Z-2.88
G1 Z-3.2 F20
G4 P2
G0 Z5
X18.88
Z1
G1 Z-0.5 F20
G0 Z-0.38
G1 Z-1 F20
G0 Z-0.88
G1 Z-1.5 F20
G0 Z-1.38
G1 Z-2 F20
G0 Z-1.88
G1 Z-2.5 F20
G0 Z-2.38
G1 Z-3 F20
G0 Z-2.88
G1 Z-3.2 F20
G4 P2
G0 Z5
X3.92 Y3.2
Z1
G1 Z-0.5 F20
G0 Z-0.38
G1 Z-1 F20
G0 Z-0.88
G1 Z-1.5 F20
G0 Z-1.38
G1 Z-2 F20
G0 Z-1.88
G1 Z-2.5 F20
G0 Z-2.38
G1 Z-3 F20
G0 Z-2.88
G1 Z-3.2 F20
G4 P2
G0 Z5
X77.68
Z1
G1 Z-0.5 F20
G0 Z-0.38
G1 Z-1 F20
G0 Z-0.88
G1 Z-1.5 F20
G0 Z-1.38
G1 Z-2 F20
G0 Z-1.88
G1 Z-2.5 F20
G0 Z-2.38
G1 Z-3 F20
G0 Z-2.88
G1 Z-3.2 F20
G4 P2
G0 Z5
Z15

M9
M30
