(MILL 2MM HOLES)
(T11  D=2 CR=0 - ZMIN=-3.5 - FLAT END MILL)
G90 G94 G91.1 G40 G49 G17
G21

(03 2MM FLAT OUTER)
M5
M9
T11
(DIAMOND OR SPIRAL)
S20000 M3
G54
M8
G0 X81.3 Y31.585
G43 Z15 H1
Z2
G1 Z0.1 F100
Y6.7 Z0.067 F1000
G2 X80.3 Y5.7 Z0.065 I-1 J0
G1 X81.6 Z0.063
G2 X82.6 Y4.7 Z0.061 I0 J-1
G1 Y1.7 Z0.057
G2 X81.6 Y0.7 Z0.055 I-1 J0
G1 X81.055
G2 X74.305 Z0.044 I-3.375 J2.5
G1 X7.295 Z-0.044
G2 X0.545 Z-0.055 I-3.375 J2.5
G1 X0
G2 X-1 Y1.7 Z-0.057 I0 J1
G1 Y4.7 Z-0.061
G2 X0 Y5.7 Z-0.063 I1 J0
G1 X1.3 Z-0.065
G2 X0.3 Y6.7 Z-0.067 I0 J1
G1 Y62.15 Z-0.14
G2 X1.3 Y63.15 Z-0.142 I1 J0
G1 X0 Z-0.144
G2 X-1 Y64.15 Z-0.146 I0 J1
G1 Y67.15 Z-0.15
G2 X0 Y68.15 Z-0.152 I1 J0
G1 X16.38 Z-0.174
Y73.275 Z-0.181
G2 X18.88 Y80.85 Z-0.194 I2.5 J3.375
X21.38 Y73.275 Z-0.208 I0 J-4.2
G1 Y68.15 Z-0.215
X27.926 Z-0.224
G2 X29.488 Y67.4 Z-0.226 I0 J-2
G1 X40.8 Y53.269 Z-0.25
X52.112 Y67.4 Z-0.274
G2 X53.674 Y68.15 Z-0.276 I1.561 J-1.25
G1 X60.22 Z-0.285
Y73.275 Z-0.292
G2 X62.72 Y80.85 Z-0.306 I2.5 J3.375
X65.22 Y73.275 Z-0.319 I0 J-4.2
G1 Y68.15 Z-0.326
X81.6 Z-0.348
G2 X82.6 Y67.15 Z-0.35 I0 J-1
G1 Y64.15 Z-0.354
G2 X81.6 Y63.15 Z-0.356 I-1 J0
G1 X80.3 Z-0.358
G2 X81.3 Y62.15 Z-0.36 I0 J-1
G1 Y6.7 Z-0.433
G2 X80.3 Y5.7 Z-0.435 I-1 J0
G1 X81.6 Z-0.437
G2 X82.6 Y4.7 Z-0.439 I0 J-1
G1 Y1.7 Z-0.443
G2 X81.6 Y0.7 Z-0.445 I-1 J0
G1 X81.055
G2 X74.305 Z-0.456 I-3.375 J2.5
G1 X7.295 Z-0.544
G2 X0.545 Z-0.555 I-3.375 J2.5
G1 X0
G2 X-1 Y1.7 Z-0.557 I0 J1
G1 Y4.7 Z-0.561
G2 X0 Y5.7 Z-0.563 I1 J0
G1 X1.3 Z-0.565
G2 X0.3 Y6.7 Z-0.567 I0 J1
G1 Y62.15 Z-0.64
G2 X1.3 Y63.15 Z-0.642 I1 J0
G1 X0 Z-0.644
G2 X-1 Y64.15 Z-0.646 I0 J1
G1 Y67.15 Z-0.65
G2 X0 Y68.15 Z-0.652 I1 J0
G1 X16.38 Z-0.674
Y73.275 Z-0.681
G2 X18.88 Y80.85 Z-0.694 I2.5 J3.375
X21.38 Y73.275 Z-0.708 I0 J-4.2
G1 Y68.15 Z-0.715
X27.926 Z-0.724
G2 X29.488 Y67.4 Z-0.726 I0 J-2
G1 X40.8 Y53.269 Z-0.75
X52.112 Y67.4 Z-0.774
G2 X53.674 Y68.15 Z-0.776 I1.561 J-1.25
G1 X60.22 Z-0.785
Y73.275 Z-0.792
G2 X62.72 Y80.85 Z-0.806 I2.5 J3.375
X65.22 Y73.275 Z-0.819 I0 J-4.2
G1 Y68.15 Z-0.826
X81.6 Z-0.848
G2 X82.6 Y67.15 Z-0.85 I0 J-1
G1 Y64.15 Z-0.854
G2 X81.6 Y63.15 Z-0.856 I-1 J0
G1 X80.3 Z-0.858
G2 X81.3 Y62.15 Z-0.86 I0 J-1
G1 Y6.7 Z-0.933
G2 X80.3 Y5.7 Z-0.935 I-1 J0
G1 X81.6 Z-0.937
G2 X82.6 Y4.7 Z-0.939 I0 J-1
G1 Y1.7 Z-0.943
G2 X81.6 Y0.7 Z-0.945 I-1 J0
G1 X81.055
G2 X74.305 Z-0.956 I-3.375 J2.5
G1 X7.295 Z-1.044
G2 X0.545 Z-1.055 I-3.375 J2.5
G1 X0
G2 X-1 Y1.7 Z-1.057 I0 J1
G1 Y4.7 Z-1.061
G2 X0 Y5.7 Z-1.063 I1 J0
G1 X1.3 Z-1.065
G2 X0.3 Y6.7 Z-1.067 I0 J1
G1 Y62.15 Z-1.14
G2 X1.3 Y63.15 Z-1.142 I1 J0
G1 X0 Z-1.144
G2 X-1 Y64.15 Z-1.146 I0 J1
G1 Y67.15 Z-1.15
G2 X0 Y68.15 Z-1.152 I1 J0
G1 X16.38 Z-1.174
Y73.275 Z-1.181
G2 X18.88 Y80.85 Z-1.194 I2.5 J3.375
X21.38 Y73.275 Z-1.208 I0 J-4.2
G1 Y68.15 Z-1.215
X27.926 Z-1.224
G2 X29.488 Y67.4 Z-1.226 I0 J-2
G1 X40.8 Y53.269 Z-1.25
X52.112 Y67.4 Z-1.274
G2 X53.674 Y68.15 Z-1.276 I1.561 J-1.25
G1 X60.22 Z-1.285
Y73.275 Z-1.292
G2 X62.72 Y80.85 Z-1.306 I2.5 J3.375
X65.22 Y73.275 Z-1.319 I0 J-4.2
G1 Y68.15 Z-1.326
X81.6 Z-1.348
G2 X82.6 Y67.15 Z-1.35 I0 J-1
G1 Y64.15 Z-1.354
G2 X81.6 Y63.15 Z-1.356 I-1 J0
G1 X80.3 Z-1.358
G2 X81.3 Y62.15 Z-1.36 I0 J-1
G1 Y6.7 Z-1.433
G2 X80.3 Y5.7 Z-1.435 I-1 J0
G1 X81.6 Z-1.437
G2 X82.6 Y4.7 Z-1.439 I0 J-1
G1 Y1.7 Z-1.443
G2 X81.6 Y0.7 Z-1.445 I-1 J0
G1 X81.055
G2 X74.305 Z-1.456 I-3.375 J2.5
G1 X7.295 Z-1.544
G2 X0.545 Z-1.555 I-3.375 J2.5
G1 X0
G2 X-1 Y1.7 Z-1.557 I0 J1
G1 Y4.7 Z-1.561
G2 X0 Y5.7 Z-1.563 I1 J0
G1 X1.3 Z-1.565
G2 X0.3 Y6.7 Z-1.567 I0 J1
G1 Y62.15 Z-1.64
G2 X1.3 Y63.15 Z-1.642 I1 J0
G1 X0 Z-1.644
G2 X-1 Y64.15 Z-1.646 I0 J1
G1 Y67.15 Z-1.65
G2 X0 Y68.15 Z-1.652 I1 J0
G1 X16.38 Z-1.674
Y73.275 Z-1.681
G2 X18.88 Y80.85 Z-1.694 I2.5 J3.375
X21.38 Y73.275 Z-1.708 I0 J-4.2
G1 Y68.15 Z-1.715
X27.926 Z-1.724
G2 X29.488 Y67.4 Z-1.726 I0 J-2
G1 X40.8 Y53.269 Z-1.75
X52.112 Y67.4 Z-1.774
G2 X53.674 Y68.15 Z-1.776 I1.561 J-1.25
G1 X60.22 Z-1.785
Y73.275 Z-1.792
G2 X62.72 Y80.85 Z-1.806 I2.5 J3.375
X65.22 Y73.275 Z-1.819 I0 J-4.2
G1 Y68.15 Z-1.826
X81.6 Z-1.848
G2 X82.6 Y67.15 Z-1.85 I0 J-1
G1 Y64.15 Z-1.854
G2 X81.6 Y63.15 Z-1.856 I-1 J0
G1 X80.3 Z-1.858
G2 X81.3 Y62.15 Z-1.86 I0 J-1
G1 Y6.7 Z-1.933
G2 X80.3 Y5.7 Z-1.935 I-1 J0
G1 X81.6 Z-1.937
G2 X82.6 Y4.7 Z-1.939 I0 J-1
G1 Y1.7 Z-1.943
G2 X81.6 Y0.7 Z-1.945 I-1 J0
G1 X81.055
G2 X74.305 Z-1.956 I-3.375 J2.5
G1 X7.295 Z-2.044
G2 X0.545 Z-2.055 I-3.375 J2.5
G1 X0
G2 X-1 Y1.7 Z-2.057 I0 J1
G1 Y4.7 Z-2.061
G2 X0 Y5.7 Z-2.063 I1 J0
G1 X1.3 Z-2.065
G2 X0.3 Y6.7 Z-2.067 I0 J1
G1 Y62.15 Z-2.14
G2 X1.3 Y63.15 Z-2.142 I1 J0
G1 X0 Z-2.144
G2 X-1 Y64.15 Z-2.146 I0 J1
G1 Y67.15 Z-2.15
G2 X0 Y68.15 Z-2.152 I1 J0
G1 X16.38 Z-2.174
Y73.275 Z-2.181
G2 X18.88 Y80.85 Z-2.194 I2.5 J3.375
X21.38 Y73.275 Z-2.208 I0 J-4.2
G1 Y68.15 Z-2.215
X27.926 Z-2.224
G2 X29.488 Y67.4 Z-2.226 I0 J-2
G1 X40.8 Y53.269 Z-2.25
X52.112 Y67.4 Z-2.274
G2 X53.674 Y68.15 Z-2.276 I1.561 J-1.25
G1 X60.22 Z-2.285
Y73.275 Z-2.292
G2 X62.72 Y80.85 Z-2.306 I2.5 J3.375
X65.22 Y73.275 Z-2.319 I0 J-4.2
G1 Y68.15 Z-2.326
X81.6 Z-2.348
G2 X82.6 Y67.15 Z-2.35 I0 J-1
G1 Y64.15 Z-2.354
G2 X81.6 Y63.15 Z-2.356 I-1 J0
G1 X80.3 Z-2.358
G2 X81.3 Y62.15 Z-2.36 I0 J-1
G1 Y6.7 Z-2.433
G2 X80.3 Y5.7 Z-2.435 I-1 J0
G1 X81.6 Z-2.437
G2 X82.6 Y4.7 Z-2.439 I0 J-1
G1 Y1.7 Z-2.443
G2 X81.6 Y0.7 Z-2.445 I-1 J0
G1 X81.055
G2 X74.305 Z-2.456 I-3.375 J2.5
G1 X7.295 Z-2.544
G2 X0.545 Z-2.555 I-3.375 J2.5
G1 X0
G2 X-1 Y1.7 Z-2.557 I0 J1
G1 Y4.7 Z-2.561
G2 X0 Y5.7 Z-2.563 I1 J0
G1 X1.3 Z-2.565
G2 X0.3 Y6.7 Z-2.567 I0 J1
G1 Y62.15 Z-2.64
G2 X1.3 Y63.15 Z-2.642 I1 J0
G1 X0 Z-2.644
G2 X-1 Y64.15 Z-2.646 I0 J1
G1 Y67.15 Z-2.65
G2 X0 Y68.15 Z-2.652 I1 J0
G1 X16.38 Z-2.674
Y73.275 Z-2.681
G2 X18.88 Y80.85 Z-2.694 I2.5 J3.375
X21.38 Y73.275 Z-2.708 I0 J-4.2
G1 Y68.15 Z-2.715
X27.926 Z-2.724
G2 X29.488 Y67.4 Z-2.726 I0 J-2
G1 X40.8 Y53.269 Z-2.75
X52.112 Y67.4 Z-2.774
G2 X53.674 Y68.15 Z-2.776 I1.561 J-1.25
G1 X60.22 Z-2.785
Y73.275 Z-2.792
G2 X62.72 Y80.85 Z-2.806 I2.5 J3.375
X65.22 Y73.275 Z-2.819 I0 J-4.2
G1 Y68.15 Z-2.826
X81.6 Z-2.848
G2 X82.6 Y67.15 Z-2.85 I0 J-1
G1 Y64.15 Z-2.854
G2 X81.6 Y63.15 Z-2.856 I-1 J0
G1 X80.3 Z-2.858
G2 X81.3 Y62.15 Z-2.86 I0 J-1
G1 Y6.7 Z-2.933
G2 X80.3 Y5.7 Z-2.935 I-1 J0
G1 X81.6 Z-2.937
G2 X82.6 Y4.7 Z-2.939 I0 J-1
G1 Y1.7 Z-2.943
G2 X81.6 Y0.7 Z-2.945 I-1 J0
G1 X81.055
G2 X74.305 Z-2.956 I-3.375 J2.5
G1 X7.295 Z-3.044
G2 X0.545 Z-3.055 I-3.375 J2.5
G1 X0
G2 X-1 Y1.7 Z-3.057 I0 J1
G1 Y4.7 Z-3.061
G2 X0 Y5.7 Z-3.063 I1 J0
G1 X1.3 Z-3.065
G2 X0.3 Y6.7 Z-3.067 I0 J1
G1 Y62.15 Z-3.14
G2 X1.3 Y63.15 Z-3.142 I1 J0
G1 X0 Z-3.144
G2 X-1 Y64.15 Z-3.146 I0 J1
G1 Y67.15 Z-3.15
G2 X0 Y68.15 Z-3.152 I1 J0
G1 X16.38 Z-3.174
Y73.275 Z-3.181
G2 X18.88 Y80.85 Z-3.194 I2.5 J3.375
X21.38 Y73.275 Z-3.208 I0 J-4.2
G1 Y68.15 Z-3.215
X27.926 Z-3.224
G2 X29.488 Y67.4 Z-3.226 I0 J-2
G1 X40.8 Y53.269 Z-3.25
X52.112 Y67.4 Z-3.274
G2 X53.674 Y68.15 Z-3.276 I1.561 J-1.25
G1 X60.22 Z-3.285
Y73.275 Z-3.292
G2 X62.72 Y80.85 Z-3.306 I2.5 J3.375
X65.22 Y73.275 Z-3.319 I0 J-4.2
G1 Y68.15 Z-3.326
X81.6 Z-3.348
G2 X82.6 Y67.15 Z-3.35 I0 J-1
G1 Y64.15 Z-3.354
G2 X81.6 Y63.15 Z-3.356 I-1 J0
G1 X80.3 Z-3.358
G2 X81.3 Y62.15 Z-3.36 I0 J-1
G1 Y6.7 Z-3.433
G2 X80.3 Y5.7 Z-3.435 I-1 J0
G1 X81.6 Z-3.437
G2 X82.6 Y4.7 Z-3.439 I0 J-1
G1 Y1.7 Z-3.443
G2 X81.6 Y0.7 Z-3.445 I-1 J0
G1 X81.055
G2 X74.305 Z-3.456 I-3.375 J2.5
G1 X40.8 Z-3.5
X7.295
G2 X0.545 I-3.375 J2.5
G1 X0
G2 X-1 Y1.7 I0 J1
G1 Y4.7
G2 X0 Y5.7 I1 J0
G1 X1.3
G2 X0.3 Y6.7 I0 J1
G1 Y62.15
G2 X1.3 Y63.15 I1 J0
G1 X0
G2 X-1 Y64.15 I0 J1
G1 Y67.15
G2 X0 Y68.15 I1 J0
G1 X16.38
Y73.275
G2 X18.88 Y80.85 I2.5 J3.375
X21.38 Y73.275 I0 J-4.2
G1 Y68.15
X27.926
G2 X29.488 Y67.4 I0 J-2
G1 X40.8 Y53.269
X52.112 Y67.4
G2 X53.674 Y68.15 I1.561 J-1.25
G1 X60.22
Y73.275
G2 X62.72 Y80.85 I2.5 J3.375
X65.22 Y73.275 I0 J-4.2
G1 Y68.15
X81.6
G2 X82.6 Y67.15 I0 J-1
G1 Y64.15
G2 X81.6 Y63.15 I-1 J0
G1 X80.3
G2 X81.3 Y62.15 I0 J-1
G1 Y6.7
G2 X80.3 Y5.7 I-1 J0
G1 X81.6
G2 X82.6 Y4.7 I0 J-1
G1 Y1.7
G2 X81.6 Y0.7 I-1 J0
G1 X81.055
G2 X74.305 I-3.375 J2.5
G1 X40.8
G0 Z15

M9
M30
