(2MM FLAT HOLES)
(T11  D=2 CR=0 - ZMIN=-4.6 - FLAT END MILL)
G90 G94 G91.1 G40 G49 G17
G21

(2MM FLAT INSIDE)
M5
M9
T11
(DIAMOND OR SPIRAL)
S20000 M3
G54
M8
G0 X-9.035 Y6.772
G43 Z15 H1
Z2
G1 Z0.1 F100
G3 X-5.801 Y10.27 Z0.089 I-12.965 J15.228 F1000
G2 X-10.828 Y15.55 Z0.067 I-1.736 J3.38
X-3.742 Y13.836 Z0.044 I3.291 J-1.9
G3 Y30.164 Z0.006 I-18.258 J8.164
G2 X-11.333 Y30.536 Z-0.022 I-3.795 J0.186
X-5.801 Y33.73 Z-0.039 I3.795 J-0.186
G3 X-19.941 Y41.894 Z-0.078 I-16.199 J-11.73
G2 X-24.059 Y35.506 Z-0.105 I-2.059 J-3.194
Y41.894 Z-0.122 I2.059 J3.194
G3 X-38.199 Y33.73 Z-0.161 I2.059 J-19.894
G2 X-33.172 Y28.45 Z-0.183 I1.736 J-3.38
X-40.258 Y30.164 Z-0.206 I-3.291 J1.9
G3 Y13.836 Z-0.244 I18.258 J-8.164
G2 X-32.667 Y13.464 Z-0.272 I3.795 J-0.186
X-38.199 Y10.27 Z-0.289 I-3.795 J0.186
G3 X-24.059 Y2.106 Z-0.328 I16.199 J11.73
G2 X-19.941 Y8.494 Z-0.355 I2.059 J3.194
Y2.106 Z-0.372 I-2.059 J-3.194
G3 X-5.801 Y10.27 Z-0.411 I-2.059 J19.894
G2 X-10.828 Y15.55 Z-0.433 I-1.736 J3.38
X-3.742 Y13.836 Z-0.456 I3.291 J-1.9
G3 Y30.164 Z-0.494 I-18.258 J8.164
G2 X-11.333 Y30.536 Z-0.522 I-3.795 J0.186
X-5.801 Y33.73 Z-0.539 I3.795 J-0.186
G3 X-19.941 Y41.894 Z-0.578 I-16.199 J-11.73
G2 X-24.059 Y35.506 Z-0.605 I-2.059 J-3.194
Y41.894 Z-0.622 I2.059 J3.194
G3 X-38.199 Y33.73 Z-0.661 I2.059 J-19.894
G2 X-33.172 Y28.45 Z-0.683 I1.736 J-3.38
X-40.258 Y30.164 Z-0.706 I-3.291 J1.9
G3 Y13.836 Z-0.744 I18.258 J-8.164
G2 X-32.667 Y13.464 Z-0.772 I3.795 J-0.186
X-38.199 Y10.27 Z-0.789 I-3.795 J0.186
G3 X-24.059 Y2.106 Z-0.828 I16.199 J11.73
G2 X-19.941 Y8.494 Z-0.855 I2.059 J3.194
Y2.106 Z-0.872 I-2.059 J-3.194
G3 X-5.801 Y10.27 Z-0.911 I-2.059 J19.894
G2 X-10.828 Y15.55 Z-0.933 I-1.736 J3.38
X-3.742 Y13.836 Z-0.956 I3.291 J-1.9
G3 Y30.164 Z-0.994 I-18.258 J8.164
G2 X-11.333 Y30.536 Z-1.022 I-3.795 J0.186
X-5.801 Y33.73 Z-1.039 I3.795 J-0.186
G3 X-19.941 Y41.894 Z-1.078 I-16.199 J-11.73
G2 X-24.059 Y35.506 Z-1.105 I-2.059 J-3.194
Y41.894 Z-1.122 I2.059 J3.194
G3 X-38.199 Y33.73 Z-1.161 I2.059 J-19.894
G2 X-33.172 Y28.45 Z-1.183 I1.736 J-3.38
X-40.258 Y30.164 Z-1.206 I-3.291 J1.9
G3 Y13.836 Z-1.244 I18.258 J-8.164
G2 X-32.667 Y13.464 Z-1.272 I3.795 J-0.186
X-38.199 Y10.27 Z-1.289 I-3.795 J0.186
G3 X-24.059 Y2.106 Z-1.328 I16.199 J11.73
G2 X-19.941 Y8.494 Z-1.355 I2.059 J3.194
Y2.106 Z-1.372 I-2.059 J-3.194
G3 X-5.801 Y10.27 Z-1.411 I-2.059 J19.894
G2 X-10.828 Y15.55 Z-1.433 I-1.736 J3.38
X-3.742 Y13.836 Z-1.456 I3.291 J-1.9
G3 Y30.164 Z-1.494 I-18.258 J8.164
G2 X-11.333 Y30.536 Z-1.522 I-3.795 J0.186
X-5.801 Y33.73 Z-1.539 I3.795 J-0.186
G3 X-19.941 Y41.894 Z-1.578 I-16.199 J-11.73
G2 X-24.059 Y35.506 Z-1.605 I-2.059 J-3.194
Y41.894 Z-1.622 I2.059 J3.194
G3 X-38.199 Y33.73 Z-1.661 I2.059 J-19.894
G2 X-33.172 Y28.45 Z-1.683 I1.736 J-3.38
X-40.258 Y30.164 Z-1.706 I-3.291 J1.9
G3 Y13.836 Z-1.744 I18.258 J-8.164
G2 X-32.667 Y13.464 Z-1.772 I3.795 J-0.186
X-38.199 Y10.27 Z-1.789 I-3.795 J0.186
G3 X-24.059 Y2.106 Z-1.828 I16.199 J11.73
G2 X-19.941 Y8.494 Z-1.855 I2.059 J3.194
Y2.106 Z-1.872 I-2.059 J-3.194
G3 X-5.801 Y10.27 Z-1.911 I-2.059 J19.894
G2 X-10.828 Y15.55 Z-1.933 I-1.736 J3.38
X-3.742 Y13.836 Z-1.956 I3.291 J-1.9
G3 Y30.164 Z-1.994 I-18.258 J8.164
G2 X-11.333 Y30.536 Z-2.022 I-3.795 J0.186
X-5.801 Y33.73 Z-2.039 I3.795 J-0.186
G3 X-19.941 Y41.894 Z-2.078 I-16.199 J-11.73
G2 X-24.059 Y35.506 Z-2.105 I-2.059 J-3.194
Y41.894 Z-2.122 I2.059 J3.194
G3 X-38.199 Y33.73 Z-2.161 I2.059 J-19.894
G2 X-33.172 Y28.45 Z-2.183 I1.736 J-3.38
X-40.258 Y30.164 Z-2.206 I-3.291 J1.9
G3 Y13.836 Z-2.244 I18.258 J-8.164
G2 X-32.667 Y13.464 Z-2.272 I3.795 J-0.186
X-38.199 Y10.27 Z-2.289 I-3.795 J0.186
G3 X-24.059 Y2.106 Z-2.328 I16.199 J11.73
G2 X-19.941 Y8.494 Z-2.355 I2.059 J3.194
Y2.106 Z-2.372 I-2.059 J-3.194
G3 X-5.801 Y10.27 Z-2.411 I-2.059 J19.894
G2 X-10.828 Y15.55 Z-2.433 I-1.736 J3.38
X-3.742 Y13.836 Z-2.456 I3.291 J-1.9
G3 Y30.164 Z-2.494 I-18.258 J8.164
G2 X-11.333 Y30.536 Z-2.522 I-3.795 J0.186
X-5.801 Y33.73 Z-2.539 I3.795 J-0.186
G3 X-19.941 Y41.894 Z-2.578 I-16.199 J-11.73
G2 X-24.059 Y35.506 Z-2.605 I-2.059 J-3.194
Y41.894 Z-2.622 I2.059 J3.194
G3 X-38.199 Y33.73 Z-2.661 I2.059 J-19.894
G2 X-33.172 Y28.45 Z-2.683 I1.736 J-3.38
X-40.258 Y30.164 Z-2.706 I-3.291 J1.9
G3 Y13.836 Z-2.744 I18.258 J-8.164
G2 X-32.667 Y13.464 Z-2.772 I3.795 J-0.186
X-38.199 Y10.27 Z-2.789 I-3.795 J0.186
G3 X-24.059 Y2.106 Z-2.828 I16.199 J11.73
G2 X-19.941 Y8.494 Z-2.855 I2.059 J3.194
Y2.106 Z-2.872 I-2.059 J-3.194
G3 X-5.801 Y10.27 Z-2.911 I-2.059 J19.894
G2 X-10.828 Y15.55 Z-2.933 I-1.736 J3.38
X-3.742 Y13.836 Z-2.956 I3.291 J-1.9
G3 Y30.164 Z-2.994 I-18.258 J8.164
G2 X-11.333 Y30.536 Z-3.022 I-3.795 J0.186
X-5.801 Y33.73 Z-3.039 I3.795 J-0.186
G3 X-19.941 Y41.894 Z-3.078 I-16.199 J-11.73
G2 X-24.059 Y35.506 Z-3.105 I-2.059 J-3.194
Y41.894 Z-3.122 I2.059 J3.194
G3 X-38.199 Y33.73 Z-3.161 I2.059 J-19.894
G2 X-33.172 Y28.45 Z-3.183 I1.736 J-3.38
X-40.258 Y30.164 Z-3.206 I-3.291 J1.9
G3 Y13.836 Z-3.244 I18.258 J-8.164
G2 X-32.667 Y13.464 Z-3.272 I3.795 J-0.186
X-38.199 Y10.27 Z-3.289 I-3.795 J0.186
G3 X-24.059 Y2.106 Z-3.328 I16.199 J11.73
G2 X-19.941 Y8.494 Z-3.355 I2.059 J3.194
Y2.106 Z-3.372 I-2.059 J-3.194
G3 X-5.801 Y10.27 Z-3.411 I-2.059 J19.894
G2 X-10.828 Y15.55 Z-3.433 I-1.736 J3.38
X-3.742 Y13.836 Z-3.456 I3.291 J-1.9
G3 Y30.164 Z-3.494 I-18.258 J8.164
G2 X-11.333 Y30.536 Z-3.522 I-3.795 J0.186
X-5.801 Y33.73 Z-3.539 I3.795 J-0.186
G3 X-19.941 Y41.894 Z-3.578 I-16.199 J-11.73
G2 X-24.059 Y35.506 Z-3.605 I-2.059 J-3.194
Y41.894 Z-3.622 I2.059 J3.194
G3 X-38.199 Y33.73 Z-3.661 I2.059 J-19.894
G2 X-33.172 Y28.45 Z-3.683 I1.736 J-3.38
X-40.258 Y30.164 Z-3.706 I-3.291 J1.9
G3 Y13.836 Z-3.744 I18.258 J-8.164
G2 X-32.667 Y13.464 Z-3.772 I3.795 J-0.186
X-38.199 Y10.27 Z-3.789 I-3.795 J0.186
G3 X-24.059 Y2.106 Z-3.828 I16.199 J11.73
G2 X-19.941 Y8.494 Z-3.855 I2.059 J3.194
Y2.106 Z-3.872 I-2.059 J-3.194
G3 X-5.801 Y10.27 Z-3.911 I-2.059 J19.894
G2 X-10.828 Y15.55 Z-3.933 I-1.736 J3.38
X-3.742 Y13.836 Z-3.956 I3.291 J-1.9
G3 Y30.164 Z-3.994 I-18.258 J8.164
G2 X-11.333 Y30.536 Z-4.022 I-3.795 J0.186
X-5.801 Y33.73 Z-4.039 I3.795 J-0.186
G3 X-19.941 Y41.894 Z-4.078 I-16.199 J-11.73
G2 X-24.059 Y35.506 Z-4.105 I-2.059 J-3.194
Y41.894 Z-4.122 I2.059 J3.194
G3 X-38.199 Y33.73 Z-4.161 I2.059 J-19.894
G2 X-33.172 Y28.45 Z-4.183 I1.736 J-3.38
X-40.258 Y30.164 Z-4.206 I-3.291 J1.9
G3 Y13.836 Z-4.244 I18.258 J-8.164
G2 X-32.667 Y13.464 Z-4.272 I3.795 J-0.186
X-38.199 Y10.27 Z-4.289 I-3.795 J0.186
G3 X-24.059 Y2.106 Z-4.328 I16.199 J11.73
G2 X-19.941 Y8.494 Z-4.355 I2.059 J3.194
Y2.106 Z-4.372 I-2.059 J-3.194
G3 X-5.801 Y10.27 Z-4.411 I-2.059 J19.894
G2 X-10.828 Y15.55 Z-4.433 I-1.736 J3.38
X-3.742 Y13.836 Z-4.456 I3.291 J-1.9
G3 Y30.164 Z-4.494 I-18.258 J8.164
G2 X-11.333 Y30.536 Z-4.522 I-3.795 J0.186
X-5.801 Y33.73 Z-4.539 I3.795 J-0.186
G3 X-19.941 Y41.894 Z-4.578 I-16.199 J-11.73
G2 X-22 Y34.9 Z-4.6 I-2.059 J-3.194
X-24.059 Y41.894 I0 J3.8
G3 X-38.199 Y33.73 I2.059 J-19.894
G2 X-33.172 Y28.45 I1.736 J-3.38
X-40.258 Y30.164 I-3.291 J1.9
G3 Y13.836 I18.258 J-8.164
G2 X-32.667 Y13.464 I3.795 J-0.186
X-38.199 Y10.27 I-3.795 J0.186
G3 X-24.059 Y2.106 I16.199 J11.73
G2 X-19.941 Y8.494 I2.059 J3.194
Y2.106 I-2.059 J-3.194
G3 X-5.801 Y10.27 I-2.059 J19.894
G2 X-10.828 Y15.55 I-1.736 J3.38
X-3.742 Y13.836 I3.291 J-1.9
G3 Y30.164 I-18.258 J8.164
G2 X-11.333 Y30.536 I-3.795 J0.186
X-5.801 Y33.73 I3.795 J-0.186
G3 X-19.941 Y41.894 I-16.199 J-11.73
G2 X-22 Y34.9 I-2.059 J-3.194
G0 Z15

M9
M30
