(2MM FLAT HOLES)
(T11  D=2 CR=0 - ZMIN=-1.6 - FLAT END MILL)
G90 G94 G91.1 G40 G49 G17
G21

(2MM FLAT POCKETS)
M5
M9
T11
(DIAMOND OR SPIRAL)
S20000 M3
G54
M8
G0 X-21.856 Y37.942
G43 Z15 H1
Z5
G1 Z0.5 F500
G3 X-21.298 Y39.758 Z0.396 I0.279 J0.908 F1000
X-21.856 Y37.942 Z0.292 I-0.279 J-0.908
X-21.298 Y39.758 Z0.187 I0.279 J0.908
X-21.856 Y37.942 Z0.083 I-0.279 J-0.908
X-21.298 Y39.758 Z-0.021 I0.279 J0.908
X-21.856 Y37.942 Z-0.125 I-0.279 J-0.908
X-21.298 Y39.758 Z-0.23 I0.279 J0.908
X-21.856 Y37.942 Z-0.334 I-0.279 J-0.908
X-21.298 Y39.758 Z-0.438 I0.279 J0.908
X-22.527 Y38.85 Z-0.5 I-0.279 J-0.908
X-21.473 I0.527 J0
G2 X-21.454 Y39.468 I9.905 J0
G3 X-21.434 Y40.087 I-9.885 J0.618
X-21.758 Y40.414 I-0.327 J0
X-22.242 I-0.242 J-19.646
X-22.566 Y40.087 I0.004 J-0.327
X-22.546 Y39.468 I9.905 J0
G2 X-22.527 Y38.85 I-9.885 J-0.618
X-23.003 Y37.933 I-1.122 J0
G3 X-22.913 Y36.903 I0.344 J-0.489
X-19.85 Y38.85 I0.913 J1.947
G1 Y41.884
G3 X-24.15 I-2.15 J-19.884
G1 Y38.85
G3 X-22.913 Y36.903 I2.15 J0
X-22.675 Y36.956 I0.085 J0.181
G1 X-20.82 Y39.167
G3 X-20.813 Y39.414 I-0.153 J0.129
X-22.341 Y38.286 Z-0.604 I-0.764 J-0.564
X-20.813 Y39.414 Z-0.708 I0.764 J0.564
X-22.341 Y38.286 Z-0.813 I-0.764 J-0.564
X-20.813 Y39.414 Z-0.917 I0.764 J0.564
X-22.527 Y38.85 Z-1 I-0.764 J-0.564
X-21.473 I0.527 J0
G2 X-21.454 Y39.468 I9.905 J0
G3 X-21.434 Y40.087 I-9.885 J0.618
X-21.758 Y40.414 I-0.327 J0
X-22.242 I-0.242 J-19.646
X-22.566 Y40.087 I0.004 J-0.327
X-22.546 Y39.468 I9.905 J0
G2 X-22.527 Y38.85 I-9.885 J-0.618
X-23.003 Y37.933 I-1.122 J0
G3 X-22.913 Y36.903 I0.344 J-0.489
X-19.85 Y38.85 I0.913 J1.947
G1 Y41.884
G3 X-24.15 I-2.15 J-19.884
G1 Y38.85
G3 X-22.913 Y36.903 I2.15 J0
X-22.683 Y36.947 I0.085 J0.181
G1 X-20.736 Y38.992
G3 X-20.695 Y39.204 I-0.145 J0.138
X-22.459 Y38.496 Z-1.104 I-0.882 J-0.354
X-20.695 Y39.204 Z-1.208 I0.882 J0.354
X-22.527 Y38.85 Z-1.3 I-0.882 J-0.354
X-21.473 I0.527 J0
G2 X-21.454 Y39.468 I9.905 J0
G3 X-21.434 Y40.087 I-9.885 J0.618
X-21.758 Y40.414 I-0.327 J0
X-22.242 I-0.242 J-19.646
X-22.566 Y40.087 I0.004 J-0.327
X-22.546 Y39.468 I9.905 J0
G2 X-22.527 Y38.85 I-9.885 J-0.618
X-23.003 Y37.933 I-1.122 J0
G3 X-22.913 Y36.903 I0.344 J-0.489
X-19.85 Y38.85 I0.913 J1.947
G1 Y41.884
G3 X-24.15 I-2.15 J-19.884
G1 Y38.85
G3 X-22.913 Y36.903 I2.15 J0
X-22.683 Y36.947 I0.085 J0.181
G1 X-20.736 Y38.992
G3 X-20.695 Y39.204 I-0.145 J0.138
X-22.459 Y38.496 Z-1.404 I-0.882 J-0.354
X-20.695 Y39.204 Z-1.508 I0.882 J0.354
X-22.527 Y38.85 Z-1.6 I-0.882 J-0.354
X-21.473 I0.527 J0
G2 X-21.454 Y39.468 I9.905 J0
G3 X-21.434 Y40.087 I-9.885 J0.618
X-21.758 Y40.414 I-0.327 J0
X-22.242 I-0.242 J-19.646
X-22.566 Y40.087 I0.004 J-0.327
X-22.546 Y39.468 I9.905 J0
G2 X-22.527 Y38.85 I-9.885 J-0.618
X-23.003 Y37.933 I-1.122 J0
G3 X-22.913 Y36.903 I0.344 J-0.489
X-19.85 Y38.85 I0.913 J1.947
G1 Y41.884
G3 X-24.15 I-2.15 J-19.884
G1 Y38.85
G3 X-22.913 Y36.903 I2.15 J0
G0 Z5
X-37.421 Y30.824
G1 Z0.5 F500
G3 X-36.246 Y29.33 Z0.396 I0.587 J-0.747 F1000
X-37.421 Y30.824 Z0.292 I-0.587 J0.747
X-36.246 Y29.33 Z0.187 I0.587 J-0.747
X-37.421 Y30.824 Z0.083 I-0.587 J0.747
X-36.246 Y29.33 Z-0.021 I0.587 J-0.747
X-37.421 Y30.824 Z-0.125 I-0.587 J0.747
X-36.246 Y29.33 Z-0.23 I0.587 J-0.747
X-37.421 Y30.824 Z-0.334 I-0.587 J0.747
X-36.246 Y29.33 Z-0.438 I0.587 J-0.747
X-36.293 Y30.858 Z-0.5 I-0.587 J0.747
X-36.329 Y30.881 I-0.3 J-0.433
G2 X-36.86 Y31.21 I5 J8.66
G3 X-37.391 Y31.539 I-5.53 J-8.33
X-37.82 Y31.427 I-0.158 J-0.273
X-38.068 Y30.997 I17.717 J-10.522
X-37.947 Y30.554 I0.285 J-0.16
X-37.401 Y30.261 I4.952 J8.578
G2 X-36.856 Y29.969 I-4.407 J-8.87
G3 X-36.293 Y30.858 I0.263 J0.456
G2 X-36.856 Y32.149 I0.764 J1.102
G3 X-37.473 Y33.416 I-1.246 J0.177
G1 X-38.145 Y33.804
G3 X-40.295 Y30.08 I16.145 J-11.804
G1 X-37.668 Y28.563
G3 X-34.731 Y29.35 I1.075 J1.862
X-35.517 Y32.287 I-1.862 J1.075
G1 X-37.473 Y33.416
G3 X-37.573 Y33.35 I-0.034 J-0.058
G1 X-37.535 Y33.044
X-36.851 Y29.543
X-36.877 Y29.203
G3 X-36.805 Y29.127 I0.07 J-0.006
X-36.862 Y31.027 Z-0.604 I-0.029 J0.95
X-36.805 Y29.127 Z-0.708 I0.029 J-0.95
X-36.862 Y31.027 Z-0.813 I-0.029 J0.95
X-36.805 Y29.127 Z-0.917 I0.029 J-0.95
X-36.293 Y30.858 Z-1 I-0.029 J0.95
X-36.329 Y30.881 I-0.3 J-0.433
G2 X-36.86 Y31.21 I5 J8.66
G3 X-37.391 Y31.539 I-5.53 J-8.33
X-37.82 Y31.427 I-0.158 J-0.273
X-38.068 Y30.997 I17.717 J-10.522
X-37.947 Y30.554 I0.285 J-0.16
X-37.401 Y30.261 I4.952 J8.578
G2 X-36.856 Y29.969 I-4.407 J-8.87
G3 X-36.293 Y30.858 I0.263 J0.456
G2 X-36.856 Y32.149 I0.764 J1.102
G3 X-37.473 Y33.416 I-1.246 J0.177
G1 X-38.145 Y33.804
G3 X-40.295 Y30.08 I16.145 J-11.804
G1 X-37.668 Y28.563
G3 X-34.731 Y29.35 I1.075 J1.862
X-35.517 Y32.287 I-1.862 J1.075
G1 X-37.473 Y33.416
G3 X-37.607 Y33.329 I-0.045 J-0.077
G1 X-37.564 Y32.919
X-37.029 Y29.667
X-37.111 Y29.255
G3 X-37.045 Y29.151 I0.086 J-0.018
X-36.622 Y31.003 Z-1.104 I0.211 J0.926
X-37.045 Y29.151 Z-1.208 I-0.211 J-0.926
X-36.293 Y30.858 Z-1.3 I0.211 J0.926
X-36.329 Y30.881 I-0.3 J-0.433
G2 X-36.86 Y31.21 I5 J8.66
G3 X-37.391 Y31.539 I-5.53 J-8.33
X-37.82 Y31.427 I-0.158 J-0.273
X-38.068 Y30.997 I17.717 J-10.522
X-37.947 Y30.554 I0.285 J-0.16
X-37.401 Y30.261 I4.952 J8.578
G2 X-36.856 Y29.969 I-4.407 J-8.87
G3 X-36.293 Y30.858 I0.263 J0.456
G2 X-36.856 Y32.149 I0.764 J1.102
G3 X-37.473 Y33.416 I-1.246 J0.177
G1 X-38.145 Y33.804
G3 X-40.295 Y30.08 I16.145 J-11.804
G1 X-37.668 Y28.563
G3 X-34.731 Y29.35 I1.075 J1.862
X-35.517 Y32.287 I-1.862 J1.075
G1 X-37.473 Y33.416
G3 X-37.607 Y33.329 I-0.045 J-0.077
G1 X-37.564 Y32.919
X-37.029 Y29.667
X-37.111 Y29.255
G3 X-37.045 Y29.151 I0.086 J-0.018
X-36.622 Y31.003 Z-1.404 I0.211 J0.926
X-37.045 Y29.151 Z-1.508 I-0.211 J-0.926
X-36.293 Y30.858 Z-1.6 I0.211 J0.926
X-36.329 Y30.881 I-0.3 J-0.433
G2 X-36.86 Y31.21 I5 J8.66
G3 X-37.391 Y31.539 I-5.53 J-8.33
X-37.82 Y31.427 I-0.158 J-0.273
X-38.068 Y30.997 I17.717 J-10.522
X-37.947 Y30.554 I0.285 J-0.16
X-37.401 Y30.261 I4.952 J8.578
G2 X-36.856 Y29.969 I-4.407 J-8.87
G3 X-36.293 Y30.858 I0.263 J0.456
G2 X-36.856 Y32.149 I0.764 J1.102
G3 X-37.473 Y33.416 I-1.246 J0.177
G1 X-38.145 Y33.804
G3 X-40.295 Y30.08 I16.145 J-11.804
G1 X-37.668 Y28.563
G3 X-34.731 Y29.35 I1.075 J1.862
X-35.517 Y32.287 I-1.862 J1.075
G1 X-37.473 Y33.416
G0 Z5
X-37.177 Y14.286
G1 Z0.5 F500
G3 X-36.752 Y12.434 Z0.396 I0.212 J-0.926 F1000
X-37.177 Y14.286 Z0.292 I-0.212 J0.926
X-36.752 Y12.434 Z0.187 I0.212 J-0.926
X-37.177 Y14.286 Z0.083 I-0.212 J0.926
X-36.752 Y12.434 Z-0.021 I0.212 J-0.926
X-37.177 Y14.286 Z-0.125 I-0.212 J0.926
X-36.752 Y12.434 Z-0.23 I0.212 J-0.926
X-37.177 Y14.286 Z-0.334 I-0.212 J0.926
X-36.752 Y12.434 Z-0.438 I0.212 J-0.926
X-36.142 Y13.835 Z-0.5 I-0.212 J0.926
X-36.458 Y14.081 I-0.46 J-0.266
X-36.856 Y14.031 I-0.14 J-0.497
G2 X-37.401 Y13.739 I-4.952 J8.577
G3 X-37.947 Y13.446 I4.407 J-8.871
X-38.068 Y13.003 I0.164 J-0.283
X-37.826 Y12.583 I17.135 J9.613
X-37.381 Y12.467 I0.281 J0.167
X-36.855 Y12.793 I-4.952 J8.578
G2 X-36.329 Y13.119 I5.479 J-8.253
G3 X-36.087 Y13.438 I-0.258 J0.447
X-36.142 Y13.835 I-0.515 J0.131
G2 X-36.188 Y14.87 I0.974 J0.562
G3 X-36.785 Y15.716 I-0.543 J0.251
X-37.668 Y15.437 I0.192 J-2.141
G1 X-40.295 Y13.92
G3 X-38.145 Y10.196 I18.295 J8.08
G1 X-35.517 Y11.713
G3 X-36.785 Y15.716 I-1.075 J1.862
X-37.035 Y15.401 I0.025 J-0.276
G1 X-36.859 Y14.159
G2 X-36.888 Y13.991 I-0.275 J-0.039
G1 X-37.478 Y12.873
G3 X-37.344 Y12.489 I0.245 J-0.129
X-36.585 Y14.231 Z-0.604 I0.38 J0.871
X-37.344 Y12.489 Z-0.708 I-0.38 J-0.871
X-36.585 Y14.231 Z-0.813 I0.38 J0.871
X-37.344 Y12.489 Z-0.917 I-0.38 J-0.871
X-36.142 Y13.835 Z-1 I0.38 J0.871
X-36.458 Y14.081 I-0.46 J-0.266
X-36.856 Y14.031 I-0.14 J-0.497
G2 X-37.401 Y13.739 I-4.952 J8.577
G3 X-37.947 Y13.446 I4.407 J-8.871
X-38.068 Y13.003 I0.164 J-0.283
X-37.826 Y12.583 I17.135 J9.613
X-37.381 Y12.467 I0.281 J0.167
X-36.855 Y12.793 I-4.952 J8.578
G2 X-36.329 Y13.119 I5.479 J-8.253
G3 X-36.087 Y13.438 I-0.258 J0.447
X-36.142 Y13.835 I-0.515 J0.131
G2 X-36.188 Y14.87 I0.974 J0.562
G3 X-36.785 Y15.716 I-0.543 J0.251
X-37.668 Y15.437 I0.192 J-2.141
G1 X-40.295 Y13.92
G3 X-38.145 Y10.196 I18.295 J8.08
G1 X-35.517 Y11.713
G3 X-36.785 Y15.716 I-1.075 J1.862
X-37.034 Y15.405 I0.025 J-0.275
G1 X-36.872 Y14.169
G2 X-36.919 Y13.975 I-0.274 J-0.036
G1 X-37.607 Y12.989
G3 X-37.551 Y12.613 I0.227 J-0.158
X-36.378 Y14.108 Z-1.104 I0.587 J0.747
X-37.551 Y12.613 Z-1.208 I-0.587 J-0.747
X-36.142 Y13.835 Z-1.3 I0.587 J0.747
X-36.458 Y14.081 I-0.46 J-0.266
X-36.856 Y14.031 I-0.14 J-0.497
G2 X-37.401 Y13.739 I-4.952 J8.577
G3 X-37.947 Y13.446 I4.407 J-8.871
X-38.068 Y13.003 I0.164 J-0.283
X-37.826 Y12.583 I17.135 J9.613
X-37.381 Y12.467 I0.281 J0.167
X-36.855 Y12.793 I-4.952 J8.578
G2 X-36.329 Y13.119 I5.479 J-8.253
G3 X-36.087 Y13.438 I-0.258 J0.447
X-36.142 Y13.835 I-0.515 J0.131
G2 X-36.188 Y14.87 I0.974 J0.562
G3 X-36.785 Y15.716 I-0.543 J0.251
X-37.668 Y15.437 I0.192 J-2.141
G1 X-40.295 Y13.92
G3 X-38.145 Y10.196 I18.295 J8.08
G1 X-35.517 Y11.713
G3 X-36.785 Y15.716 I-1.075 J1.862
X-37.034 Y15.405 I0.025 J-0.275
G1 X-36.872 Y14.169
G2 X-36.919 Y13.975 I-0.274 J-0.036
G1 X-37.607 Y12.989
G3 X-37.551 Y12.613 I0.227 J-0.158
X-36.378 Y14.108 Z-1.404 I0.587 J0.747
X-37.551 Y12.613 Z-1.508 I-0.587 J-0.747
X-36.142 Y13.835 Z-1.6 I0.587 J0.747
X-36.458 Y14.081 I-0.46 J-0.266
X-36.856 Y14.031 I-0.14 J-0.497
G2 X-37.401 Y13.739 I-4.952 J8.577
G3 X-37.947 Y13.446 I4.407 J-8.871
X-38.068 Y13.003 I0.164 J-0.283
X-37.826 Y12.583 I17.135 J9.613
X-37.381 Y12.467 I0.281 J0.167
X-36.855 Y12.793 I-4.952 J8.578
G2 X-36.329 Y13.119 I5.479 J-8.253
G3 X-36.087 Y13.438 I-0.258 J0.447
X-36.142 Y13.835 I-0.515 J0.131
G2 X-36.188 Y14.87 I0.974 J0.562
G3 X-36.785 Y15.716 I-0.543 J0.251
X-37.668 Y15.437 I0.192 J-2.141
G1 X-40.295 Y13.92
G3 X-38.145 Y10.196 I18.295 J8.08
G1 X-35.517 Y11.713
G3 X-36.785 Y15.716 I-1.075 J1.862
G0 Z5
X-22.908 Y5
G1 Z0.5 F500
G3 X-21.092 Y4.441 Z0.396 I0.908 J-0.279 F1000
X-22.908 Y5 Z0.292 I-0.908 J0.279
X-21.092 Y4.441 Z0.187 I0.908 J-0.279
X-22.908 Y5 Z0.083 I-0.908 J0.279
X-21.092 Y4.441 Z-0.021 I0.908 J-0.279
X-22.908 Y5 Z-0.125 I-0.908 J0.279
X-21.092 Y4.441 Z-0.23 I0.908 J-0.279
X-22.908 Y5 Z-0.334 I-0.908 J0.279
X-21.092 Y4.441 Z-0.438 I0.908 J-0.279
X-22 Y5.671 Z-0.5 I-0.908 J0.279
X-22.371 Y5.519 I0 J-0.532
X-22.527 Y5.15 I0.361 J-0.369
G2 X-22.546 Y4.532 I-9.905 J0
G3 X-22.566 Y3.913 I9.885 J-0.618
X-22.242 Y3.586 I0.327 J0
X-21.758 I0.242 J19.646
X-21.434 Y3.913 I-0.004 J0.327
X-21.454 Y4.532 I-9.905 J0
G2 X-21.473 Y5.15 I9.885 J0.618
G3 X-21.629 Y5.519 I-0.516 J0
X-22 Y5.671 I-0.371 J-0.38
G2 X-22.919 Y6.147 I0 J1.125
G3 X-23.951 Y6.054 I-0.489 J-0.345
X-24.15 Y5.15 I1.951 J-0.904
G1 Y2.116
G3 X-19.85 I2.15 J19.884
G1 Y5.15
G3 X-23.951 Y6.054 I-2.15 J0
X-23.803 Y5.68 I0.252 J-0.117
G1 X-22.639 Y5.211
G2 X-22.508 Y5.102 I-0.104 J-0.257
G1 X-21.835 Y4.032
G3 X-21.436 Y3.956 I0.235 J0.148
X-22.564 Y5.485 Z-0.604 I-0.564 J0.764
X-21.436 Y3.956 Z-0.708 I0.564 J-0.764
X-22.564 Y5.485 Z-0.813 I-0.564 J0.764
X-21.436 Y3.956 Z-0.917 I0.564 J-0.764
X-22 Y5.671 Z-1 I-0.564 J0.764
X-22.371 Y5.519 I0 J-0.532
X-22.527 Y5.15 I0.361 J-0.369
G2 X-22.546 Y4.532 I-9.905 J0
G3 X-22.566 Y3.913 I9.885 J-0.618
X-22.242 Y3.586 I0.327 J0
X-21.758 I0.242 J19.646
X-21.434 Y3.913 I-0.004 J0.327
X-21.454 Y4.532 I-9.905 J0
G2 X-21.473 Y5.15 I9.885 J0.618
G3 X-21.629 Y5.519 I-0.516 J0
X-22 Y5.671 I-0.371 J-0.38
G2 X-22.919 Y6.147 I0 J1.125
G3 X-23.951 Y6.054 I-0.489 J-0.345
X-24.15 Y5.15 I1.951 J-0.904
G1 Y2.116
G3 X-19.85 I2.15 J19.884
G1 Y5.15
G3 X-23.951 Y6.054 I-2.15 J0
X-23.806 Y5.683 I0.251 J-0.116
G1 X-22.654 Y5.205
G2 X-22.509 Y5.067 I-0.106 J-0.255
G1 X-21.999 Y3.978
G3 X-21.646 Y3.839 I0.25 J0.117
X-22.354 Y5.602 Z-1.104 I-0.354 J0.882
X-21.646 Y3.839 Z-1.208 I0.354 J-0.882
X-22 Y5.671 Z-1.3 I-0.354 J0.882
X-22.371 Y5.519 I0 J-0.532
X-22.527 Y5.15 I0.361 J-0.369
G2 X-22.546 Y4.532 I-9.905 J0
G3 X-22.566 Y3.913 I9.885 J-0.618
X-22.242 Y3.586 I0.327 J0
X-21.758 I0.242 J19.646
X-21.434 Y3.913 I-0.004 J0.327
X-21.454 Y4.532 I-9.905 J0
G2 X-21.473 Y5.15 I9.885 J0.618
G3 X-21.629 Y5.519 I-0.516 J0
X-22 Y5.671 I-0.371 J-0.38
G2 X-22.919 Y6.147 I0 J1.125
G3 X-23.951 Y6.054 I-0.489 J-0.345
X-24.15 Y5.15 I1.951 J-0.904
G1 Y2.116
G3 X-19.85 I2.15 J19.884
G1 Y5.15
G3 X-23.951 Y6.054 I-2.15 J0
X-23.806 Y5.683 I0.251 J-0.116
G1 X-22.654 Y5.205
G2 X-22.509 Y5.067 I-0.106 J-0.255
G1 X-21.999 Y3.978
G3 X-21.646 Y3.839 I0.25 J0.117
X-22.354 Y5.602 Z-1.404 I-0.354 J0.882
X-21.646 Y3.839 Z-1.508 I0.354 J-0.882
X-22 Y5.671 Z-1.6 I-0.354 J0.882
X-22.371 Y5.519 I0 J-0.532
X-22.527 Y5.15 I0.361 J-0.369
G2 X-22.546 Y4.532 I-9.905 J0
G3 X-22.566 Y3.913 I9.885 J-0.618
X-22.242 Y3.586 I0.327 J0
X-21.758 I0.242 J19.646
X-21.434 Y3.913 I-0.004 J0.327
X-21.454 Y4.532 I-9.905 J0
G2 X-21.473 Y5.15 I9.885 J0.618
G3 X-21.629 Y5.519 I-0.516 J0
X-22 Y5.671 I-0.371 J-0.38
G2 X-22.919 Y6.147 I0 J1.125
G3 X-23.951 Y6.054 I-0.489 J-0.345
X-24.15 Y5.15 I1.951 J-0.904
G1 Y2.116
G3 X-19.85 I2.15 J19.884
G1 Y5.15
G3 X-23.951 Y6.054 I-2.15 J0
G0 Z5
X-7.731 Y12.714
G1 Z0.5 F500
G3 X-6.34 Y14.007 Z0.396 I0.696 J0.647 F1000
X-7.731 Y12.714 Z0.292 I-0.696 J-0.647
X-6.34 Y14.007 Z0.187 I0.696 J0.647
X-7.731 Y12.714 Z0.083 I-0.696 J-0.647
X-6.34 Y14.007 Z-0.021 I0.696 J0.647
X-7.731 Y12.714 Z-0.125 I-0.696 J-0.647
X-6.34 Y14.007 Z-0.23 I0.696 J0.647
X-7.731 Y12.714 Z-0.334 I-0.696 J-0.647
X-6.34 Y14.007 Z-0.438 I0.696 J0.647
X-7.858 Y13.835 Z-0.5 I-0.696 J-0.647
X-7.913 Y13.438 I0.46 J-0.266
X-7.671 Y13.119 I0.5 J0.128
G2 X-7.145 Y12.793 I-4.952 J-8.578
G3 X-6.619 Y12.467 I5.478 J8.252
X-6.174 Y12.583 I0.164 J0.283
X-5.932 Y13.003 I-16.894 J10.034
X-6.054 Y13.446 I-0.285 J0.16
X-6.599 Y13.739 I-4.952 J-8.578
G2 X-7.144 Y14.031 I4.407 J8.871
G3 X-7.542 Y14.081 I-0.258 J-0.447
X-7.858 Y13.835 I0.144 J-0.512
G2 X-8.731 Y13.277 I-0.974 J0.562
G3 X-9.166 Y12.338 I0.054 J-0.596
X-8.482 Y11.713 I1.758 J1.237
G1 X-5.855 Y10.196
G3 X-3.705 Y13.92 I-16.145 J11.804
G1 X-6.332 Y15.437
G3 X-9.166 Y12.338 I-1.075 J-1.862
X-8.768 Y12.279 I0.227 J0.16
G1 X-7.78 Y13.052
G2 X-7.62 Y13.111 I0.171 J-0.218
G1 X-6.357 Y13.159
G3 X-6.092 Y13.467 I-0.011 J0.277
X-7.98 Y13.254 Z-0.604 I-0.944 J-0.107
X-6.092 Y13.467 Z-0.708 I0.944 J0.107
X-7.98 Y13.254 Z-0.813 I-0.944 J-0.107
X-6.092 Y13.467 Z-0.917 I0.944 J0.107
X-7.858 Y13.835 Z-1 I-0.944 J-0.107
X-7.913 Y13.438 I0.46 J-0.266
X-7.671 Y13.119 I0.5 J0.128
G2 X-7.145 Y12.793 I-4.952 J-8.578
G3 X-6.619 Y12.467 I5.478 J8.252
X-6.174 Y12.583 I0.164 J0.283
X-5.932 Y13.003 I-16.894 J10.034
X-6.054 Y13.446 I-0.285 J0.16
X-6.599 Y13.739 I-4.952 J-8.578
G2 X-7.144 Y14.031 I4.407 J8.871
G3 X-7.542 Y14.081 I-0.258 J-0.447
X-7.858 Y13.835 I0.144 J-0.512
G2 X-8.731 Y13.277 I-0.974 J0.562
G3 X-9.166 Y12.338 I0.054 J-0.596
X-8.482 Y11.713 I1.758 J1.237
G1 X-5.855 Y10.196
G3 X-3.705 Y13.92 I-16.145 J11.804
G1 X-6.332 Y15.437
G3 X-9.166 Y12.338 I-1.075 J-1.862
X-8.772 Y12.277 I0.226 J0.159
G1 X-7.782 Y13.036
G2 X-7.59 Y13.092 I0.168 J-0.219
G1 X-6.392 Y12.99
G3 X-6.095 Y13.226 I0.024 J0.275
X-7.976 Y13.495 Z-1.104 I-0.94 J0.134
X-6.095 Y13.226 Z-1.208 I0.94 J-0.134
X-7.858 Y13.835 Z-1.3 I-0.94 J0.134
X-7.913 Y13.438 I0.46 J-0.266
X-7.671 Y13.119 I0.5 J0.128
G2 X-7.145 Y12.793 I-4.952 J-8.578
G3 X-6.619 Y12.467 I5.478 J8.252
X-6.174 Y12.583 I0.164 J0.283
X-5.932 Y13.003 I-16.894 J10.034
X-6.054 Y13.446 I-0.285 J0.16
X-6.599 Y13.739 I-4.952 J-8.578
G2 X-7.144 Y14.031 I4.407 J8.871
G3 X-7.542 Y14.081 I-0.258 J-0.447
X-7.858 Y13.835 I0.144 J-0.512
G2 X-8.731 Y13.277 I-0.974 J0.562
G3 X-9.166 Y12.338 I0.054 J-0.596
X-8.482 Y11.713 I1.758 J1.237
G1 X-5.855 Y10.196
G3 X-3.705 Y13.92 I-16.145 J11.804
G1 X-6.332 Y15.437
G3 X-9.166 Y12.338 I-1.075 J-1.862
X-8.772 Y12.277 I0.226 J0.159
G1 X-7.782 Y13.036
G2 X-7.59 Y13.092 I0.168 J-0.219
G1 X-6.392 Y12.99
G3 X-6.095 Y13.226 I0.024 J0.275
X-7.976 Y13.495 Z-1.404 I-0.94 J0.134
X-6.095 Y13.226 Z-1.508 I0.94 J-0.134
X-7.858 Y13.835 Z-1.6 I-0.94 J0.134
X-7.913 Y13.438 I0.46 J-0.266
X-7.671 Y13.119 I0.5 J0.128
G2 X-7.145 Y12.793 I-4.952 J-8.578
G3 X-6.619 Y12.467 I5.478 J8.252
X-6.174 Y12.583 I0.164 J0.283
X-5.932 Y13.003 I-16.894 J10.034
X-6.054 Y13.446 I-0.285 J0.16
X-6.599 Y13.739 I-4.952 J-8.578
G2 X-7.144 Y14.031 I4.407 J8.871
G3 X-7.542 Y14.081 I-0.258 J-0.447
X-7.858 Y13.835 I0.144 J-0.512
G2 X-8.731 Y13.277 I-0.974 J0.562
G3 X-9.166 Y12.338 I0.054 J-0.596
X-8.482 Y11.713 I1.758 J1.237
G1 X-5.855 Y10.196
G3 X-3.705 Y13.92 I-16.145 J11.804
G1 X-6.332 Y15.437
G3 X-9.166 Y12.338 I-1.075 J-1.862
G0 Z5
X-6.816 Y29.721
G1 Z0.5 F500
G3 X-7.273 Y31.565 Z0.396 I-0.228 J0.922 F1000
X-6.816 Y29.721 Z0.292 I0.228 J-0.922
X-7.273 Y31.565 Z0.187 I-0.228 J0.922
X-6.816 Y29.721 Z0.083 I0.228 J-0.922
X-7.273 Y31.565 Z-0.021 I-0.228 J0.922
X-6.816 Y29.721 Z-0.125 I0.228 J-0.922
X-7.273 Y31.565 Z-0.23 I-0.228 J0.922
X-6.816 Y29.721 Z-0.334 I0.228 J-0.922
X-7.273 Y31.565 Z-0.438 I-0.228 J0.922
X-7.859 Y30.154 Z-0.5 I0.228 J-0.922
X-7.144 Y29.969 I0.452 J0.271
G2 X-6.599 Y30.261 I4.953 J-8.578
G3 X-6.053 Y30.554 I-4.407 J8.87
X-5.932 Y30.997 I-0.164 J0.283
X-6.174 Y31.417 I-17.137 J-9.614
X-6.619 Y31.533 I-0.281 J-0.167
X-7.145 Y31.207 I4.952 J-8.578
G2 X-7.671 Y30.881 I-5.478 J8.252
G3 X-7.859 Y30.154 I0.263 J-0.456
G2 X-7.795 Y29.122 I-0.961 J-0.578
G3 X-7.187 Y28.286 I0.546 J-0.242
X-6.332 Y28.563 I-0.22 J2.139
G1 X-3.705 Y30.08
G3 X-5.855 Y33.804 I-18.295 J-8.08
G1 X-8.482 Y32.287
G3 X-7.187 Y28.286 I1.075 J-1.862
X-6.942 Y28.605 I-0.028 J0.276
G1 X-7.136 Y29.844
G2 X-7.11 Y30.012 I0.274 J0.043
G1 X-6.54 Y31.139
G3 X-6.681 Y31.52 I-0.247 J0.125
X-7.409 Y29.765 Z-0.604 I-0.364 J-0.877
X-6.681 Y31.52 Z-0.708 I0.364 J0.877
X-7.409 Y29.765 Z-0.813 I-0.364 J-0.877
X-6.681 Y31.52 Z-0.917 I0.364 J0.877
X-7.859 Y30.154 Z-1 I-0.364 J-0.877
X-7.144 Y29.969 I0.452 J0.271
G2 X-6.599 Y30.261 I4.953 J-8.578
G3 X-6.053 Y30.554 I-4.407 J8.87
X-5.932 Y30.997 I-0.164 J0.283
X-6.174 Y31.417 I-17.137 J-9.614
X-6.619 Y31.533 I-0.281 J-0.167
X-7.145 Y31.207 I4.952 J-8.578
G2 X-7.671 Y30.881 I-5.478 J8.252
G3 X-7.859 Y30.154 I0.263 J-0.456
G2 X-7.795 Y29.122 I-0.961 J-0.578
G3 X-7.187 Y28.286 I0.546 J-0.242
X-6.332 Y28.563 I-0.22 J2.139
G1 X-3.705 Y30.08
G3 X-5.855 Y33.804 I-18.295 J-8.08
G1 X-8.482 Y32.287
G3 X-7.187 Y28.286 I1.075 J-1.862
X-6.942 Y28.601 I-0.028 J0.275
G1 X-7.123 Y29.835
G2 X-7.079 Y30.029 I0.273 J0.04
G1 X-6.409 Y31.026
G3 X-6.472 Y31.4 I-0.229 J0.154
X-7.618 Y29.885 Z-1.104 I-0.573 J-0.757
X-6.472 Y31.4 Z-1.208 I0.573 J0.757
X-7.859 Y30.154 Z-1.3 I-0.573 J-0.757
X-7.144 Y29.969 I0.452 J0.271
G2 X-6.599 Y30.261 I4.953 J-8.578
G3 X-6.053 Y30.554 I-4.407 J8.87
X-5.932 Y30.997 I-0.164 J0.283
X-6.174 Y31.417 I-17.137 J-9.614
X-6.619 Y31.533 I-0.281 J-0.167
X-7.145 Y31.207 I4.952 J-8.578
G2 X-7.671 Y30.881 I-5.478 J8.252
G3 X-7.859 Y30.154 I0.263 J-0.456
G2 X-7.795 Y29.122 I-0.961 J-0.578
G3 X-7.187 Y28.286 I0.546 J-0.242
X-6.332 Y28.563 I-0.22 J2.139
G1 X-3.705 Y30.08
G3 X-5.855 Y33.804 I-18.295 J-8.08
G1 X-8.482 Y32.287
G3 X-7.187 Y28.286 I1.075 J-1.862
X-6.942 Y28.601 I-0.028 J0.275
G1 X-7.123 Y29.835
G2 X-7.079 Y30.029 I0.273 J0.04
G1 X-6.409 Y31.026
G3 X-6.472 Y31.4 I-0.229 J0.154
X-7.618 Y29.885 Z-1.404 I-0.573 J-0.757
X-6.472 Y31.4 Z-1.508 I0.573 J0.757
X-7.859 Y30.154 Z-1.6 I-0.573 J-0.757
X-7.144 Y29.969 I0.452 J0.271
G2 X-6.599 Y30.261 I4.953 J-8.578
G3 X-6.053 Y30.554 I-4.407 J8.87
X-5.932 Y30.997 I-0.164 J0.283
X-6.174 Y31.417 I-17.137 J-9.614
X-6.619 Y31.533 I-0.281 J-0.167
X-7.145 Y31.207 I4.952 J-8.578
G2 X-7.671 Y30.881 I-5.478 J8.252
G3 X-7.859 Y30.154 I0.263 J-0.456
G2 X-7.795 Y29.122 I-0.961 J-0.578
G3 X-7.187 Y28.286 I0.546 J-0.242
X-6.332 Y28.563 I-0.22 J2.139
G1 X-3.705 Y30.08
G3 X-5.855 Y33.804 I-18.295 J-8.08
G1 X-8.482 Y32.287
G3 X-7.187 Y28.286 I1.075 J-1.862
G0 Z15

M9
M30
