(2MM FLAT HOLES)
(T11  D=2 CR=0 - ZMIN=-1.6 - FLAT END MILL)
G90 G94 G91.1 G40 G49 G17
G21

(2MM FLAT POCKETS)
M5
M9
T11
(DIAMOND OR SPIRAL)
S20000 M3
G54
M8
G0 X-21.999 Y37.792
G43 Z15 H1
Z5
G1 Z0.5 F500
G3 X-21.44 Y39.608 Z0.396 I0.279 J0.908 F1000
X-21.999 Y37.792 Z0.292 I-0.279 J-0.908
X-21.44 Y39.608 Z0.187 I0.279 J0.908
X-21.999 Y37.792 Z0.083 I-0.279 J-0.908
X-21.44 Y39.608 Z-0.021 I0.279 J0.908
X-21.999 Y37.792 Z-0.125 I-0.279 J-0.908
X-21.44 Y39.608 Z-0.23 I0.279 J0.908
X-21.999 Y37.792 Z-0.334 I-0.279 J-0.908
X-21.44 Y39.608 Z-0.438 I0.279 J0.908
X-22.669 Y38.7 Z-0.5 I-0.279 J-0.908
X-21.33 I0.67 J0
G2 X-21.309 Y39.389 I11.038 J0
G3 X-21.287 Y40.078 I-11.017 J0.689
X-21.611 Y40.409 I-0.33 J0
X-22.404 I-0.389 J-19.724
X-22.713 Y40.093 I0.006 J-0.315
X-22.691 Y39.397 I11.157 J0
G2 X-22.669 Y38.7 I-11.135 J-0.697
X-23.167 Y37.756 I-1.144 J0
G3 X-23.117 Y36.69 I0.355 J-0.518
X-19.7 Y38.7 I1.117 J2.01
G1 Y41.867
G3 X-24.3 I-2.3 J-19.867
G1 Y38.7
G3 X-23.117 Y36.69 I2.3 J0
X-22.719 Y36.827 I0.138 J0.248
G1 X-22.212 Y38.029
G2 X-22.106 Y38.156 I0.261 J-0.11
G1 X-21.028 Y38.859
G3 X-20.955 Y39.264 I-0.155 J0.237
X-22.483 Y38.136 Z-0.604 I-0.764 J-0.564
X-20.955 Y39.264 Z-0.708 I0.764 J0.564
X-22.483 Y38.136 Z-0.813 I-0.764 J-0.564
X-20.955 Y39.264 Z-0.917 I0.764 J0.564
X-22.669 Y38.7 Z-1 I-0.764 J-0.564
X-21.33 I0.67 J0
G2 X-21.309 Y39.389 I11.038 J0
G3 X-21.287 Y40.078 I-11.017 J0.689
X-21.611 Y40.409 I-0.33 J0
X-22.404 I-0.389 J-19.724
X-22.713 Y40.093 I0.006 J-0.315
X-22.691 Y39.397 I11.157 J0
G2 X-22.669 Y38.7 I-11.135 J-0.697
X-23.167 Y37.756 I-1.144 J0
G3 X-23.117 Y36.69 I0.355 J-0.518
X-19.7 Y38.7 I1.117 J2.01
G1 Y41.867
G3 X-24.3 I-2.3 J-19.867
G1 Y38.7
G3 X-23.117 Y36.69 I2.3 J0
X-22.875 Y36.727 I0.097 J0.175
G1 X-20.878 Y38.842
G3 X-20.838 Y39.054 I-0.145 J0.137
X-22.601 Y38.346 Z-1.104 I-0.882 J-0.354
X-20.838 Y39.054 Z-1.208 I0.882 J0.354
X-22.669 Y38.7 Z-1.3 I-0.882 J-0.354
X-21.33 I0.67 J0
G2 X-21.309 Y39.389 I11.038 J0
G3 X-21.287 Y40.078 I-11.017 J0.689
X-21.611 Y40.409 I-0.33 J0
X-22.404 I-0.389 J-19.724
X-22.713 Y40.093 I0.006 J-0.315
X-22.691 Y39.397 I11.157 J0
G2 X-22.669 Y38.7 I-11.135 J-0.697
X-23.167 Y37.756 I-1.144 J0
G3 X-23.117 Y36.69 I0.355 J-0.518
X-19.7 Y38.7 I1.117 J2.01
G1 Y41.867
G3 X-24.3 I-2.3 J-19.867
G1 Y38.7
G3 X-23.117 Y36.69 I2.3 J0
X-22.875 Y36.727 I0.097 J0.175
G1 X-20.878 Y38.842
G3 X-20.838 Y39.054 I-0.145 J0.137
X-22.601 Y38.346 Z-1.404 I-0.882 J-0.354
X-20.838 Y39.054 Z-1.508 I0.882 J0.354
X-22.669 Y38.7 Z-1.6 I-0.882 J-0.354
X-21.33 I0.67 J0
G2 X-21.309 Y39.389 I11.038 J0
G3 X-21.287 Y40.078 I-11.017 J0.689
X-21.611 Y40.409 I-0.33 J0
X-22.404 I-0.389 J-19.724
X-22.713 Y40.093 I0.006 J-0.315
X-22.691 Y39.397 I11.157 J0
G2 X-22.669 Y38.7 I-11.135 J-0.697
X-23.167 Y37.756 I-1.144 J0
G3 X-23.117 Y36.69 I0.355 J-0.518
X-19.7 Y38.7 I1.117 J2.01
G1 Y41.867
G3 X-24.3 I-2.3 J-19.867
G1 Y38.7
G3 X-23.117 Y36.69 I2.3 J0
G0 Z5
X-36.011 Y31.138
G1 Z0.5 F500
G3 X-37.403 Y29.844 Z0.396 I-0.696 J-0.647 F1000
X-36.011 Y31.138 Z0.292 I0.696 J0.647
X-37.403 Y29.844 Z0.187 I-0.696 J-0.647
X-36.011 Y31.138 Z0.083 I0.696 J0.647
X-37.403 Y29.844 Z-0.021 I-0.696 J-0.647
X-36.011 Y31.138 Z-0.125 I0.696 J0.647
X-37.403 Y29.844 Z-0.23 I-0.696 J-0.647
X-36.011 Y31.138 Z-0.334 I0.696 J0.647
X-37.403 Y29.844 Z-0.438 I-0.696 J-0.647
X-35.884 Y30.016 Z-0.5 I0.696 J0.647
X-36.128 Y30.93 I-0.58 J0.335
G2 X-36.72 Y31.297 I5.58 J9.664
G3 X-37.313 Y31.664 I-6.171 J-9.295
X-37.74 Y31.554 I-0.158 J-0.273
X-38.137 Y30.868 I17.532 J-10.589
X-38.013 Y30.422 I0.289 J-0.16
X-37.405 Y30.096 I5.519 J9.56
G2 X-36.798 Y29.77 I-4.912 J-9.887
G3 X-35.884 Y30.016 I0.334 J0.578
G2 X-34.981 Y30.588 I0.993 J-0.569
G3 X-34.493 Y31.538 I-0.05 J0.626
X-35.313 Y32.342 I-1.969 J-1.188
G1 X-38.056 Y33.926
G3 X-40.356 Y29.942 I16.056 J-11.926
G1 X-37.613 Y28.358
G3 X-34.493 Y31.538 I1.15 J1.992
X-34.908 Y31.617 I-0.243 J-0.146
G1 X-35.945 Y30.828
G2 X-36.101 Y30.77 I-0.172 J0.226
G1 X-37.385 Y30.699
G3 X-37.651 Y30.384 I0.016 J-0.283
X-35.763 Y30.598 Z-0.604 I0.944 J0.107
X-37.651 Y30.384 Z-0.708 I-0.944 J-0.107
X-35.763 Y30.598 Z-0.813 I0.944 J0.107
X-37.651 Y30.384 Z-0.917 I-0.944 J-0.107
X-35.884 Y30.016 Z-1 I0.944 J0.107
X-36.128 Y30.93 I-0.58 J0.335
G2 X-36.72 Y31.297 I5.58 J9.664
G3 X-37.313 Y31.664 I-6.171 J-9.295
X-37.74 Y31.554 I-0.158 J-0.273
X-38.137 Y30.868 I17.532 J-10.589
X-38.013 Y30.422 I0.289 J-0.16
X-37.405 Y30.096 I5.519 J9.56
G2 X-36.798 Y29.77 I-4.912 J-9.887
G3 X-35.884 Y30.016 I0.334 J0.578
G2 X-34.981 Y30.588 I0.993 J-0.569
G3 X-34.493 Y31.538 I-0.05 J0.626
X-35.313 Y32.342 I-1.969 J-1.188
G1 X-38.056 Y33.926
G3 X-40.356 Y29.942 I16.056 J-11.926
G1 X-37.613 Y28.358
G3 X-34.493 Y31.538 I1.15 J1.992
X-34.905 Y31.618 I-0.242 J-0.146
G1 X-35.943 Y30.841
G2 X-36.132 Y30.785 I-0.169 J0.226
G1 X-37.348 Y30.867
G3 X-37.647 Y30.625 I-0.019 J-0.282
X-35.766 Y30.357 Z-1.104 I0.94 J-0.134
X-37.647 Y30.625 Z-1.208 I-0.94 J0.134
X-35.884 Y30.016 Z-1.3 I0.94 J-0.134
X-36.128 Y30.93 I-0.58 J0.335
G2 X-36.72 Y31.297 I5.58 J9.664
G3 X-37.313 Y31.664 I-6.171 J-9.295
X-37.74 Y31.554 I-0.158 J-0.273
X-38.137 Y30.868 I17.532 J-10.589
X-38.013 Y30.422 I0.289 J-0.16
X-37.405 Y30.096 I5.519 J9.56
G2 X-36.798 Y29.77 I-4.912 J-9.887
G3 X-35.884 Y30.016 I0.334 J0.578
G2 X-34.981 Y30.588 I0.993 J-0.569
G3 X-34.493 Y31.538 I-0.05 J0.626
X-35.313 Y32.342 I-1.969 J-1.188
G1 X-38.056 Y33.926
G3 X-40.356 Y29.942 I16.056 J-11.926
G1 X-37.613 Y28.358
G3 X-34.493 Y31.538 I1.15 J1.992
X-34.905 Y31.618 I-0.242 J-0.146
G1 X-35.943 Y30.841
G2 X-36.132 Y30.785 I-0.169 J0.226
G1 X-37.348 Y30.867
G3 X-37.647 Y30.625 I-0.019 J-0.282
X-35.766 Y30.357 Z-1.404 I0.94 J-0.134
X-37.647 Y30.625 Z-1.508 I-0.94 J0.134
X-35.884 Y30.016 Z-1.6 I0.94 J-0.134
X-36.128 Y30.93 I-0.58 J0.335
G2 X-36.72 Y31.297 I5.58 J9.664
G3 X-37.313 Y31.664 I-6.171 J-9.295
X-37.74 Y31.554 I-0.158 J-0.273
X-38.137 Y30.868 I17.532 J-10.589
X-38.013 Y30.422 I0.289 J-0.16
X-37.405 Y30.096 I5.519 J9.56
G2 X-36.798 Y29.77 I-4.912 J-9.887
G3 X-35.884 Y30.016 I0.334 J0.578
G2 X-34.981 Y30.588 I0.993 J-0.569
G3 X-34.493 Y31.538 I-0.05 J0.626
X-35.313 Y32.342 I-1.969 J-1.188
G1 X-38.056 Y33.926
G3 X-40.356 Y29.942 I16.056 J-11.926
G1 X-37.613 Y28.358
G3 X-34.493 Y31.538 I1.15 J1.992
G0 Z5
X-36.919 Y14.435
G1 Z0.5 F500
G3 X-36.495 Y12.583 Z0.396 I0.212 J-0.926 F1000
X-36.919 Y14.435 Z0.292 I-0.212 J0.926
X-36.495 Y12.583 Z0.187 I0.212 J-0.926
X-36.919 Y14.435 Z0.083 I-0.212 J0.926
X-36.495 Y12.583 Z-0.021 I0.212 J-0.926
X-36.919 Y14.435 Z-0.125 I-0.212 J0.926
X-36.495 Y12.583 Z-0.23 I0.212 J-0.926
X-36.919 Y14.435 Z-0.334 I-0.212 J0.926
X-36.495 Y12.583 Z-0.438 I0.212 J-0.926
X-35.884 Y13.984 Z-0.5 I-0.212 J0.926
X-36.798 Y14.23 I-0.58 J-0.335
G2 X-37.405 Y13.904 I-5.52 J9.561
G3 X-38.013 Y13.578 I4.912 J-9.886
X-38.137 Y13.132 I0.165 J-0.286
X-37.748 Y12.459 I17.27 J9.522
X-37.3 Y12.343 I0.283 J0.171
X-36.714 Y12.707 I-5.519 J9.56
G2 X-36.128 Y13.07 I6.106 J-9.197
G3 X-35.884 Y13.984 I-0.334 J0.578
G2 X-35.928 Y15.052 I0.99 J0.575
G3 X-36.507 Y15.95 I-0.567 J0.27
X-37.613 Y15.642 I0.044 J-2.3
G1 X-40.356 Y14.058
G3 X-38.056 Y10.074 I18.356 J7.942
G1 X-35.313 Y11.658
G3 X-36.507 Y15.95 I-1.15 J1.992
X-36.783 Y15.63 I0.005 J-0.283
G1 X-36.618 Y14.337
G2 X-36.646 Y14.173 I-0.281 J-0.036
G1 X-37.226 Y13.026
G3 X-37.086 Y12.638 I0.253 J-0.128
X-36.327 Y14.38 Z-0.604 I0.38 J0.871
X-37.086 Y12.638 Z-0.708 I-0.38 J-0.871
X-36.327 Y14.38 Z-0.813 I0.38 J0.871
X-37.086 Y12.638 Z-0.917 I-0.38 J-0.871
X-35.884 Y13.984 Z-1 I0.38 J0.871
X-36.798 Y14.23 I-0.58 J-0.335
G2 X-37.405 Y13.904 I-5.52 J9.561
G3 X-38.013 Y13.578 I4.912 J-9.886
X-38.137 Y13.132 I0.165 J-0.286
X-37.748 Y12.459 I17.27 J9.522
X-37.3 Y12.343 I0.283 J0.171
X-36.714 Y12.707 I-5.519 J9.56
G2 X-36.128 Y13.07 I6.106 J-9.197
G3 X-35.884 Y13.984 I-0.334 J0.578
G2 X-35.928 Y15.052 I0.99 J0.575
G3 X-36.507 Y15.95 I-0.567 J0.27
X-37.613 Y15.642 I0.044 J-2.3
G1 X-40.356 Y14.058
G3 X-38.056 Y10.074 I18.356 J7.942
G1 X-35.313 Y11.658
G3 X-36.507 Y15.95 I-1.15 J1.992
X-36.782 Y15.633 I0.005 J-0.283
G1 X-36.628 Y14.345
G2 X-36.674 Y14.154 I-0.281 J-0.034
G1 X-37.354 Y13.142
G3 X-37.293 Y12.762 I0.235 J-0.157
X-36.12 Y14.256 Z-1.104 I0.587 J0.747
X-37.293 Y12.762 Z-1.208 I-0.587 J-0.747
X-35.884 Y13.984 Z-1.3 I0.587 J0.747
X-36.798 Y14.23 I-0.58 J-0.335
G2 X-37.405 Y13.904 I-5.52 J9.561
G3 X-38.013 Y13.578 I4.912 J-9.886
X-38.137 Y13.132 I0.165 J-0.286
X-37.748 Y12.459 I17.27 J9.522
X-37.3 Y12.343 I0.283 J0.171
X-36.714 Y12.707 I-5.519 J9.56
G2 X-36.128 Y13.07 I6.106 J-9.197
G3 X-35.884 Y13.984 I-0.334 J0.578
G2 X-35.928 Y15.052 I0.99 J0.575
G3 X-36.507 Y15.95 I-0.567 J0.27
X-37.613 Y15.642 I0.044 J-2.3
G1 X-40.356 Y14.058
G3 X-38.056 Y10.074 I18.356 J7.942
G1 X-35.313 Y11.658
G3 X-36.507 Y15.95 I-1.15 J1.992
X-36.782 Y15.633 I0.005 J-0.283
G1 X-36.628 Y14.345
G2 X-36.674 Y14.154 I-0.281 J-0.034
G1 X-37.354 Y13.142
G3 X-37.293 Y12.762 I0.235 J-0.157
X-36.12 Y14.256 Z-1.404 I0.587 J0.747
X-37.293 Y12.762 Z-1.508 I-0.587 J-0.747
X-35.884 Y13.984 Z-1.6 I0.587 J0.747
X-36.798 Y14.23 I-0.58 J-0.335
G2 X-37.405 Y13.904 I-5.52 J9.561
G3 X-38.013 Y13.578 I4.912 J-9.886
X-38.137 Y13.132 I0.165 J-0.286
X-37.748 Y12.459 I17.27 J9.522
X-37.3 Y12.343 I0.283 J0.171
X-36.714 Y12.707 I-5.519 J9.56
G2 X-36.128 Y13.07 I6.106 J-9.197
G3 X-35.884 Y13.984 I-0.334 J0.578
G2 X-35.928 Y15.052 I0.99 J0.575
G3 X-36.507 Y15.95 I-0.567 J0.27
X-37.613 Y15.642 I0.044 J-2.3
G1 X-40.356 Y14.058
G3 X-38.056 Y10.074 I18.356 J7.942
G1 X-35.313 Y11.658
G3 X-36.507 Y15.95 I-1.15 J1.992
G0 Z5
X-22.908 Y5.297
G1 Z0.5 F500
G3 X-21.092 Y4.739 Z0.396 I0.908 J-0.279 F1000
X-22.908 Y5.297 Z0.292 I-0.908 J0.279
X-21.092 Y4.739 Z0.187 I0.908 J-0.279
X-22.908 Y5.297 Z0.083 I-0.908 J0.279
X-21.092 Y4.739 Z-0.021 I0.908 J-0.279
X-22.908 Y5.297 Z-0.125 I-0.908 J0.279
X-21.092 Y4.739 Z-0.23 I0.908 J-0.279
X-22.908 Y5.297 Z-0.334 I-0.908 J0.279
X-21.092 Y4.739 Z-0.438 I0.908 J-0.279
X-22 Y5.968 Z-0.5 I-0.908 J0.279
X-22.67 Y5.3 I0 J-0.67
G2 X-22.691 Y4.611 I-11.038 J0
G3 X-22.713 Y3.922 I11.017 J-0.689
X-22.389 Y3.591 I0.33 J0
X-21.611 I0.389 J19.717
X-21.287 Y3.922 I-0.007 J0.33
X-21.309 Y4.611 I-11.038 J0
G2 X-21.33 Y5.3 I11.017 J0.689
G3 X-22 Y5.968 I-0.668 J0
G2 X-22.946 Y6.464 I-0.003 J1.145
G3 X-24.014 Y6.411 I-0.517 J-0.356
X-24.3 Y5.3 I2.014 J-1.111
G1 Y2.133
G3 X-19.7 I2.3 J19.867
G1 Y5.3
G3 X-24.014 Y6.411 I-2.3 J0
X-23.875 Y6.013 I0.248 J-0.137
G1 X-22.673 Y5.509
G2 X-22.545 Y5.403 I-0.11 J-0.261
G1 X-21.841 Y4.327
G3 X-21.436 Y4.254 I0.237 J0.155
X-22.564 Y5.782 Z-0.604 I-0.564 J0.764
X-21.436 Y4.254 Z-0.708 I0.564 J-0.764
X-22.564 Y5.782 Z-0.813 I-0.564 J0.764
X-21.436 Y4.254 Z-0.917 I0.564 J-0.764
X-22 Y5.968 Z-1 I-0.564 J0.764
X-22.67 Y5.3 I0 J-0.67
G2 X-22.691 Y4.611 I-11.038 J0
G3 X-22.713 Y3.922 I11.017 J-0.689
X-22.389 Y3.591 I0.33 J0
X-21.611 I0.389 J19.717
X-21.287 Y3.922 I-0.007 J0.33
X-21.309 Y4.611 I-11.038 J0
G2 X-21.33 Y5.3 I11.017 J0.689
G3 X-22 Y5.968 I-0.668 J0
G2 X-22.946 Y6.464 I-0.003 J1.145
G3 X-24.014 Y6.411 I-0.517 J-0.356
X-24.3 Y5.3 I2.014 J-1.111
G1 Y2.133
G3 X-19.7 I2.3 J19.867
G1 Y5.3
G3 X-24.014 Y6.411 I-2.3 J0
X-23.877 Y6.015 I0.247 J-0.137
G1 X-22.685 Y5.504
G2 X-22.543 Y5.369 I-0.111 J-0.26
G1 X-22.005 Y4.274
G3 X-21.646 Y4.136 I0.254 J0.125
X-22.354 Y5.9 Z-1.104 I-0.354 J0.882
X-21.646 Y4.136 Z-1.208 I0.354 J-0.882
X-22 Y5.968 Z-1.3 I-0.354 J0.882
X-22.67 Y5.3 I0 J-0.67
G2 X-22.691 Y4.611 I-11.038 J0
G3 X-22.713 Y3.922 I11.017 J-0.689
X-22.389 Y3.591 I0.33 J0
X-21.611 I0.389 J19.717
X-21.287 Y3.922 I-0.007 J0.33
X-21.309 Y4.611 I-11.038 J0
G2 X-21.33 Y5.3 I11.017 J0.689
G3 X-22 Y5.968 I-0.668 J0
G2 X-22.946 Y6.464 I-0.003 J1.145
G3 X-24.014 Y6.411 I-0.517 J-0.356
X-24.3 Y5.3 I2.014 J-1.111
G1 Y2.133
G3 X-19.7 I2.3 J19.867
G1 Y5.3
G3 X-24.014 Y6.411 I-2.3 J0
X-23.877 Y6.015 I0.247 J-0.137
G1 X-22.685 Y5.504
G2 X-22.543 Y5.369 I-0.111 J-0.26
G1 X-22.005 Y4.274
G3 X-21.646 Y4.136 I0.254 J0.125
X-22.354 Y5.9 Z-1.404 I-0.354 J0.882
X-21.646 Y4.136 Z-1.508 I0.354 J-0.882
X-22 Y5.968 Z-1.6 I-0.354 J0.882
X-22.67 Y5.3 I0 J-0.67
G2 X-22.691 Y4.611 I-11.038 J0
G3 X-22.713 Y3.922 I11.017 J-0.689
X-22.389 Y3.591 I0.33 J0
X-21.611 I0.389 J19.717
X-21.287 Y3.922 I-0.007 J0.33
X-21.309 Y4.611 I-11.038 J0
G2 X-21.33 Y5.3 I11.017 J0.689
G3 X-22 Y5.968 I-0.668 J0
G2 X-22.946 Y6.464 I-0.003 J1.145
G3 X-24.014 Y6.411 I-0.517 J-0.356
X-24.3 Y5.3 I2.014 J-1.111
G1 Y2.133
G3 X-19.7 I2.3 J19.867
G1 Y5.3
G3 X-24.014 Y6.411 I-2.3 J0
G0 Z5
X-7.989 Y12.862
G1 Z0.5 F500
G3 X-6.597 Y14.156 Z0.396 I0.696 J0.647 F1000
X-7.989 Y12.862 Z0.292 I-0.696 J-0.647
X-6.597 Y14.156 Z0.187 I0.696 J0.647
X-7.989 Y12.862 Z0.083 I-0.696 J-0.647
X-6.597 Y14.156 Z-0.021 I0.696 J0.647
X-7.989 Y12.862 Z-0.125 I-0.696 J-0.647
X-6.597 Y14.156 Z-0.23 I0.696 J0.647
X-7.989 Y12.862 Z-0.334 I-0.696 J-0.647
X-6.597 Y14.156 Z-0.438 I0.696 J0.647
X-8.116 Y13.984 Z-0.5 I-0.696 J-0.647
X-7.872 Y13.07 I0.58 J-0.335
G2 X-7.286 Y12.707 I-5.519 J-9.56
G3 X-6.7 Y12.343 I6.105 J9.196
X-6.252 Y12.459 I0.165 J0.286
X-5.863 Y13.132 I-16.881 J10.196
X-5.987 Y13.578 I-0.289 J0.16
X-6.595 Y13.904 I-5.519 J-9.559
G2 X-7.202 Y14.23 I4.913 J9.887
G3 X-8.116 Y13.984 I-0.334 J-0.578
G2 X-9.019 Y13.412 I-0.993 J0.569
G3 X-9.507 Y12.462 I0.05 J-0.626
X-8.687 Y11.658 I1.969 J1.188
G1 X-5.944 Y10.074
G3 X-3.644 Y14.058 I-16.056 J11.926
G1 X-6.387 Y15.642
G3 X-9.507 Y12.462 I-1.15 J-1.992
X-9.092 Y12.383 I0.243 J0.146
G1 X-8.055 Y13.172
G2 X-7.899 Y13.23 I0.172 J-0.226
G1 X-6.615 Y13.301
G3 X-6.349 Y13.616 I-0.016 J0.283
X-8.237 Y13.402 Z-0.604 I-0.944 J-0.107
X-6.349 Y13.616 Z-0.708 I0.944 J0.107
X-8.237 Y13.402 Z-0.813 I-0.944 J-0.107
X-6.349 Y13.616 Z-0.917 I0.944 J0.107
X-8.116 Y13.984 Z-1 I-0.944 J-0.107
X-7.872 Y13.07 I0.58 J-0.335
G2 X-7.286 Y12.707 I-5.519 J-9.56
G3 X-6.7 Y12.343 I6.105 J9.196
X-6.252 Y12.459 I0.165 J0.286
X-5.863 Y13.132 I-16.881 J10.196
X-5.987 Y13.578 I-0.289 J0.16
X-6.595 Y13.904 I-5.519 J-9.559
G2 X-7.202 Y14.23 I4.913 J9.887
G3 X-8.116 Y13.984 I-0.334 J-0.578
G2 X-9.019 Y13.412 I-0.993 J0.569
G3 X-9.507 Y12.462 I0.05 J-0.626
X-8.687 Y11.658 I1.969 J1.188
G1 X-5.944 Y10.074
G3 X-3.644 Y14.058 I-16.056 J11.926
G1 X-6.387 Y15.642
G3 X-9.507 Y12.462 I-1.15 J-1.992
X-9.095 Y12.382 I0.242 J0.146
G1 X-8.057 Y13.159
G2 X-7.868 Y13.215 I0.169 J-0.226
G1 X-6.651 Y13.133
G3 X-6.353 Y13.375 I0.019 J0.282
X-8.234 Y13.643 Z-1.104 I-0.94 J0.134
X-6.353 Y13.375 Z-1.208 I0.94 J-0.134
X-8.116 Y13.984 Z-1.3 I-0.94 J0.134
X-7.872 Y13.07 I0.58 J-0.335
G2 X-7.286 Y12.707 I-5.519 J-9.56
G3 X-6.7 Y12.343 I6.105 J9.196
X-6.252 Y12.459 I0.165 J0.286
X-5.863 Y13.132 I-16.881 J10.196
X-5.987 Y13.578 I-0.289 J0.16
X-6.595 Y13.904 I-5.519 J-9.559
G2 X-7.202 Y14.23 I4.913 J9.887
G3 X-8.116 Y13.984 I-0.334 J-0.578
G2 X-9.019 Y13.412 I-0.993 J0.569
G3 X-9.507 Y12.462 I0.05 J-0.626
X-8.687 Y11.658 I1.969 J1.188
G1 X-5.944 Y10.074
G3 X-3.644 Y14.058 I-16.056 J11.926
G1 X-6.387 Y15.642
G3 X-9.507 Y12.462 I-1.15 J-1.992
X-9.095 Y12.382 I0.242 J0.146
G1 X-8.057 Y13.159
G2 X-7.868 Y13.215 I0.169 J-0.226
G1 X-6.651 Y13.133
G3 X-6.353 Y13.375 I0.019 J0.282
X-8.234 Y13.643 Z-1.404 I-0.94 J0.134
X-6.353 Y13.375 Z-1.508 I0.94 J-0.134
X-8.116 Y13.984 Z-1.6 I-0.94 J0.134
X-7.872 Y13.07 I0.58 J-0.335
G2 X-7.286 Y12.707 I-5.519 J-9.56
G3 X-6.7 Y12.343 I6.105 J9.196
X-6.252 Y12.459 I0.165 J0.286
X-5.863 Y13.132 I-16.881 J10.196
X-5.987 Y13.578 I-0.289 J0.16
X-6.595 Y13.904 I-5.519 J-9.559
G2 X-7.202 Y14.23 I4.913 J9.887
G3 X-8.116 Y13.984 I-0.334 J-0.578
G2 X-9.019 Y13.412 I-0.993 J0.569
G3 X-9.507 Y12.462 I0.05 J-0.626
X-8.687 Y11.658 I1.969 J1.188
G1 X-5.944 Y10.074
G3 X-3.644 Y14.058 I-16.056 J11.926
G1 X-6.387 Y15.642
G3 X-9.507 Y12.462 I-1.15 J-1.992
G0 Z5
X-7.081 Y29.565
G1 Z0.5 F500
G3 X-7.505 Y31.417 Z0.396 I-0.212 J0.926 F1000
X-7.081 Y29.565 Z0.292 I0.212 J-0.926
X-7.505 Y31.417 Z0.187 I-0.212 J0.926
X-7.081 Y29.565 Z0.083 I0.212 J-0.926
X-7.505 Y31.417 Z-0.021 I-0.212 J0.926
X-7.081 Y29.565 Z-0.125 I0.212 J-0.926
X-7.505 Y31.417 Z-0.23 I-0.212 J0.926
X-7.081 Y29.565 Z-0.334 I0.212 J-0.926
X-7.505 Y31.417 Z-0.438 I-0.212 J0.926
X-8.116 Y30.016 Z-0.5 I0.212 J-0.926
X-7.202 Y29.77 I0.58 J0.335
G2 X-6.595 Y30.096 I5.52 J-9.561
G3 X-5.987 Y30.422 I-4.912 J9.885
X-5.863 Y30.868 I-0.165 J0.286
X-6.252 Y31.541 I-17.27 J-9.522
X-6.7 Y31.657 I-0.283 J-0.171
X-7.286 Y31.293 I5.519 J-9.559
G2 X-7.872 Y30.93 I-6.106 J9.197
G3 X-8.116 Y30.016 I0.334 J-0.578
G2 X-8.072 Y28.948 I-0.99 J-0.575
G3 X-7.493 Y28.05 I0.567 J-0.27
X-6.387 Y28.358 I-0.044 J2.3
G1 X-3.644 Y29.942
G3 X-5.944 Y33.926 I-18.356 J-7.942
G1 X-8.687 Y32.342
G3 X-7.493 Y28.05 I1.15 J-1.992
X-7.217 Y28.37 I-0.005 J0.283
G1 X-7.382 Y29.663
G2 X-7.354 Y29.827 I0.281 J0.036
G1 X-6.774 Y30.974
G3 X-6.914 Y31.362 I-0.253 J0.128
X-7.673 Y29.62 Z-0.604 I-0.38 J-0.871
X-6.914 Y31.362 Z-0.708 I0.38 J0.871
X-7.673 Y29.62 Z-0.813 I-0.38 J-0.871
X-6.914 Y31.362 Z-0.917 I0.38 J0.871
X-8.116 Y30.016 Z-1 I-0.38 J-0.871
X-7.202 Y29.77 I0.58 J0.335
G2 X-6.595 Y30.096 I5.52 J-9.561
G3 X-5.987 Y30.422 I-4.912 J9.885
X-5.863 Y30.868 I-0.165 J0.286
X-6.252 Y31.541 I-17.27 J-9.522
X-6.7 Y31.657 I-0.283 J-0.171
X-7.286 Y31.293 I5.519 J-9.559
G2 X-7.872 Y30.93 I-6.106 J9.197
G3 X-8.116 Y30.016 I0.334 J-0.578
G2 X-8.072 Y28.948 I-0.99 J-0.575
G3 X-7.493 Y28.05 I0.567 J-0.27
X-6.387 Y28.358 I-0.044 J2.3
G1 X-3.644 Y29.942
G3 X-5.944 Y33.926 I-18.356 J-7.942
G1 X-8.687 Y32.342
G3 X-7.493 Y28.05 I1.15 J-1.992
X-7.218 Y28.367 I-0.005 J0.283
G1 X-7.372 Y29.655
G2 X-7.326 Y29.846 I0.281 J0.034
G1 X-6.646 Y30.858
G3 X-6.707 Y31.238 I-0.235 J0.157
X-7.88 Y29.744 Z-1.104 I-0.587 J-0.747
X-6.707 Y31.238 Z-1.208 I0.587 J0.747
X-8.116 Y30.016 Z-1.3 I-0.587 J-0.747
X-7.202 Y29.77 I0.58 J0.335
G2 X-6.595 Y30.096 I5.52 J-9.561
G3 X-5.987 Y30.422 I-4.912 J9.885
X-5.863 Y30.868 I-0.165 J0.286
X-6.252 Y31.541 I-17.27 J-9.522
X-6.7 Y31.657 I-0.283 J-0.171
X-7.286 Y31.293 I5.519 J-9.559
G2 X-7.872 Y30.93 I-6.106 J9.197
G3 X-8.116 Y30.016 I0.334 J-0.578
G2 X-8.072 Y28.948 I-0.99 J-0.575
G3 X-7.493 Y28.05 I0.567 J-0.27
X-6.387 Y28.358 I-0.044 J2.3
G1 X-3.644 Y29.942
G3 X-5.944 Y33.926 I-18.356 J-7.942
G1 X-8.687 Y32.342
G3 X-7.493 Y28.05 I1.15 J-1.992
X-7.218 Y28.367 I-0.005 J0.283
G1 X-7.372 Y29.655
G2 X-7.326 Y29.846 I0.281 J0.034
G1 X-6.646 Y30.858
G3 X-6.707 Y31.238 I-0.235 J0.157
X-7.88 Y29.744 Z-1.404 I-0.587 J-0.747
X-6.707 Y31.238 Z-1.508 I0.587 J0.747
X-8.116 Y30.016 Z-1.6 I-0.587 J-0.747
X-7.202 Y29.77 I0.58 J0.335
G2 X-6.595 Y30.096 I5.52 J-9.561
G3 X-5.987 Y30.422 I-4.912 J9.885
X-5.863 Y30.868 I-0.165 J0.286
X-6.252 Y31.541 I-17.27 J-9.522
X-6.7 Y31.657 I-0.283 J-0.171
X-7.286 Y31.293 I5.519 J-9.559
G2 X-7.872 Y30.93 I-6.106 J9.197
G3 X-8.116 Y30.016 I0.334 J-0.578
G2 X-8.072 Y28.948 I-0.99 J-0.575
G3 X-7.493 Y28.05 I0.567 J-0.27
X-6.387 Y28.358 I-0.044 J2.3
G1 X-3.644 Y29.942
G3 X-5.944 Y33.926 I-18.356 J-7.942
G1 X-8.687 Y32.342
G3 X-7.493 Y28.05 I1.15 J-1.992
G0 Z15

M9
M30
