(2MM FLAT HOLES)
(T49  D=4 CR=0 TAPER=45DEG - ZMIN=-3.9 - CHAMFER MILL)
G90 G94 G91.1 G40 G49 G17
G21

(4MM CHAMFER HOLE CHAMFERS)
M5
M9
T49
(4 FLUTE FISH)
S20000 M3
G54
M8
G0 X-7.407 Y13.575
G43 Z15 H26
Z5
Z3.4
Z0.4
G1 Z-1.7 F30
G0 Z-1.6
G1 Z-1.8 F30
G0 Z-1.7
G1 Z-1.9 F30
G0 Z-1.8
G1 Z-2 F30
G0 Z-1.9
G1 Z-2.1 F30
G0 Z-2
G1 Z-2.2 F30
G0 Z-2.1
G1 Z-2.3 F30
G0 Z-2.2
G1 Z-2.4 F30
G0 Z-2.3
G1 Z-2.5 F30
G0 Z-2.4
G1 Z-2.6 F30
G0 Z-2.5
G1 Z-2.7 F30
G0 Z-2.6
G1 Z-2.8 F30
G0 Z-2.7
G1 Z-2.9 F30
G0 Z-2.8
G1 Z-3 F30
G0 Z-2.9
G1 Z-3.1 F30
G0 Z-3
G1 Z-3.2 F30
G0 Z-3.1
G1 Z-3.3 F30
G0 Z-3.2
G1 Z-3.4 F30
G0 Z-3.3
G1 Z-3.5 F30
G0 Z-3.4
G1 Z-3.6 F30
G0 Z-3.5
G1 Z-3.7 F30
G0 Z-3.6
G1 Z-3.8 F30
G0 Z-3.7
G1 Z-3.9 F30
G4 P2
G0 Z5
X-22 Y5.15
Z3.4
Z0.4
G1 Z-1.7 F30
G0 Z-1.6
G1 Z-1.8 F30
G0 Z-1.7
G1 Z-1.9 F30
G0 Z-1.8
G1 Z-2 F30
G0 Z-1.9
G1 Z-2.1 F30
G0 Z-2
G1 Z-2.2 F30
G0 Z-2.1
G1 Z-2.3 F30
G0 Z-2.2
G1 Z-2.4 F30
G0 Z-2.3
G1 Z-2.5 F30
G0 Z-2.4
G1 Z-2.6 F30
G0 Z-2.5
G1 Z-2.7 F30
G0 Z-2.6
G1 Z-2.8 F30
G0 Z-2.7
G1 Z-2.9 F30
G0 Z-2.8
G1 Z-3 F30
G0 Z-2.9
G1 Z-3.1 F30
G0 Z-3
G1 Z-3.2 F30
G0 Z-3.1
G1 Z-3.3 F30
G0 Z-3.2
G1 Z-3.4 F30
G0 Z-3.3
G1 Z-3.5 F30
G0 Z-3.4
G1 Z-3.6 F30
G0 Z-3.5
G1 Z-3.7 F30
G0 Z-3.6
G1 Z-3.8 F30
G0 Z-3.7
G1 Z-3.9 F30
G4 P2
G0 Z5
X-36.593 Y13.575
Z3.4
Z0.4
G1 Z-1.7 F30
G0 Z-1.6
G1 Z-1.8 F30
G0 Z-1.7
G1 Z-1.9 F30
G0 Z-1.8
G1 Z-2 F30
G0 Z-1.9
G1 Z-2.1 F30
G0 Z-2
G1 Z-2.2 F30
G0 Z-2.1
G1 Z-2.3 F30
G0 Z-2.2
G1 Z-2.4 F30
G0 Z-2.3
G1 Z-2.5 F30
G0 Z-2.4
G1 Z-2.6 F30
G0 Z-2.5
G1 Z-2.7 F30
G0 Z-2.6
G1 Z-2.8 F30
G0 Z-2.7
G1 Z-2.9 F30
G0 Z-2.8
G1 Z-3 F30
G0 Z-2.9
G1 Z-3.1 F30
G0 Z-3
G1 Z-3.2 F30
G0 Z-3.1
G1 Z-3.3 F30
G0 Z-3.2
G1 Z-3.4 F30
G0 Z-3.3
G1 Z-3.5 F30
G0 Z-3.4
G1 Z-3.6 F30
G0 Z-3.5
G1 Z-3.7 F30
G0 Z-3.6
G1 Z-3.8 F30
G0 Z-3.7
G1 Z-3.9 F30
G4 P2
G0 Z5
Y30.425
Z3.4
Z0.4
G1 Z-1.7 F30
G0 Z-1.6
G1 Z-1.8 F30
G0 Z-1.7
G1 Z-1.9 F30
G0 Z-1.8
G1 Z-2 F30
G0 Z-1.9
G1 Z-2.1 F30
G0 Z-2
G1 Z-2.2 F30
G0 Z-2.1
G1 Z-2.3 F30
G0 Z-2.2
G1 Z-2.4 F30
G0 Z-2.3
G1 Z-2.5 F30
G0 Z-2.4
G1 Z-2.6 F30
G0 Z-2.5
G1 Z-2.7 F30
G0 Z-2.6
G1 Z-2.8 F30
G0 Z-2.7
G1 Z-2.9 F30
G0 Z-2.8
G1 Z-3 F30
G0 Z-2.9
G1 Z-3.1 F30
G0 Z-3
G1 Z-3.2 F30
G0 Z-3.1
G1 Z-3.3 F30
G0 Z-3.2
G1 Z-3.4 F30
G0 Z-3.3
G1 Z-3.5 F30
G0 Z-3.4
G1 Z-3.6 F30
G0 Z-3.5
G1 Z-3.7 F30
G0 Z-3.6
G1 Z-3.8 F30
G0 Z-3.7
G1 Z-3.9 F30
G4 P2
G0 Z5
X-22 Y38.85
Z3.4
Z0.4
G1 Z-1.7 F30
G0 Z-1.6
G1 Z-1.8 F30
G0 Z-1.7
G1 Z-1.9 F30
G0 Z-1.8
G1 Z-2 F30
G0 Z-1.9
G1 Z-2.1 F30
G0 Z-2
G1 Z-2.2 F30
G0 Z-2.1
G1 Z-2.3 F30
G0 Z-2.2
G1 Z-2.4 F30
G0 Z-2.3
G1 Z-2.5 F30
G0 Z-2.4
G1 Z-2.6 F30
G0 Z-2.5
G1 Z-2.7 F30
G0 Z-2.6
G1 Z-2.8 F30
G0 Z-2.7
G1 Z-2.9 F30
G0 Z-2.8
G1 Z-3 F30
G0 Z-2.9
G1 Z-3.1 F30
G0 Z-3
G1 Z-3.2 F30
G0 Z-3.1
G1 Z-3.3 F30
G0 Z-3.2
G1 Z-3.4 F30
G0 Z-3.3
G1 Z-3.5 F30
G0 Z-3.4
G1 Z-3.6 F30
G0 Z-3.5
G1 Z-3.7 F30
G0 Z-3.6
G1 Z-3.8 F30
G0 Z-3.7
G1 Z-3.9 F30
G4 P2
G0 Z5
X-7.407 Y30.425
Z3.4
Z0.4
G1 Z-1.7 F30
G0 Z-1.6
G1 Z-1.8 F30
G0 Z-1.7
G1 Z-1.9 F30
G0 Z-1.8
G1 Z-2 F30
G0 Z-1.9
G1 Z-2.1 F30
G0 Z-2
G1 Z-2.2 F30
G0 Z-2.1
G1 Z-2.3 F30
G0 Z-2.2
G1 Z-2.4 F30
G0 Z-2.3
G1 Z-2.5 F30
G0 Z-2.4
G1 Z-2.6 F30
G0 Z-2.5
G1 Z-2.7 F30
G0 Z-2.6
G1 Z-2.8 F30
G0 Z-2.7
G1 Z-2.9 F30
G0 Z-2.8
G1 Z-3 F30
G0 Z-2.9
G1 Z-3.1 F30
G0 Z-3
G1 Z-3.2 F30
G0 Z-3.1
G1 Z-3.3 F30
G0 Z-3.2
G1 Z-3.4 F30
G0 Z-3.3
G1 Z-3.5 F30
G0 Z-3.4
G1 Z-3.6 F30
G0 Z-3.5
G1 Z-3.7 F30
G0 Z-3.6
G1 Z-3.8 F30
G0 Z-3.7
G1 Z-3.9 F30
G4 P2
G0 Z5
Z15

M9
M30
