(01 1MM FLAT HOLES)
(T1  D=1 CR=0 - ZMIN=-4.2 - FLAT END MILL)
G90 G94 G91.1 G40 G49 G17
G21

(01 1MM FLAT HOLES)
M5
M9
T1
(2 FLUTE FISH)
S20000 M3
G54
M8
G0 X-8.756 Y6.639
G43 Z15 H1
Z5
G1 Z2 F60
Z0.5
G3 X-6.064 Y8.03 Z0.422 I1.265 J0.851 F600
G2 X-6.051 Y8.415 Z0.416 I0.468 J0.177
G1 X-8.929 Z0.365
G2 X-8.916 Y8.03 Z0.358 I-0.455 J-0.208
G3 X-6.064 Y6.95 Z0.275 I1.426 J-0.54
Y8.03 Z0.256 I-1.426 J0.54
G2 X-6.051 Y8.415 Z0.249 I0.468 J0.177
G1 X-8.929 Z0.198
G2 X-8.916 Y8.03 Z0.192 I-0.455 J-0.208
G3 X-6.064 Y6.95 Z0.108 I1.426 J-0.54
Y8.03 Z0.089 I-1.426 J0.54
G2 X-6.051 Y8.415 Z0.082 I0.468 J0.177
G1 X-8.929 Z0.032
G2 X-8.916 Y8.03 Z0.025 I-0.455 J-0.208
G3 X-6.064 Y6.95 Z-0.059 I1.426 J-0.54
Y8.03 Z-0.078 I-1.426 J0.54
G2 X-6.051 Y8.415 Z-0.085 I0.468 J0.177
G1 X-8.929 Z-0.135
G2 X-8.916 Y8.03 Z-0.142 I-0.455 J-0.208
G3 X-6.064 Y6.95 Z-0.226 I1.426 J-0.54
Y8.03 Z-0.245 I-1.426 J0.54
G2 X-6.051 Y8.415 Z-0.252 I0.468 J0.177
G1 X-8.929 Z-0.302
G2 X-8.916 Y8.03 Z-0.309 I-0.455 J-0.208
G3 X-6.064 Y6.95 Z-0.393 I1.426 J-0.54
Y8.03 Z-0.412 I-1.426 J0.54
G2 X-6.051 Y8.415 Z-0.419 I0.468 J0.177
G1 X-8.929 Z-0.469
G2 X-8.916 Y8.03 Z-0.476 I-0.455 J-0.208
G3 X-6.064 Y6.95 Z-0.56 I1.426 J-0.54
Y8.03 Z-0.579 I-1.426 J0.54
G2 X-6.051 Y8.415 Z-0.586 I0.468 J0.177
G1 X-8.929 Z-0.636
G2 X-8.916 Y8.03 Z-0.643 I-0.455 J-0.208
G3 X-6.064 Y6.95 Z-0.727 I1.426 J-0.54
Y8.03 Z-0.746 I-1.426 J0.54
G2 X-6.051 Y8.415 Z-0.753 I0.468 J0.177
G1 X-8.929 Z-0.803
G2 X-8.916 Y8.03 Z-0.81 I-0.455 J-0.208
G3 X-6.064 Y6.95 Z-0.894 I1.426 J-0.54
Y8.03 Z-0.913 I-1.426 J0.54
G2 X-6.051 Y8.415 Z-0.92 I0.468 J0.177
G1 X-8.929 Z-0.97
G2 X-8.916 Y8.03 Z-0.977 I-0.455 J-0.208
G3 X-6.064 Y6.95 Z-1.061 I1.426 J-0.54
Y8.03 Z-1.08 I-1.426 J0.54
G2 X-6.051 Y8.415 Z-1.087 I0.468 J0.177
G1 X-8.929 Z-1.137
G2 X-8.916 Y8.03 Z-1.144 I-0.455 J-0.208
G3 X-6.064 Y6.95 Z-1.227 I1.426 J-0.54
Y8.03 Z-1.247 I-1.426 J0.54
G2 X-6.051 Y8.415 Z-1.254 I0.468 J0.177
G1 X-8.929 Z-1.304
G2 X-8.916 Y8.03 Z-1.311 I-0.455 J-0.208
G3 X-6.064 Y6.95 Z-1.394 I1.426 J-0.54
Y8.03 Z-1.414 I-1.426 J0.54
G2 X-6.051 Y8.415 Z-1.421 I0.468 J0.177
G1 X-8.929 Z-1.471
G2 X-8.916 Y8.03 Z-1.478 I-0.455 J-0.208
G3 X-6.064 Y6.95 Z-1.561 I1.426 J-0.54
Y8.03 Z-1.581 I-1.426 J0.54
G2 X-6.051 Y8.415 Z-1.588 I0.468 J0.177
G1 X-8.929 Z-1.638
G2 X-8.916 Y8.03 Z-1.645 I-0.455 J-0.208
G3 X-6.064 Y6.95 Z-1.728 I1.426 J-0.54
Y8.03 Z-1.748 I-1.426 J0.54
G2 X-6.051 Y8.415 Z-1.754 I0.468 J0.177
G1 X-8.929 Z-1.805
G2 X-8.916 Y8.03 Z-1.812 I-0.455 J-0.208
G3 X-6.064 Y6.95 Z-1.895 I1.426 J-0.54
Y8.03 Z-1.914 I-1.426 J0.54
G2 X-6.051 Y8.415 Z-1.921 I0.468 J0.177
G1 X-8.929 Z-1.972
G2 X-8.916 Y8.03 Z-1.978 I-0.455 J-0.208
G3 X-6.064 Y6.95 Z-2.062 I1.426 J-0.54
Y8.03 Z-2.081 I-1.426 J0.54
G2 X-6.051 Y8.415 Z-2.088 I0.468 J0.177
G1 X-8.929 Z-2.139
G2 X-8.916 Y8.03 Z-2.145 I-0.455 J-0.208
G3 X-6.064 Y6.95 Z-2.229 I1.426 J-0.54
Y8.03 Z-2.248 I-1.426 J0.54
G2 X-6.051 Y8.415 Z-2.255 I0.468 J0.177
G1 X-8.929 Z-2.305
G2 X-8.916 Y8.03 Z-2.312 I-0.455 J-0.208
G3 X-6.064 Y6.95 Z-2.396 I1.426 J-0.54
Y8.03 Z-2.415 I-1.426 J0.54
G2 X-6.051 Y8.415 Z-2.422 I0.468 J0.177
G1 X-8.929 Z-2.472
G2 X-8.916 Y8.03 Z-2.479 I-0.455 J-0.208
G3 X-6.064 Y6.95 Z-2.563 I1.426 J-0.54
Y8.03 Z-2.582 I-1.426 J0.54
G2 X-6.051 Y8.415 Z-2.589 I0.468 J0.177
G1 X-8.929 Z-2.639
G2 X-8.916 Y8.03 Z-2.646 I-0.455 J-0.208
G3 X-6.064 Y6.95 Z-2.73 I1.426 J-0.54
Y8.03 Z-2.749 I-1.426 J0.54
G2 X-6.051 Y8.415 Z-2.756 I0.468 J0.177
G1 X-8.929 Z-2.806
G2 X-8.916 Y8.03 Z-2.813 I-0.455 J-0.208
G3 X-6.064 Y6.95 Z-2.897 I1.426 J-0.54
Y8.03 Z-2.916 I-1.426 J0.54
G2 X-6.051 Y8.415 Z-2.923 I0.468 J0.177
G1 X-8.929 Z-2.973
G2 X-8.916 Y8.03 Z-2.98 I-0.455 J-0.208
G3 X-6.064 Y6.95 Z-3.064 I1.426 J-0.54
Y8.03 Z-3.083 I-1.426 J0.54
G2 X-6.051 Y8.415 Z-3.09 I0.468 J0.177
G1 X-8.929 Z-3.14
G2 X-8.916 Y8.03 Z-3.147 I-0.455 J-0.208
G3 X-6.064 Y6.95 Z-3.231 I1.426 J-0.54
Y8.03 Z-3.25 I-1.426 J0.54
G2 X-6.051 Y8.415 Z-3.257 I0.468 J0.177
G1 X-8.929 Z-3.307
G2 X-8.916 Y8.03 Z-3.314 I-0.455 J-0.208
G3 X-6.064 Y6.95 Z-3.398 I1.426 J-0.54
Y8.03 Z-3.417 I-1.426 J0.54
G2 X-6.051 Y8.415 Z-3.424 I0.468 J0.177
G1 X-8.929 Z-3.474
G2 X-8.916 Y8.03 Z-3.481 I-0.455 J-0.208
G3 X-6.064 Y6.95 Z-3.564 I1.426 J-0.54
Y8.03 Z-3.584 I-1.426 J0.54
G2 X-6.051 Y8.415 Z-3.591 I0.468 J0.177
G1 X-8.929 Z-3.641
G2 X-8.916 Y8.03 Z-3.648 I-0.455 J-0.208
G3 X-6.064 Y6.95 Z-3.731 I1.426 J-0.54
Y8.03 Z-3.751 I-1.426 J0.54
G2 X-6.051 Y8.415 Z-3.758 I0.468 J0.177
G1 X-8.929 Z-3.808
G2 X-8.916 Y8.03 Z-3.815 I-0.455 J-0.208
G3 X-6.064 Y6.95 Z-3.898 I1.426 J-0.54
Y8.03 Z-3.918 I-1.426 J0.54
G2 X-6.051 Y8.415 Z-3.924 I0.468 J0.177
G1 X-8.929 Z-3.975
G2 X-8.916 Y8.03 Z-3.982 I-0.455 J-0.208
G3 X-6.064 Y6.95 Z-4.065 I1.426 J-0.54
Y8.03 Z-4.085 I-1.426 J0.54
G2 X-6.051 Y8.415 Z-4.091 I0.468 J0.177
G1 X-8.929 Z-4.142
G2 X-8.916 Y8.03 Z-4.149 I-0.455 J-0.208
G3 X-7.49 Y5.965 Z-4.2 I1.426 J-0.54
X-6.064 Y8.03 I0 J1.525
G2 X-6.051 Y8.415 I0.468 J0.177
G1 X-8.929
G2 X-8.916 Y8.03 I-0.455 J-0.208
G3 X-6.064 Y6.95 I1.426 J-0.54
Y8.03 I-1.426 J0.54
G2 X-6.051 Y8.415 I0.468 J0.177
G1 X-8.929
G2 X-8.916 Y8.03 I-0.455 J-0.208
G3 X-7.49 Y5.965 I1.426 J-0.54
G0 Z5
X-3.126 Y3.327
G1 Z2 F60
Z0.5
G3 X-2.874 Y2.673 Z0.481 I0.126 J-0.327 F600
X-3.126 Y3.327 Z0.462 I-0.126 J0.327
X-2.874 Y2.673 Z0.442 I0.126 J-0.327
X-3.126 Y3.327 Z0.423 I-0.126 J0.327
X-2.874 Y2.673 Z0.404 I0.126 J-0.327
X-3.126 Y3.327 Z0.385 I-0.126 J0.327
X-2.874 Y2.673 Z0.366 I0.126 J-0.327
X-3.126 Y3.327 Z0.346 I-0.126 J0.327
X-2.874 Y2.673 Z0.327 I0.126 J-0.327
X-3.126 Y3.327 Z0.308 I-0.126 J0.327
X-2.874 Y2.673 Z0.289 I0.126 J-0.327
X-3.126 Y3.327 Z0.27 I-0.126 J0.327
X-2.874 Y2.673 Z0.25 I0.126 J-0.327
X-3.126 Y3.327 Z0.231 I-0.126 J0.327
X-2.874 Y2.673 Z0.212 I0.126 J-0.327
X-3.126 Y3.327 Z0.193 I-0.126 J0.327
X-2.874 Y2.673 Z0.174 I0.126 J-0.327
X-3.126 Y3.327 Z0.155 I-0.126 J0.327
X-2.874 Y2.673 Z0.135 I0.126 J-0.327
X-3.126 Y3.327 Z0.116 I-0.126 J0.327
X-2.874 Y2.673 Z0.097 I0.126 J-0.327
X-3.126 Y3.327 Z0.078 I-0.126 J0.327
X-2.874 Y2.673 Z0.059 I0.126 J-0.327
X-3.126 Y3.327 Z0.039 I-0.126 J0.327
X-2.874 Y2.673 Z0.02 I0.126 J-0.327
X-3.126 Y3.327 Z0.001 I-0.126 J0.327
X-2.874 Y2.673 Z-0.018 I0.126 J-0.327
X-3.126 Y3.327 Z-0.037 I-0.126 J0.327
X-2.874 Y2.673 Z-0.057 I0.126 J-0.327
X-3.126 Y3.327 Z-0.076 I-0.126 J0.327
X-2.874 Y2.673 Z-0.095 I0.126 J-0.327
X-3.126 Y3.327 Z-0.114 I-0.126 J0.327
X-2.874 Y2.673 Z-0.133 I0.126 J-0.327
X-3.126 Y3.327 Z-0.153 I-0.126 J0.327
X-2.874 Y2.673 Z-0.172 I0.126 J-0.327
X-3.126 Y3.327 Z-0.191 I-0.126 J0.327
X-2.874 Y2.673 Z-0.21 I0.126 J-0.327
X-3.126 Y3.327 Z-0.229 I-0.126 J0.327
X-2.874 Y2.673 Z-0.249 I0.126 J-0.327
X-3.126 Y3.327 Z-0.268 I-0.126 J0.327
X-2.874 Y2.673 Z-0.287 I0.126 J-0.327
X-3.126 Y3.327 Z-0.306 I-0.126 J0.327
X-2.874 Y2.673 Z-0.325 I0.126 J-0.327
X-3.126 Y3.327 Z-0.344 I-0.126 J0.327
X-2.874 Y2.673 Z-0.364 I0.126 J-0.327
X-3.126 Y3.327 Z-0.383 I-0.126 J0.327
X-2.874 Y2.673 Z-0.402 I0.126 J-0.327
X-3.126 Y3.327 Z-0.421 I-0.126 J0.327
X-2.874 Y2.673 Z-0.44 I0.126 J-0.327
X-3.126 Y3.327 Z-0.46 I-0.126 J0.327
X-2.874 Y2.673 Z-0.479 I0.126 J-0.327
X-3.126 Y3.327 Z-0.498 I-0.126 J0.327
X-2.874 Y2.673 Z-0.517 I0.126 J-0.327
X-3.126 Y3.327 Z-0.536 I-0.126 J0.327
X-2.874 Y2.673 Z-0.556 I0.126 J-0.327
X-3.126 Y3.327 Z-0.575 I-0.126 J0.327
X-2.874 Y2.673 Z-0.594 I0.126 J-0.327
X-3.126 Y3.327 Z-0.613 I-0.126 J0.327
X-2.874 Y2.673 Z-0.632 I0.126 J-0.327
X-3.126 Y3.327 Z-0.652 I-0.126 J0.327
X-2.874 Y2.673 Z-0.671 I0.126 J-0.327
X-3.126 Y3.327 Z-0.69 I-0.126 J0.327
X-2.874 Y2.673 Z-0.709 I0.126 J-0.327
X-3.126 Y3.327 Z-0.728 I-0.126 J0.327
X-2.874 Y2.673 Z-0.748 I0.126 J-0.327
X-3.126 Y3.327 Z-0.767 I-0.126 J0.327
X-2.874 Y2.673 Z-0.786 I0.126 J-0.327
X-3.126 Y3.327 Z-0.805 I-0.126 J0.327
X-2.874 Y2.673 Z-0.824 I0.126 J-0.327
X-3.126 Y3.327 Z-0.843 I-0.126 J0.327
X-2.874 Y2.673 Z-0.863 I0.126 J-0.327
X-3.126 Y3.327 Z-0.882 I-0.126 J0.327
X-2.874 Y2.673 Z-0.901 I0.126 J-0.327
X-3.126 Y3.327 Z-0.92 I-0.126 J0.327
X-2.874 Y2.673 Z-0.939 I0.126 J-0.327
X-3.126 Y3.327 Z-0.959 I-0.126 J0.327
X-2.874 Y2.673 Z-0.978 I0.126 J-0.327
X-3.126 Y3.327 Z-0.997 I-0.126 J0.327
X-2.874 Y2.673 Z-1.016 I0.126 J-0.327
X-3.126 Y3.327 Z-1.035 I-0.126 J0.327
X-2.874 Y2.673 Z-1.055 I0.126 J-0.327
X-3.126 Y3.327 Z-1.074 I-0.126 J0.327
X-2.874 Y2.673 Z-1.093 I0.126 J-0.327
X-3.126 Y3.327 Z-1.112 I-0.126 J0.327
X-2.874 Y2.673 Z-1.131 I0.126 J-0.327
X-3.126 Y3.327 Z-1.151 I-0.126 J0.327
X-2.874 Y2.673 Z-1.17 I0.126 J-0.327
X-3.126 Y3.327 Z-1.189 I-0.126 J0.327
X-2.874 Y2.673 Z-1.208 I0.126 J-0.327
X-3.126 Y3.327 Z-1.227 I-0.126 J0.327
X-2.874 Y2.673 Z-1.247 I0.126 J-0.327
X-3.126 Y3.327 Z-1.266 I-0.126 J0.327
X-2.874 Y2.673 Z-1.285 I0.126 J-0.327
X-3.126 Y3.327 Z-1.304 I-0.126 J0.327
X-2.874 Y2.673 Z-1.323 I0.126 J-0.327
X-3.126 Y3.327 Z-1.343 I-0.126 J0.327
X-2.874 Y2.673 Z-1.362 I0.126 J-0.327
X-3.126 Y3.327 Z-1.381 I-0.126 J0.327
X-2.874 Y2.673 Z-1.4 I0.126 J-0.327
X-3.126 Y3.327 Z-1.419 I-0.126 J0.327
X-2.874 Y2.673 Z-1.438 I0.126 J-0.327
X-3.126 Y3.327 Z-1.458 I-0.126 J0.327
X-2.874 Y2.673 Z-1.477 I0.126 J-0.327
X-3.126 Y3.327 Z-1.496 I-0.126 J0.327
X-2.874 Y2.673 Z-1.515 I0.126 J-0.327
X-3.126 Y3.327 Z-1.534 I-0.126 J0.327
X-2.874 Y2.673 Z-1.554 I0.126 J-0.327
X-3.126 Y3.327 Z-1.573 I-0.126 J0.327
X-2.874 Y2.673 Z-1.592 I0.126 J-0.327
X-3.126 Y3.327 Z-1.611 I-0.126 J0.327
X-2.874 Y2.673 Z-1.63 I0.126 J-0.327
X-3.126 Y3.327 Z-1.65 I-0.126 J0.327
X-2.874 Y2.673 Z-1.669 I0.126 J-0.327
X-3.126 Y3.327 Z-1.688 I-0.126 J0.327
X-2.874 Y2.673 Z-1.707 I0.126 J-0.327
X-3.126 Y3.327 Z-1.726 I-0.126 J0.327
X-2.874 Y2.673 Z-1.746 I0.126 J-0.327
X-3.126 Y3.327 Z-1.765 I-0.126 J0.327
X-2.874 Y2.673 Z-1.784 I0.126 J-0.327
X-3.126 Y3.327 Z-1.803 I-0.126 J0.327
X-2.874 Y2.673 Z-1.822 I0.126 J-0.327
X-3.126 Y3.327 Z-1.842 I-0.126 J0.327
X-2.874 Y2.673 Z-1.861 I0.126 J-0.327
X-3.126 Y3.327 Z-1.88 I-0.126 J0.327
X-2.874 Y2.673 Z-1.899 I0.126 J-0.327
X-3.126 Y3.327 Z-1.918 I-0.126 J0.327
X-2.874 Y2.673 Z-1.937 I0.126 J-0.327
X-3.126 Y3.327 Z-1.957 I-0.126 J0.327
X-2.874 Y2.673 Z-1.976 I0.126 J-0.327
X-3.126 Y3.327 Z-1.995 I-0.126 J0.327
X-2.874 Y2.673 Z-2.014 I0.126 J-0.327
X-3.126 Y3.327 Z-2.033 I-0.126 J0.327
X-2.874 Y2.673 Z-2.053 I0.126 J-0.327
X-3.126 Y3.327 Z-2.072 I-0.126 J0.327
X-2.874 Y2.673 Z-2.091 I0.126 J-0.327
X-3.126 Y3.327 Z-2.11 I-0.126 J0.327
X-2.874 Y2.673 Z-2.129 I0.126 J-0.327
X-3.126 Y3.327 Z-2.149 I-0.126 J0.327
X-2.874 Y2.673 Z-2.168 I0.126 J-0.327
X-3.126 Y3.327 Z-2.187 I-0.126 J0.327
X-2.874 Y2.673 Z-2.206 I0.126 J-0.327
X-3.126 Y3.327 Z-2.225 I-0.126 J0.327
X-2.874 Y2.673 Z-2.245 I0.126 J-0.327
X-3.126 Y3.327 Z-2.264 I-0.126 J0.327
X-2.874 Y2.673 Z-2.283 I0.126 J-0.327
X-3.126 Y3.327 Z-2.302 I-0.126 J0.327
X-2.874 Y2.673 Z-2.321 I0.126 J-0.327
X-3.126 Y3.327 Z-2.341 I-0.126 J0.327
X-2.874 Y2.673 Z-2.36 I0.126 J-0.327
X-3.126 Y3.327 Z-2.379 I-0.126 J0.327
X-2.874 Y2.673 Z-2.398 I0.126 J-0.327
X-3.126 Y3.327 Z-2.417 I-0.126 J0.327
X-2.874 Y2.673 Z-2.437 I0.126 J-0.327
X-3.126 Y3.327 Z-2.456 I-0.126 J0.327
X-2.874 Y2.673 Z-2.475 I0.126 J-0.327
X-3.126 Y3.327 Z-2.494 I-0.126 J0.327
X-2.874 Y2.673 Z-2.513 I0.126 J-0.327
X-3.126 Y3.327 Z-2.532 I-0.126 J0.327
X-2.874 Y2.673 Z-2.552 I0.126 J-0.327
X-3.126 Y3.327 Z-2.571 I-0.126 J0.327
X-2.874 Y2.673 Z-2.59 I0.126 J-0.327
X-3.126 Y3.327 Z-2.609 I-0.126 J0.327
X-2.874 Y2.673 Z-2.628 I0.126 J-0.327
X-3.126 Y3.327 Z-2.648 I-0.126 J0.327
X-2.874 Y2.673 Z-2.667 I0.126 J-0.327
X-3.126 Y3.327 Z-2.686 I-0.126 J0.327
X-2.874 Y2.673 Z-2.705 I0.126 J-0.327
X-3.126 Y3.327 Z-2.724 I-0.126 J0.327
X-2.874 Y2.673 Z-2.744 I0.126 J-0.327
X-3.126 Y3.327 Z-2.763 I-0.126 J0.327
X-2.874 Y2.673 Z-2.782 I0.126 J-0.327
X-3.126 Y3.327 Z-2.801 I-0.126 J0.327
X-2.874 Y2.673 Z-2.82 I0.126 J-0.327
X-3.126 Y3.327 Z-2.84 I-0.126 J0.327
X-2.874 Y2.673 Z-2.859 I0.126 J-0.327
X-3.126 Y3.327 Z-2.878 I-0.126 J0.327
X-2.874 Y2.673 Z-2.897 I0.126 J-0.327
X-3.126 Y3.327 Z-2.916 I-0.126 J0.327
X-2.874 Y2.673 Z-2.936 I0.126 J-0.327
X-3.126 Y3.327 Z-2.955 I-0.126 J0.327
X-2.874 Y2.673 Z-2.974 I0.126 J-0.327
X-3.126 Y3.327 Z-2.993 I-0.126 J0.327
X-2.874 Y2.673 Z-3.012 I0.126 J-0.327
X-3.126 Y3.327 Z-3.031 I-0.126 J0.327
X-2.874 Y2.673 Z-3.051 I0.126 J-0.327
X-3.126 Y3.327 Z-3.07 I-0.126 J0.327
X-2.874 Y2.673 Z-3.089 I0.126 J-0.327
X-3.126 Y3.327 Z-3.108 I-0.126 J0.327
X-2.874 Y2.673 Z-3.127 I0.126 J-0.327
X-3.126 Y3.327 Z-3.147 I-0.126 J0.327
X-2.874 Y2.673 Z-3.166 I0.126 J-0.327
X-3.126 Y3.327 Z-3.185 I-0.126 J0.327
X-2.874 Y2.673 Z-3.204 I0.126 J-0.327
X-3.126 Y3.327 Z-3.223 I-0.126 J0.327
X-2.874 Y2.673 Z-3.243 I0.126 J-0.327
X-3.126 Y3.327 Z-3.262 I-0.126 J0.327
X-2.874 Y2.673 Z-3.281 I0.126 J-0.327
X-3.126 Y3.327 Z-3.3 I-0.126 J0.327
X-2.874 Y2.673 Z-3.319 I0.126 J-0.327
X-3.126 Y3.327 Z-3.339 I-0.126 J0.327
X-2.874 Y2.673 Z-3.358 I0.126 J-0.327
X-3.126 Y3.327 Z-3.377 I-0.126 J0.327
X-2.874 Y2.673 Z-3.396 I0.126 J-0.327
X-3.126 Y3.327 Z-3.415 I-0.126 J0.327
X-2.874 Y2.673 Z-3.435 I0.126 J-0.327
X-3.126 Y3.327 Z-3.454 I-0.126 J0.327
X-2.874 Y2.673 Z-3.473 I0.126 J-0.327
X-3.126 Y3.327 Z-3.492 I-0.126 J0.327
X-2.874 Y2.673 Z-3.511 I0.126 J-0.327
X-3.126 Y3.327 Z-3.53 I-0.126 J0.327
X-2.874 Y2.673 Z-3.55 I0.126 J-0.327
X-3.126 Y3.327 Z-3.569 I-0.126 J0.327
X-2.874 Y2.673 Z-3.588 I0.126 J-0.327
X-3.126 Y3.327 Z-3.607 I-0.126 J0.327
X-2.874 Y2.673 Z-3.626 I0.126 J-0.327
X-3.126 Y3.327 Z-3.646 I-0.126 J0.327
X-2.874 Y2.673 Z-3.665 I0.126 J-0.327
X-3.126 Y3.327 Z-3.684 I-0.126 J0.327
X-2.874 Y2.673 Z-3.703 I0.126 J-0.327
X-3.126 Y3.327 Z-3.722 I-0.126 J0.327
X-2.874 Y2.673 Z-3.742 I0.126 J-0.327
X-3.126 Y3.327 Z-3.761 I-0.126 J0.327
X-2.874 Y2.673 Z-3.78 I0.126 J-0.327
X-3.126 Y3.327 Z-3.799 I-0.126 J0.327
X-2.874 Y2.673 Z-3.818 I0.126 J-0.327
X-3.126 Y3.327 Z-3.838 I-0.126 J0.327
X-2.874 Y2.673 Z-3.857 I0.126 J-0.327
X-3.126 Y3.327 Z-3.876 I-0.126 J0.327
X-2.874 Y2.673 Z-3.895 I0.126 J-0.327
X-3.126 Y3.327 Z-3.914 I-0.126 J0.327
X-2.874 Y2.673 Z-3.934 I0.126 J-0.327
X-3.126 Y3.327 Z-3.953 I-0.126 J0.327
X-2.874 Y2.673 Z-3.972 I0.126 J-0.327
X-3.126 Y3.327 Z-3.991 I-0.126 J0.327
X-2.874 Y2.673 Z-4.01 I0.126 J-0.327
X-3.126 Y3.327 Z-4.03 I-0.126 J0.327
X-2.874 Y2.673 Z-4.049 I0.126 J-0.327
X-3.126 Y3.327 Z-4.068 I-0.126 J0.327
X-2.874 Y2.673 Z-4.087 I0.126 J-0.327
X-3.126 Y3.327 Z-4.106 I-0.126 J0.327
X-2.874 Y2.673 Z-4.125 I0.126 J-0.327
X-3.126 Y3.327 Z-4.145 I-0.126 J0.327
X-2.874 Y2.673 Z-4.164 I0.126 J-0.327
X-3.126 Y3.327 Z-4.183 I-0.126 J0.327
X-3 Y2.65 Z-4.2 I0.126 J-0.327
Y3.35 I0 J0.35
Y2.65 I0 J-0.35
Y3.35 I0 J0.35
Y2.65 I0 J-0.35
G0 Z5
X-11.644 Y2.905
G1 Z2 F60
Z0.5
G3 X-12.317 Y3.095 Z0.481 I-0.337 J0.095 F600
X-11.644 Y2.905 Z0.462 I0.337 J-0.095
X-12.317 Y3.095 Z0.442 I-0.337 J0.095
X-11.644 Y2.905 Z0.423 I0.337 J-0.095
X-12.317 Y3.095 Z0.404 I-0.337 J0.095
X-11.644 Y2.905 Z0.385 I0.337 J-0.095
X-12.317 Y3.095 Z0.366 I-0.337 J0.095
X-11.644 Y2.905 Z0.346 I0.337 J-0.095
X-12.317 Y3.095 Z0.327 I-0.337 J0.095
X-11.644 Y2.905 Z0.308 I0.337 J-0.095
X-12.317 Y3.095 Z0.289 I-0.337 J0.095
X-11.644 Y2.905 Z0.27 I0.337 J-0.095
X-12.317 Y3.095 Z0.25 I-0.337 J0.095
X-11.644 Y2.905 Z0.231 I0.337 J-0.095
X-12.317 Y3.095 Z0.212 I-0.337 J0.095
X-11.644 Y2.905 Z0.193 I0.337 J-0.095
X-12.317 Y3.095 Z0.174 I-0.337 J0.095
X-11.644 Y2.905 Z0.155 I0.337 J-0.095
X-12.317 Y3.095 Z0.135 I-0.337 J0.095
X-11.644 Y2.905 Z0.116 I0.337 J-0.095
X-12.317 Y3.095 Z0.097 I-0.337 J0.095
X-11.644 Y2.905 Z0.078 I0.337 J-0.095
X-12.317 Y3.095 Z0.059 I-0.337 J0.095
X-11.644 Y2.905 Z0.039 I0.337 J-0.095
X-12.317 Y3.095 Z0.02 I-0.337 J0.095
X-11.644 Y2.905 Z0.001 I0.337 J-0.095
X-12.317 Y3.095 Z-0.018 I-0.337 J0.095
X-11.644 Y2.905 Z-0.037 I0.337 J-0.095
X-12.317 Y3.095 Z-0.057 I-0.337 J0.095
X-11.644 Y2.905 Z-0.076 I0.337 J-0.095
X-12.317 Y3.095 Z-0.095 I-0.337 J0.095
X-11.644 Y2.905 Z-0.114 I0.337 J-0.095
X-12.317 Y3.095 Z-0.133 I-0.337 J0.095
X-11.644 Y2.905 Z-0.153 I0.337 J-0.095
X-12.317 Y3.095 Z-0.172 I-0.337 J0.095
X-11.644 Y2.905 Z-0.191 I0.337 J-0.095
X-12.317 Y3.095 Z-0.21 I-0.337 J0.095
X-11.644 Y2.905 Z-0.229 I0.337 J-0.095
X-12.317 Y3.095 Z-0.249 I-0.337 J0.095
X-11.644 Y2.905 Z-0.268 I0.337 J-0.095
X-12.317 Y3.095 Z-0.287 I-0.337 J0.095
X-11.644 Y2.905 Z-0.306 I0.337 J-0.095
X-12.317 Y3.095 Z-0.325 I-0.337 J0.095
X-11.644 Y2.905 Z-0.344 I0.337 J-0.095
X-12.317 Y3.095 Z-0.364 I-0.337 J0.095
X-11.644 Y2.905 Z-0.383 I0.337 J-0.095
X-12.317 Y3.095 Z-0.402 I-0.337 J0.095
X-11.644 Y2.905 Z-0.421 I0.337 J-0.095
X-12.317 Y3.095 Z-0.44 I-0.337 J0.095
X-11.644 Y2.905 Z-0.46 I0.337 J-0.095
X-12.317 Y3.095 Z-0.479 I-0.337 J0.095
X-11.644 Y2.905 Z-0.498 I0.337 J-0.095
X-12.317 Y3.095 Z-0.517 I-0.337 J0.095
X-11.644 Y2.905 Z-0.536 I0.337 J-0.095
X-12.317 Y3.095 Z-0.556 I-0.337 J0.095
X-11.644 Y2.905 Z-0.575 I0.337 J-0.095
X-12.317 Y3.095 Z-0.594 I-0.337 J0.095
X-11.644 Y2.905 Z-0.613 I0.337 J-0.095
X-12.317 Y3.095 Z-0.632 I-0.337 J0.095
X-11.644 Y2.905 Z-0.652 I0.337 J-0.095
X-12.317 Y3.095 Z-0.671 I-0.337 J0.095
X-11.644 Y2.905 Z-0.69 I0.337 J-0.095
X-12.317 Y3.095 Z-0.709 I-0.337 J0.095
X-11.644 Y2.905 Z-0.728 I0.337 J-0.095
X-12.317 Y3.095 Z-0.748 I-0.337 J0.095
X-11.644 Y2.905 Z-0.767 I0.337 J-0.095
X-12.317 Y3.095 Z-0.786 I-0.337 J0.095
X-11.644 Y2.905 Z-0.805 I0.337 J-0.095
X-12.317 Y3.095 Z-0.824 I-0.337 J0.095
X-11.644 Y2.905 Z-0.843 I0.337 J-0.095
X-12.317 Y3.095 Z-0.863 I-0.337 J0.095
X-11.644 Y2.905 Z-0.882 I0.337 J-0.095
X-12.317 Y3.095 Z-0.901 I-0.337 J0.095
X-11.644 Y2.905 Z-0.92 I0.337 J-0.095
X-12.317 Y3.095 Z-0.939 I-0.337 J0.095
X-11.644 Y2.905 Z-0.959 I0.337 J-0.095
X-12.317 Y3.095 Z-0.978 I-0.337 J0.095
X-11.644 Y2.905 Z-0.997 I0.337 J-0.095
X-12.317 Y3.095 Z-1.016 I-0.337 J0.095
X-11.644 Y2.905 Z-1.035 I0.337 J-0.095
X-12.317 Y3.095 Z-1.055 I-0.337 J0.095
X-11.644 Y2.905 Z-1.074 I0.337 J-0.095
X-12.317 Y3.095 Z-1.093 I-0.337 J0.095
X-11.644 Y2.905 Z-1.112 I0.337 J-0.095
X-12.317 Y3.095 Z-1.131 I-0.337 J0.095
X-11.644 Y2.905 Z-1.151 I0.337 J-0.095
X-12.317 Y3.095 Z-1.17 I-0.337 J0.095
X-11.644 Y2.905 Z-1.189 I0.337 J-0.095
X-12.317 Y3.095 Z-1.208 I-0.337 J0.095
X-11.644 Y2.905 Z-1.227 I0.337 J-0.095
X-12.317 Y3.095 Z-1.247 I-0.337 J0.095
X-11.644 Y2.905 Z-1.266 I0.337 J-0.095
X-12.317 Y3.095 Z-1.285 I-0.337 J0.095
X-11.644 Y2.905 Z-1.304 I0.337 J-0.095
X-12.317 Y3.095 Z-1.323 I-0.337 J0.095
X-11.644 Y2.905 Z-1.343 I0.337 J-0.095
X-12.317 Y3.095 Z-1.362 I-0.337 J0.095
X-11.644 Y2.905 Z-1.381 I0.337 J-0.095
X-12.317 Y3.095 Z-1.4 I-0.337 J0.095
X-11.644 Y2.905 Z-1.419 I0.337 J-0.095
X-12.317 Y3.095 Z-1.438 I-0.337 J0.095
X-11.644 Y2.905 Z-1.458 I0.337 J-0.095
X-12.317 Y3.095 Z-1.477 I-0.337 J0.095
X-11.644 Y2.905 Z-1.496 I0.337 J-0.095
X-12.317 Y3.095 Z-1.515 I-0.337 J0.095
X-11.644 Y2.905 Z-1.534 I0.337 J-0.095
X-12.317 Y3.095 Z-1.554 I-0.337 J0.095
X-11.644 Y2.905 Z-1.573 I0.337 J-0.095
X-12.317 Y3.095 Z-1.592 I-0.337 J0.095
X-11.644 Y2.905 Z-1.611 I0.337 J-0.095
X-12.317 Y3.095 Z-1.63 I-0.337 J0.095
X-11.644 Y2.905 Z-1.65 I0.337 J-0.095
X-12.317 Y3.095 Z-1.669 I-0.337 J0.095
X-11.644 Y2.905 Z-1.688 I0.337 J-0.095
X-12.317 Y3.095 Z-1.707 I-0.337 J0.095
X-11.644 Y2.905 Z-1.726 I0.337 J-0.095
X-12.317 Y3.095 Z-1.746 I-0.337 J0.095
X-11.644 Y2.905 Z-1.765 I0.337 J-0.095
X-12.317 Y3.095 Z-1.784 I-0.337 J0.095
X-11.644 Y2.905 Z-1.803 I0.337 J-0.095
X-12.317 Y3.095 Z-1.822 I-0.337 J0.095
X-11.644 Y2.905 Z-1.842 I0.337 J-0.095
X-12.317 Y3.095 Z-1.861 I-0.337 J0.095
X-11.644 Y2.905 Z-1.88 I0.337 J-0.095
X-12.317 Y3.095 Z-1.899 I-0.337 J0.095
X-11.644 Y2.905 Z-1.918 I0.337 J-0.095
X-12.317 Y3.095 Z-1.937 I-0.337 J0.095
X-11.644 Y2.905 Z-1.957 I0.337 J-0.095
X-12.317 Y3.095 Z-1.976 I-0.337 J0.095
X-11.644 Y2.905 Z-1.995 I0.337 J-0.095
X-12.317 Y3.095 Z-2.014 I-0.337 J0.095
X-11.644 Y2.905 Z-2.033 I0.337 J-0.095
X-12.317 Y3.095 Z-2.053 I-0.337 J0.095
X-11.644 Y2.905 Z-2.072 I0.337 J-0.095
X-12.317 Y3.095 Z-2.091 I-0.337 J0.095
X-11.644 Y2.905 Z-2.11 I0.337 J-0.095
X-12.317 Y3.095 Z-2.129 I-0.337 J0.095
X-11.644 Y2.905 Z-2.149 I0.337 J-0.095
X-12.317 Y3.095 Z-2.168 I-0.337 J0.095
X-11.644 Y2.905 Z-2.187 I0.337 J-0.095
X-12.317 Y3.095 Z-2.206 I-0.337 J0.095
X-11.644 Y2.905 Z-2.225 I0.337 J-0.095
X-12.317 Y3.095 Z-2.245 I-0.337 J0.095
X-11.644 Y2.905 Z-2.264 I0.337 J-0.095
X-12.317 Y3.095 Z-2.283 I-0.337 J0.095
X-11.644 Y2.905 Z-2.302 I0.337 J-0.095
X-12.317 Y3.095 Z-2.321 I-0.337 J0.095
X-11.644 Y2.905 Z-2.341 I0.337 J-0.095
X-12.317 Y3.095 Z-2.36 I-0.337 J0.095
X-11.644 Y2.905 Z-2.379 I0.337 J-0.095
X-12.317 Y3.095 Z-2.398 I-0.337 J0.095
X-11.644 Y2.905 Z-2.417 I0.337 J-0.095
X-12.317 Y3.095 Z-2.437 I-0.337 J0.095
X-11.644 Y2.905 Z-2.456 I0.337 J-0.095
X-12.317 Y3.095 Z-2.475 I-0.337 J0.095
X-11.644 Y2.905 Z-2.494 I0.337 J-0.095
X-12.317 Y3.095 Z-2.513 I-0.337 J0.095
X-11.644 Y2.905 Z-2.532 I0.337 J-0.095
X-12.317 Y3.095 Z-2.552 I-0.337 J0.095
X-11.644 Y2.905 Z-2.571 I0.337 J-0.095
X-12.317 Y3.095 Z-2.59 I-0.337 J0.095
X-11.644 Y2.905 Z-2.609 I0.337 J-0.095
X-12.317 Y3.095 Z-2.628 I-0.337 J0.095
X-11.644 Y2.905 Z-2.648 I0.337 J-0.095
X-12.317 Y3.095 Z-2.667 I-0.337 J0.095
X-11.644 Y2.905 Z-2.686 I0.337 J-0.095
X-12.317 Y3.095 Z-2.705 I-0.337 J0.095
X-11.644 Y2.905 Z-2.724 I0.337 J-0.095
X-12.317 Y3.095 Z-2.744 I-0.337 J0.095
X-11.644 Y2.905 Z-2.763 I0.337 J-0.095
X-12.317 Y3.095 Z-2.782 I-0.337 J0.095
X-11.644 Y2.905 Z-2.801 I0.337 J-0.095
X-12.317 Y3.095 Z-2.82 I-0.337 J0.095
X-11.644 Y2.905 Z-2.84 I0.337 J-0.095
X-12.317 Y3.095 Z-2.859 I-0.337 J0.095
X-11.644 Y2.905 Z-2.878 I0.337 J-0.095
X-12.317 Y3.095 Z-2.897 I-0.337 J0.095
X-11.644 Y2.905 Z-2.916 I0.337 J-0.095
X-12.317 Y3.095 Z-2.936 I-0.337 J0.095
X-11.644 Y2.905 Z-2.955 I0.337 J-0.095
X-12.317 Y3.095 Z-2.974 I-0.337 J0.095
X-11.644 Y2.905 Z-2.993 I0.337 J-0.095
X-12.317 Y3.095 Z-3.012 I-0.337 J0.095
X-11.644 Y2.905 Z-3.031 I0.337 J-0.095
X-12.317 Y3.095 Z-3.051 I-0.337 J0.095
X-11.644 Y2.905 Z-3.07 I0.337 J-0.095
X-12.317 Y3.095 Z-3.089 I-0.337 J0.095
X-11.644 Y2.905 Z-3.108 I0.337 J-0.095
X-12.317 Y3.095 Z-3.127 I-0.337 J0.095
X-11.644 Y2.905 Z-3.147 I0.337 J-0.095
X-12.317 Y3.095 Z-3.166 I-0.337 J0.095
X-11.644 Y2.905 Z-3.185 I0.337 J-0.095
X-12.317 Y3.095 Z-3.204 I-0.337 J0.095
X-11.644 Y2.905 Z-3.223 I0.337 J-0.095
X-12.317 Y3.095 Z-3.243 I-0.337 J0.095
X-11.644 Y2.905 Z-3.262 I0.337 J-0.095
X-12.317 Y3.095 Z-3.281 I-0.337 J0.095
X-11.644 Y2.905 Z-3.3 I0.337 J-0.095
X-12.317 Y3.095 Z-3.319 I-0.337 J0.095
X-11.644 Y2.905 Z-3.339 I0.337 J-0.095
X-12.317 Y3.095 Z-3.358 I-0.337 J0.095
X-11.644 Y2.905 Z-3.377 I0.337 J-0.095
X-12.317 Y3.095 Z-3.396 I-0.337 J0.095
X-11.644 Y2.905 Z-3.415 I0.337 J-0.095
X-12.317 Y3.095 Z-3.435 I-0.337 J0.095
X-11.644 Y2.905 Z-3.454 I0.337 J-0.095
X-12.317 Y3.095 Z-3.473 I-0.337 J0.095
X-11.644 Y2.905 Z-3.492 I0.337 J-0.095
X-12.317 Y3.095 Z-3.511 I-0.337 J0.095
X-11.644 Y2.905 Z-3.53 I0.337 J-0.095
X-12.317 Y3.095 Z-3.55 I-0.337 J0.095
X-11.644 Y2.905 Z-3.569 I0.337 J-0.095
X-12.317 Y3.095 Z-3.588 I-0.337 J0.095
X-11.644 Y2.905 Z-3.607 I0.337 J-0.095
X-12.317 Y3.095 Z-3.626 I-0.337 J0.095
X-11.644 Y2.905 Z-3.646 I0.337 J-0.095
X-12.317 Y3.095 Z-3.665 I-0.337 J0.095
X-11.644 Y2.905 Z-3.684 I0.337 J-0.095
X-12.317 Y3.095 Z-3.703 I-0.337 J0.095
X-11.644 Y2.905 Z-3.722 I0.337 J-0.095
X-12.317 Y3.095 Z-3.742 I-0.337 J0.095
X-11.644 Y2.905 Z-3.761 I0.337 J-0.095
X-12.317 Y3.095 Z-3.78 I-0.337 J0.095
X-11.644 Y2.905 Z-3.799 I0.337 J-0.095
X-12.317 Y3.095 Z-3.818 I-0.337 J0.095
X-11.644 Y2.905 Z-3.838 I0.337 J-0.095
X-12.317 Y3.095 Z-3.857 I-0.337 J0.095
X-11.644 Y2.905 Z-3.876 I0.337 J-0.095
X-12.317 Y3.095 Z-3.895 I-0.337 J0.095
X-11.644 Y2.905 Z-3.914 I0.337 J-0.095
X-12.317 Y3.095 Z-3.934 I-0.337 J0.095
X-11.644 Y2.905 Z-3.953 I0.337 J-0.095
X-12.317 Y3.095 Z-3.972 I-0.337 J0.095
X-11.644 Y2.905 Z-3.991 I0.337 J-0.095
X-12.317 Y3.095 Z-4.01 I-0.337 J0.095
X-11.644 Y2.905 Z-4.03 I0.337 J-0.095
X-12.317 Y3.095 Z-4.049 I-0.337 J0.095
X-11.644 Y2.905 Z-4.068 I0.337 J-0.095
X-12.317 Y3.095 Z-4.087 I-0.337 J0.095
X-11.644 Y2.905 Z-4.106 I0.337 J-0.095
X-12.317 Y3.095 Z-4.125 I-0.337 J0.095
X-11.644 Y2.905 Z-4.145 I0.337 J-0.095
X-12.317 Y3.095 Z-4.164 I-0.337 J0.095
X-11.644 Y2.905 Z-4.183 I0.337 J-0.095
X-12.26 Y3.21 Z-4.2 I-0.337 J0.095
X-11.7 Y2.79 I0.28 J-0.21
X-12.26 Y3.21 I-0.28 J0.21
X-11.7 Y2.79 I0.28 J-0.21
X-12.26 Y3.21 I-0.28 J0.21
G0 Z5
X-12.106 Y12.307
G1 Z2 F60
Z0.5
G3 X-11.854 Y11.654 Z0.481 I0.126 J-0.327 F600
X-12.106 Y12.307 Z0.462 I-0.126 J0.327
X-11.854 Y11.654 Z0.442 I0.126 J-0.327
X-12.106 Y12.307 Z0.423 I-0.126 J0.327
X-11.854 Y11.654 Z0.404 I0.126 J-0.327
X-12.106 Y12.307 Z0.385 I-0.126 J0.327
X-11.854 Y11.654 Z0.366 I0.126 J-0.327
X-12.106 Y12.307 Z0.346 I-0.126 J0.327
X-11.854 Y11.654 Z0.327 I0.126 J-0.327
X-12.106 Y12.307 Z0.308 I-0.126 J0.327
X-11.854 Y11.654 Z0.289 I0.126 J-0.327
X-12.106 Y12.307 Z0.27 I-0.126 J0.327
X-11.854 Y11.654 Z0.25 I0.126 J-0.327
X-12.106 Y12.307 Z0.231 I-0.126 J0.327
X-11.854 Y11.654 Z0.212 I0.126 J-0.327
X-12.106 Y12.307 Z0.193 I-0.126 J0.327
X-11.854 Y11.654 Z0.174 I0.126 J-0.327
X-12.106 Y12.307 Z0.155 I-0.126 J0.327
X-11.854 Y11.654 Z0.135 I0.126 J-0.327
X-12.106 Y12.307 Z0.116 I-0.126 J0.327
X-11.854 Y11.654 Z0.097 I0.126 J-0.327
X-12.106 Y12.307 Z0.078 I-0.126 J0.327
X-11.854 Y11.654 Z0.059 I0.126 J-0.327
X-12.106 Y12.307 Z0.039 I-0.126 J0.327
X-11.854 Y11.654 Z0.02 I0.126 J-0.327
X-12.106 Y12.307 Z0.001 I-0.126 J0.327
X-11.854 Y11.654 Z-0.018 I0.126 J-0.327
X-12.106 Y12.307 Z-0.037 I-0.126 J0.327
X-11.854 Y11.654 Z-0.057 I0.126 J-0.327
X-12.106 Y12.307 Z-0.076 I-0.126 J0.327
X-11.854 Y11.654 Z-0.095 I0.126 J-0.327
X-12.106 Y12.307 Z-0.114 I-0.126 J0.327
X-11.854 Y11.654 Z-0.133 I0.126 J-0.327
X-12.106 Y12.307 Z-0.153 I-0.126 J0.327
X-11.854 Y11.654 Z-0.172 I0.126 J-0.327
X-12.106 Y12.307 Z-0.191 I-0.126 J0.327
X-11.854 Y11.654 Z-0.21 I0.126 J-0.327
X-12.106 Y12.307 Z-0.229 I-0.126 J0.327
X-11.854 Y11.654 Z-0.249 I0.126 J-0.327
X-12.106 Y12.307 Z-0.268 I-0.126 J0.327
X-11.854 Y11.654 Z-0.287 I0.126 J-0.327
X-12.106 Y12.307 Z-0.306 I-0.126 J0.327
X-11.854 Y11.654 Z-0.325 I0.126 J-0.327
X-12.106 Y12.307 Z-0.344 I-0.126 J0.327
X-11.854 Y11.654 Z-0.364 I0.126 J-0.327
X-12.106 Y12.307 Z-0.383 I-0.126 J0.327
X-11.854 Y11.654 Z-0.402 I0.126 J-0.327
X-12.106 Y12.307 Z-0.421 I-0.126 J0.327
X-11.854 Y11.654 Z-0.44 I0.126 J-0.327
X-12.106 Y12.307 Z-0.46 I-0.126 J0.327
X-11.854 Y11.654 Z-0.479 I0.126 J-0.327
X-12.106 Y12.307 Z-0.498 I-0.126 J0.327
X-11.854 Y11.654 Z-0.517 I0.126 J-0.327
X-12.106 Y12.307 Z-0.536 I-0.126 J0.327
X-11.854 Y11.654 Z-0.556 I0.126 J-0.327
X-12.106 Y12.307 Z-0.575 I-0.126 J0.327
X-11.854 Y11.654 Z-0.594 I0.126 J-0.327
X-12.106 Y12.307 Z-0.613 I-0.126 J0.327
X-11.854 Y11.654 Z-0.632 I0.126 J-0.327
X-12.106 Y12.307 Z-0.652 I-0.126 J0.327
X-11.854 Y11.654 Z-0.671 I0.126 J-0.327
X-12.106 Y12.307 Z-0.69 I-0.126 J0.327
X-11.854 Y11.654 Z-0.709 I0.126 J-0.327
X-12.106 Y12.307 Z-0.728 I-0.126 J0.327
X-11.854 Y11.654 Z-0.748 I0.126 J-0.327
X-12.106 Y12.307 Z-0.767 I-0.126 J0.327
X-11.854 Y11.654 Z-0.786 I0.126 J-0.327
X-12.106 Y12.307 Z-0.805 I-0.126 J0.327
X-11.854 Y11.654 Z-0.824 I0.126 J-0.327
X-12.106 Y12.307 Z-0.843 I-0.126 J0.327
X-11.854 Y11.654 Z-0.863 I0.126 J-0.327
X-12.106 Y12.307 Z-0.882 I-0.126 J0.327
X-11.854 Y11.654 Z-0.901 I0.126 J-0.327
X-12.106 Y12.307 Z-0.92 I-0.126 J0.327
X-11.854 Y11.654 Z-0.939 I0.126 J-0.327
X-12.106 Y12.307 Z-0.959 I-0.126 J0.327
X-11.854 Y11.654 Z-0.978 I0.126 J-0.327
X-12.106 Y12.307 Z-0.997 I-0.126 J0.327
X-11.854 Y11.654 Z-1.016 I0.126 J-0.327
X-12.106 Y12.307 Z-1.035 I-0.126 J0.327
X-11.854 Y11.654 Z-1.055 I0.126 J-0.327
X-12.106 Y12.307 Z-1.074 I-0.126 J0.327
X-11.854 Y11.654 Z-1.093 I0.126 J-0.327
X-12.106 Y12.307 Z-1.112 I-0.126 J0.327
X-11.854 Y11.654 Z-1.131 I0.126 J-0.327
X-12.106 Y12.307 Z-1.151 I-0.126 J0.327
X-11.854 Y11.654 Z-1.17 I0.126 J-0.327
X-12.106 Y12.307 Z-1.189 I-0.126 J0.327
X-11.854 Y11.654 Z-1.208 I0.126 J-0.327
X-12.106 Y12.307 Z-1.227 I-0.126 J0.327
X-11.854 Y11.654 Z-1.247 I0.126 J-0.327
X-12.106 Y12.307 Z-1.266 I-0.126 J0.327
X-11.854 Y11.654 Z-1.285 I0.126 J-0.327
X-12.106 Y12.307 Z-1.304 I-0.126 J0.327
X-11.854 Y11.654 Z-1.323 I0.126 J-0.327
X-12.106 Y12.307 Z-1.343 I-0.126 J0.327
X-11.854 Y11.654 Z-1.362 I0.126 J-0.327
X-12.106 Y12.307 Z-1.381 I-0.126 J0.327
X-11.854 Y11.654 Z-1.4 I0.126 J-0.327
X-12.106 Y12.307 Z-1.419 I-0.126 J0.327
X-11.854 Y11.654 Z-1.438 I0.126 J-0.327
X-12.106 Y12.307 Z-1.458 I-0.126 J0.327
X-11.854 Y11.654 Z-1.477 I0.126 J-0.327
X-12.106 Y12.307 Z-1.496 I-0.126 J0.327
X-11.854 Y11.654 Z-1.515 I0.126 J-0.327
X-12.106 Y12.307 Z-1.534 I-0.126 J0.327
X-11.854 Y11.654 Z-1.554 I0.126 J-0.327
X-12.106 Y12.307 Z-1.573 I-0.126 J0.327
X-11.854 Y11.654 Z-1.592 I0.126 J-0.327
X-12.106 Y12.307 Z-1.611 I-0.126 J0.327
X-11.854 Y11.654 Z-1.63 I0.126 J-0.327
X-12.106 Y12.307 Z-1.65 I-0.126 J0.327
X-11.854 Y11.654 Z-1.669 I0.126 J-0.327
X-12.106 Y12.307 Z-1.688 I-0.126 J0.327
X-11.854 Y11.654 Z-1.707 I0.126 J-0.327
X-12.106 Y12.307 Z-1.726 I-0.126 J0.327
X-11.854 Y11.654 Z-1.746 I0.126 J-0.327
X-12.106 Y12.307 Z-1.765 I-0.126 J0.327
X-11.854 Y11.654 Z-1.784 I0.126 J-0.327
X-12.106 Y12.307 Z-1.803 I-0.126 J0.327
X-11.854 Y11.654 Z-1.822 I0.126 J-0.327
X-12.106 Y12.307 Z-1.842 I-0.126 J0.327
X-11.854 Y11.654 Z-1.861 I0.126 J-0.327
X-12.106 Y12.307 Z-1.88 I-0.126 J0.327
X-11.854 Y11.654 Z-1.899 I0.126 J-0.327
X-12.106 Y12.307 Z-1.918 I-0.126 J0.327
X-11.854 Y11.654 Z-1.937 I0.126 J-0.327
X-12.106 Y12.307 Z-1.957 I-0.126 J0.327
X-11.854 Y11.654 Z-1.976 I0.126 J-0.327
X-12.106 Y12.307 Z-1.995 I-0.126 J0.327
X-11.854 Y11.654 Z-2.014 I0.126 J-0.327
X-12.106 Y12.307 Z-2.033 I-0.126 J0.327
X-11.854 Y11.654 Z-2.053 I0.126 J-0.327
X-12.106 Y12.307 Z-2.072 I-0.126 J0.327
X-11.854 Y11.654 Z-2.091 I0.126 J-0.327
X-12.106 Y12.307 Z-2.11 I-0.126 J0.327
X-11.854 Y11.654 Z-2.129 I0.126 J-0.327
X-12.106 Y12.307 Z-2.149 I-0.126 J0.327
X-11.854 Y11.654 Z-2.168 I0.126 J-0.327
X-12.106 Y12.307 Z-2.187 I-0.126 J0.327
X-11.854 Y11.654 Z-2.206 I0.126 J-0.327
X-12.106 Y12.307 Z-2.225 I-0.126 J0.327
X-11.854 Y11.654 Z-2.245 I0.126 J-0.327
X-12.106 Y12.307 Z-2.264 I-0.126 J0.327
X-11.854 Y11.654 Z-2.283 I0.126 J-0.327
X-12.106 Y12.307 Z-2.302 I-0.126 J0.327
X-11.854 Y11.654 Z-2.321 I0.126 J-0.327
X-12.106 Y12.307 Z-2.341 I-0.126 J0.327
X-11.854 Y11.654 Z-2.36 I0.126 J-0.327
X-12.106 Y12.307 Z-2.379 I-0.126 J0.327
X-11.854 Y11.654 Z-2.398 I0.126 J-0.327
X-12.106 Y12.307 Z-2.417 I-0.126 J0.327
X-11.854 Y11.654 Z-2.437 I0.126 J-0.327
X-12.106 Y12.307 Z-2.456 I-0.126 J0.327
X-11.854 Y11.654 Z-2.475 I0.126 J-0.327
X-12.106 Y12.307 Z-2.494 I-0.126 J0.327
X-11.854 Y11.654 Z-2.513 I0.126 J-0.327
X-12.106 Y12.307 Z-2.532 I-0.126 J0.327
X-11.854 Y11.654 Z-2.552 I0.126 J-0.327
X-12.106 Y12.307 Z-2.571 I-0.126 J0.327
X-11.854 Y11.654 Z-2.59 I0.126 J-0.327
X-12.106 Y12.307 Z-2.609 I-0.126 J0.327
X-11.854 Y11.654 Z-2.628 I0.126 J-0.327
X-12.106 Y12.307 Z-2.648 I-0.126 J0.327
X-11.854 Y11.654 Z-2.667 I0.126 J-0.327
X-12.106 Y12.307 Z-2.686 I-0.126 J0.327
X-11.854 Y11.654 Z-2.705 I0.126 J-0.327
X-12.106 Y12.307 Z-2.724 I-0.126 J0.327
X-11.854 Y11.654 Z-2.744 I0.126 J-0.327
X-12.106 Y12.307 Z-2.763 I-0.126 J0.327
X-11.854 Y11.654 Z-2.782 I0.126 J-0.327
X-12.106 Y12.307 Z-2.801 I-0.126 J0.327
X-11.854 Y11.654 Z-2.82 I0.126 J-0.327
X-12.106 Y12.307 Z-2.84 I-0.126 J0.327
X-11.854 Y11.654 Z-2.859 I0.126 J-0.327
X-12.106 Y12.307 Z-2.878 I-0.126 J0.327
X-11.854 Y11.654 Z-2.897 I0.126 J-0.327
X-12.106 Y12.307 Z-2.916 I-0.126 J0.327
X-11.854 Y11.654 Z-2.936 I0.126 J-0.327
X-12.106 Y12.307 Z-2.955 I-0.126 J0.327
X-11.854 Y11.654 Z-2.974 I0.126 J-0.327
X-12.106 Y12.307 Z-2.993 I-0.126 J0.327
X-11.854 Y11.654 Z-3.012 I0.126 J-0.327
X-12.106 Y12.307 Z-3.031 I-0.126 J0.327
X-11.854 Y11.654 Z-3.051 I0.126 J-0.327
X-12.106 Y12.307 Z-3.07 I-0.126 J0.327
X-11.854 Y11.654 Z-3.089 I0.126 J-0.327
X-12.106 Y12.307 Z-3.108 I-0.126 J0.327
X-11.854 Y11.654 Z-3.127 I0.126 J-0.327
X-12.106 Y12.307 Z-3.147 I-0.126 J0.327
X-11.854 Y11.654 Z-3.166 I0.126 J-0.327
X-12.106 Y12.307 Z-3.185 I-0.126 J0.327
X-11.854 Y11.654 Z-3.204 I0.126 J-0.327
X-12.106 Y12.307 Z-3.223 I-0.126 J0.327
X-11.854 Y11.654 Z-3.243 I0.126 J-0.327
X-12.106 Y12.307 Z-3.262 I-0.126 J0.327
X-11.854 Y11.654 Z-3.281 I0.126 J-0.327
X-12.106 Y12.307 Z-3.3 I-0.126 J0.327
X-11.854 Y11.654 Z-3.319 I0.126 J-0.327
X-12.106 Y12.307 Z-3.339 I-0.126 J0.327
X-11.854 Y11.654 Z-3.358 I0.126 J-0.327
X-12.106 Y12.307 Z-3.377 I-0.126 J0.327
X-11.854 Y11.654 Z-3.396 I0.126 J-0.327
X-12.106 Y12.307 Z-3.415 I-0.126 J0.327
X-11.854 Y11.654 Z-3.435 I0.126 J-0.327
X-12.106 Y12.307 Z-3.454 I-0.126 J0.327
X-11.854 Y11.654 Z-3.473 I0.126 J-0.327
X-12.106 Y12.307 Z-3.492 I-0.126 J0.327
X-11.854 Y11.654 Z-3.511 I0.126 J-0.327
X-12.106 Y12.307 Z-3.53 I-0.126 J0.327
X-11.854 Y11.654 Z-3.55 I0.126 J-0.327
X-12.106 Y12.307 Z-3.569 I-0.126 J0.327
X-11.854 Y11.654 Z-3.588 I0.126 J-0.327
X-12.106 Y12.307 Z-3.607 I-0.126 J0.327
X-11.854 Y11.654 Z-3.626 I0.126 J-0.327
X-12.106 Y12.307 Z-3.646 I-0.126 J0.327
X-11.854 Y11.654 Z-3.665 I0.126 J-0.327
X-12.106 Y12.307 Z-3.684 I-0.126 J0.327
X-11.854 Y11.654 Z-3.703 I0.126 J-0.327
X-12.106 Y12.307 Z-3.722 I-0.126 J0.327
X-11.854 Y11.654 Z-3.742 I0.126 J-0.327
X-12.106 Y12.307 Z-3.761 I-0.126 J0.327
X-11.854 Y11.654 Z-3.78 I0.126 J-0.327
X-12.106 Y12.307 Z-3.799 I-0.126 J0.327
X-11.854 Y11.654 Z-3.818 I0.126 J-0.327
X-12.106 Y12.307 Z-3.838 I-0.126 J0.327
X-11.854 Y11.654 Z-3.857 I0.126 J-0.327
X-12.106 Y12.307 Z-3.876 I-0.126 J0.327
X-11.854 Y11.654 Z-3.895 I0.126 J-0.327
X-12.106 Y12.307 Z-3.914 I-0.126 J0.327
X-11.854 Y11.654 Z-3.934 I0.126 J-0.327
X-12.106 Y12.307 Z-3.953 I-0.126 J0.327
X-11.854 Y11.654 Z-3.972 I0.126 J-0.327
X-12.106 Y12.307 Z-3.991 I-0.126 J0.327
X-11.854 Y11.654 Z-4.01 I0.126 J-0.327
X-12.106 Y12.307 Z-4.03 I-0.126 J0.327
X-11.854 Y11.654 Z-4.049 I0.126 J-0.327
X-12.106 Y12.307 Z-4.068 I-0.126 J0.327
X-11.854 Y11.654 Z-4.087 I0.126 J-0.327
X-12.106 Y12.307 Z-4.106 I-0.126 J0.327
X-11.854 Y11.654 Z-4.125 I0.126 J-0.327
X-12.106 Y12.307 Z-4.145 I-0.126 J0.327
X-11.854 Y11.654 Z-4.164 I0.126 J-0.327
X-12.106 Y12.307 Z-4.183 I-0.126 J0.327
X-11.98 Y11.63 Z-4.2 I0.126 J-0.327
Y12.33 I0 J0.35
Y11.63 I0 J-0.35
Y12.33 I0 J0.35
Y11.63 I0 J-0.35
G0 Z5
X-3.126 Y12.307
G1 Z2 F60
Z0.5
G3 X-2.874 Y11.654 Z0.481 I0.126 J-0.327 F600
X-3.126 Y12.307 Z0.462 I-0.126 J0.327
X-2.874 Y11.654 Z0.442 I0.126 J-0.327
X-3.126 Y12.307 Z0.423 I-0.126 J0.327
X-2.874 Y11.654 Z0.404 I0.126 J-0.327
X-3.126 Y12.307 Z0.385 I-0.126 J0.327
X-2.874 Y11.654 Z0.366 I0.126 J-0.327
X-3.126 Y12.307 Z0.346 I-0.126 J0.327
X-2.874 Y11.654 Z0.327 I0.126 J-0.327
X-3.126 Y12.307 Z0.308 I-0.126 J0.327
X-2.874 Y11.654 Z0.289 I0.126 J-0.327
X-3.126 Y12.307 Z0.27 I-0.126 J0.327
X-2.874 Y11.654 Z0.25 I0.126 J-0.327
X-3.126 Y12.307 Z0.231 I-0.126 J0.327
X-2.874 Y11.654 Z0.212 I0.126 J-0.327
X-3.126 Y12.307 Z0.193 I-0.126 J0.327
X-2.874 Y11.654 Z0.174 I0.126 J-0.327
X-3.126 Y12.307 Z0.155 I-0.126 J0.327
X-2.874 Y11.654 Z0.135 I0.126 J-0.327
X-3.126 Y12.307 Z0.116 I-0.126 J0.327
X-2.874 Y11.654 Z0.097 I0.126 J-0.327
X-3.126 Y12.307 Z0.078 I-0.126 J0.327
X-2.874 Y11.654 Z0.059 I0.126 J-0.327
X-3.126 Y12.307 Z0.039 I-0.126 J0.327
X-2.874 Y11.654 Z0.02 I0.126 J-0.327
X-3.126 Y12.307 Z0.001 I-0.126 J0.327
X-2.874 Y11.654 Z-0.018 I0.126 J-0.327
X-3.126 Y12.307 Z-0.037 I-0.126 J0.327
X-2.874 Y11.654 Z-0.057 I0.126 J-0.327
X-3.126 Y12.307 Z-0.076 I-0.126 J0.327
X-2.874 Y11.654 Z-0.095 I0.126 J-0.327
X-3.126 Y12.307 Z-0.114 I-0.126 J0.327
X-2.874 Y11.654 Z-0.133 I0.126 J-0.327
X-3.126 Y12.307 Z-0.153 I-0.126 J0.327
X-2.874 Y11.654 Z-0.172 I0.126 J-0.327
X-3.126 Y12.307 Z-0.191 I-0.126 J0.327
X-2.874 Y11.654 Z-0.21 I0.126 J-0.327
X-3.126 Y12.307 Z-0.229 I-0.126 J0.327
X-2.874 Y11.654 Z-0.249 I0.126 J-0.327
X-3.126 Y12.307 Z-0.268 I-0.126 J0.327
X-2.874 Y11.654 Z-0.287 I0.126 J-0.327
X-3.126 Y12.307 Z-0.306 I-0.126 J0.327
X-2.874 Y11.654 Z-0.325 I0.126 J-0.327
X-3.126 Y12.307 Z-0.344 I-0.126 J0.327
X-2.874 Y11.654 Z-0.364 I0.126 J-0.327
X-3.126 Y12.307 Z-0.383 I-0.126 J0.327
X-2.874 Y11.654 Z-0.402 I0.126 J-0.327
X-3.126 Y12.307 Z-0.421 I-0.126 J0.327
X-2.874 Y11.654 Z-0.44 I0.126 J-0.327
X-3.126 Y12.307 Z-0.46 I-0.126 J0.327
X-2.874 Y11.654 Z-0.479 I0.126 J-0.327
X-3.126 Y12.307 Z-0.498 I-0.126 J0.327
X-2.874 Y11.654 Z-0.517 I0.126 J-0.327
X-3.126 Y12.307 Z-0.536 I-0.126 J0.327
X-2.874 Y11.654 Z-0.556 I0.126 J-0.327
X-3.126 Y12.307 Z-0.575 I-0.126 J0.327
X-2.874 Y11.654 Z-0.594 I0.126 J-0.327
X-3.126 Y12.307 Z-0.613 I-0.126 J0.327
X-2.874 Y11.654 Z-0.632 I0.126 J-0.327
X-3.126 Y12.307 Z-0.652 I-0.126 J0.327
X-2.874 Y11.654 Z-0.671 I0.126 J-0.327
X-3.126 Y12.307 Z-0.69 I-0.126 J0.327
X-2.874 Y11.654 Z-0.709 I0.126 J-0.327
X-3.126 Y12.307 Z-0.728 I-0.126 J0.327
X-2.874 Y11.654 Z-0.748 I0.126 J-0.327
X-3.126 Y12.307 Z-0.767 I-0.126 J0.327
X-2.874 Y11.654 Z-0.786 I0.126 J-0.327
X-3.126 Y12.307 Z-0.805 I-0.126 J0.327
X-2.874 Y11.654 Z-0.824 I0.126 J-0.327
X-3.126 Y12.307 Z-0.843 I-0.126 J0.327
X-2.874 Y11.654 Z-0.863 I0.126 J-0.327
X-3.126 Y12.307 Z-0.882 I-0.126 J0.327
X-2.874 Y11.654 Z-0.901 I0.126 J-0.327
X-3.126 Y12.307 Z-0.92 I-0.126 J0.327
X-2.874 Y11.654 Z-0.939 I0.126 J-0.327
X-3.126 Y12.307 Z-0.959 I-0.126 J0.327
X-2.874 Y11.654 Z-0.978 I0.126 J-0.327
X-3.126 Y12.307 Z-0.997 I-0.126 J0.327
X-2.874 Y11.654 Z-1.016 I0.126 J-0.327
X-3.126 Y12.307 Z-1.035 I-0.126 J0.327
X-2.874 Y11.654 Z-1.055 I0.126 J-0.327
X-3.126 Y12.307 Z-1.074 I-0.126 J0.327
X-2.874 Y11.654 Z-1.093 I0.126 J-0.327
X-3.126 Y12.307 Z-1.112 I-0.126 J0.327
X-2.874 Y11.654 Z-1.131 I0.126 J-0.327
X-3.126 Y12.307 Z-1.151 I-0.126 J0.327
X-2.874 Y11.654 Z-1.17 I0.126 J-0.327
X-3.126 Y12.307 Z-1.189 I-0.126 J0.327
X-2.874 Y11.654 Z-1.208 I0.126 J-0.327
X-3.126 Y12.307 Z-1.227 I-0.126 J0.327
X-2.874 Y11.654 Z-1.247 I0.126 J-0.327
X-3.126 Y12.307 Z-1.266 I-0.126 J0.327
X-2.874 Y11.654 Z-1.285 I0.126 J-0.327
X-3.126 Y12.307 Z-1.304 I-0.126 J0.327
X-2.874 Y11.654 Z-1.323 I0.126 J-0.327
X-3.126 Y12.307 Z-1.343 I-0.126 J0.327
X-2.874 Y11.654 Z-1.362 I0.126 J-0.327
X-3.126 Y12.307 Z-1.381 I-0.126 J0.327
X-2.874 Y11.654 Z-1.4 I0.126 J-0.327
X-3.126 Y12.307 Z-1.419 I-0.126 J0.327
X-2.874 Y11.654 Z-1.438 I0.126 J-0.327
X-3.126 Y12.307 Z-1.458 I-0.126 J0.327
X-2.874 Y11.654 Z-1.477 I0.126 J-0.327
X-3.126 Y12.307 Z-1.496 I-0.126 J0.327
X-2.874 Y11.654 Z-1.515 I0.126 J-0.327
X-3.126 Y12.307 Z-1.534 I-0.126 J0.327
X-2.874 Y11.654 Z-1.554 I0.126 J-0.327
X-3.126 Y12.307 Z-1.573 I-0.126 J0.327
X-2.874 Y11.654 Z-1.592 I0.126 J-0.327
X-3.126 Y12.307 Z-1.611 I-0.126 J0.327
X-2.874 Y11.654 Z-1.63 I0.126 J-0.327
X-3.126 Y12.307 Z-1.65 I-0.126 J0.327
X-2.874 Y11.654 Z-1.669 I0.126 J-0.327
X-3.126 Y12.307 Z-1.688 I-0.126 J0.327
X-2.874 Y11.654 Z-1.707 I0.126 J-0.327
X-3.126 Y12.307 Z-1.726 I-0.126 J0.327
X-2.874 Y11.654 Z-1.746 I0.126 J-0.327
X-3.126 Y12.307 Z-1.765 I-0.126 J0.327
X-2.874 Y11.654 Z-1.784 I0.126 J-0.327
X-3.126 Y12.307 Z-1.803 I-0.126 J0.327
X-2.874 Y11.654 Z-1.822 I0.126 J-0.327
X-3.126 Y12.307 Z-1.842 I-0.126 J0.327
X-2.874 Y11.654 Z-1.861 I0.126 J-0.327
X-3.126 Y12.307 Z-1.88 I-0.126 J0.327
X-2.874 Y11.654 Z-1.899 I0.126 J-0.327
X-3.126 Y12.307 Z-1.918 I-0.126 J0.327
X-2.874 Y11.654 Z-1.937 I0.126 J-0.327
X-3.126 Y12.307 Z-1.957 I-0.126 J0.327
X-2.874 Y11.654 Z-1.976 I0.126 J-0.327
X-3.126 Y12.307 Z-1.995 I-0.126 J0.327
X-2.874 Y11.654 Z-2.014 I0.126 J-0.327
X-3.126 Y12.307 Z-2.033 I-0.126 J0.327
X-2.874 Y11.654 Z-2.053 I0.126 J-0.327
X-3.126 Y12.307 Z-2.072 I-0.126 J0.327
X-2.874 Y11.654 Z-2.091 I0.126 J-0.327
X-3.126 Y12.307 Z-2.11 I-0.126 J0.327
X-2.874 Y11.654 Z-2.129 I0.126 J-0.327
X-3.126 Y12.307 Z-2.149 I-0.126 J0.327
X-2.874 Y11.654 Z-2.168 I0.126 J-0.327
X-3.126 Y12.307 Z-2.187 I-0.126 J0.327
X-2.874 Y11.654 Z-2.206 I0.126 J-0.327
X-3.126 Y12.307 Z-2.225 I-0.126 J0.327
X-2.874 Y11.654 Z-2.245 I0.126 J-0.327
X-3.126 Y12.307 Z-2.264 I-0.126 J0.327
X-2.874 Y11.654 Z-2.283 I0.126 J-0.327
X-3.126 Y12.307 Z-2.302 I-0.126 J0.327
X-2.874 Y11.654 Z-2.321 I0.126 J-0.327
X-3.126 Y12.307 Z-2.341 I-0.126 J0.327
X-2.874 Y11.654 Z-2.36 I0.126 J-0.327
X-3.126 Y12.307 Z-2.379 I-0.126 J0.327
X-2.874 Y11.654 Z-2.398 I0.126 J-0.327
X-3.126 Y12.307 Z-2.417 I-0.126 J0.327
X-2.874 Y11.654 Z-2.437 I0.126 J-0.327
X-3.126 Y12.307 Z-2.456 I-0.126 J0.327
X-2.874 Y11.654 Z-2.475 I0.126 J-0.327
X-3.126 Y12.307 Z-2.494 I-0.126 J0.327
X-2.874 Y11.654 Z-2.513 I0.126 J-0.327
X-3.126 Y12.307 Z-2.532 I-0.126 J0.327
X-2.874 Y11.654 Z-2.552 I0.126 J-0.327
X-3.126 Y12.307 Z-2.571 I-0.126 J0.327
X-2.874 Y11.654 Z-2.59 I0.126 J-0.327
X-3.126 Y12.307 Z-2.609 I-0.126 J0.327
X-2.874 Y11.654 Z-2.628 I0.126 J-0.327
X-3.126 Y12.307 Z-2.648 I-0.126 J0.327
X-2.874 Y11.654 Z-2.667 I0.126 J-0.327
X-3.126 Y12.307 Z-2.686 I-0.126 J0.327
X-2.874 Y11.654 Z-2.705 I0.126 J-0.327
X-3.126 Y12.307 Z-2.724 I-0.126 J0.327
X-2.874 Y11.654 Z-2.744 I0.126 J-0.327
X-3.126 Y12.307 Z-2.763 I-0.126 J0.327
X-2.874 Y11.654 Z-2.782 I0.126 J-0.327
X-3.126 Y12.307 Z-2.801 I-0.126 J0.327
X-2.874 Y11.654 Z-2.82 I0.126 J-0.327
X-3.126 Y12.307 Z-2.84 I-0.126 J0.327
X-2.874 Y11.654 Z-2.859 I0.126 J-0.327
X-3.126 Y12.307 Z-2.878 I-0.126 J0.327
X-2.874 Y11.654 Z-2.897 I0.126 J-0.327
X-3.126 Y12.307 Z-2.916 I-0.126 J0.327
X-2.874 Y11.654 Z-2.936 I0.126 J-0.327
X-3.126 Y12.307 Z-2.955 I-0.126 J0.327
X-2.874 Y11.654 Z-2.974 I0.126 J-0.327
X-3.126 Y12.307 Z-2.993 I-0.126 J0.327
X-2.874 Y11.654 Z-3.012 I0.126 J-0.327
X-3.126 Y12.307 Z-3.031 I-0.126 J0.327
X-2.874 Y11.654 Z-3.051 I0.126 J-0.327
X-3.126 Y12.307 Z-3.07 I-0.126 J0.327
X-2.874 Y11.654 Z-3.089 I0.126 J-0.327
X-3.126 Y12.307 Z-3.108 I-0.126 J0.327
X-2.874 Y11.654 Z-3.127 I0.126 J-0.327
X-3.126 Y12.307 Z-3.147 I-0.126 J0.327
X-2.874 Y11.654 Z-3.166 I0.126 J-0.327
X-3.126 Y12.307 Z-3.185 I-0.126 J0.327
X-2.874 Y11.654 Z-3.204 I0.126 J-0.327
X-3.126 Y12.307 Z-3.223 I-0.126 J0.327
X-2.874 Y11.654 Z-3.243 I0.126 J-0.327
X-3.126 Y12.307 Z-3.262 I-0.126 J0.327
X-2.874 Y11.654 Z-3.281 I0.126 J-0.327
X-3.126 Y12.307 Z-3.3 I-0.126 J0.327
X-2.874 Y11.654 Z-3.319 I0.126 J-0.327
X-3.126 Y12.307 Z-3.339 I-0.126 J0.327
X-2.874 Y11.654 Z-3.358 I0.126 J-0.327
X-3.126 Y12.307 Z-3.377 I-0.126 J0.327
X-2.874 Y11.654 Z-3.396 I0.126 J-0.327
X-3.126 Y12.307 Z-3.415 I-0.126 J0.327
X-2.874 Y11.654 Z-3.435 I0.126 J-0.327
X-3.126 Y12.307 Z-3.454 I-0.126 J0.327
X-2.874 Y11.654 Z-3.473 I0.126 J-0.327
X-3.126 Y12.307 Z-3.492 I-0.126 J0.327
X-2.874 Y11.654 Z-3.511 I0.126 J-0.327
X-3.126 Y12.307 Z-3.53 I-0.126 J0.327
X-2.874 Y11.654 Z-3.55 I0.126 J-0.327
X-3.126 Y12.307 Z-3.569 I-0.126 J0.327
X-2.874 Y11.654 Z-3.588 I0.126 J-0.327
X-3.126 Y12.307 Z-3.607 I-0.126 J0.327
X-2.874 Y11.654 Z-3.626 I0.126 J-0.327
X-3.126 Y12.307 Z-3.646 I-0.126 J0.327
X-2.874 Y11.654 Z-3.665 I0.126 J-0.327
X-3.126 Y12.307 Z-3.684 I-0.126 J0.327
X-2.874 Y11.654 Z-3.703 I0.126 J-0.327
X-3.126 Y12.307 Z-3.722 I-0.126 J0.327
X-2.874 Y11.654 Z-3.742 I0.126 J-0.327
X-3.126 Y12.307 Z-3.761 I-0.126 J0.327
X-2.874 Y11.654 Z-3.78 I0.126 J-0.327
X-3.126 Y12.307 Z-3.799 I-0.126 J0.327
X-2.874 Y11.654 Z-3.818 I0.126 J-0.327
X-3.126 Y12.307 Z-3.838 I-0.126 J0.327
X-2.874 Y11.654 Z-3.857 I0.126 J-0.327
X-3.126 Y12.307 Z-3.876 I-0.126 J0.327
X-2.874 Y11.654 Z-3.895 I0.126 J-0.327
X-3.126 Y12.307 Z-3.914 I-0.126 J0.327
X-2.874 Y11.654 Z-3.934 I0.126 J-0.327
X-3.126 Y12.307 Z-3.953 I-0.126 J0.327
X-2.874 Y11.654 Z-3.972 I0.126 J-0.327
X-3.126 Y12.307 Z-3.991 I-0.126 J0.327
X-2.874 Y11.654 Z-4.01 I0.126 J-0.327
X-3.126 Y12.307 Z-4.03 I-0.126 J0.327
X-2.874 Y11.654 Z-4.049 I0.126 J-0.327
X-3.126 Y12.307 Z-4.068 I-0.126 J0.327
X-2.874 Y11.654 Z-4.087 I0.126 J-0.327
X-3.126 Y12.307 Z-4.106 I-0.126 J0.327
X-2.874 Y11.654 Z-4.125 I0.126 J-0.327
X-3.126 Y12.307 Z-4.145 I-0.126 J0.327
X-2.874 Y11.654 Z-4.164 I0.126 J-0.327
X-3.126 Y12.307 Z-4.183 I-0.126 J0.327
X-3 Y11.63 Z-4.2 I0.126 J-0.327
Y12.33 I0 J0.35
Y11.63 I0 J-0.35
Y12.33 I0 J0.35
Y11.63 I0 J-0.35
G0 Z15

M9
M30
