(01 1MM FLAT HOLES)
(T2  D=2 CR=0 - ZMIN=-4.2 - FLAT END MILL)
G90 G94 G91.1 G40 G49 G17
G21

(02 2MM FLAT OUTER CONTOUR)
M5
M9
T2
(2 FLUTE FISH)
S20000 M3
G54
M8
G0 X-7.49 Y15.98
G43 Z15 H1
Z5
G1 Z2 F60
Z0.5
X-3 Z0.486 F600
G2 X0.433 Y9.927 Z0.458 I0 J-4
G3 Y5.053 Z0.442 I4.076 J-2.437
G2 X-3 Y-1 Z0.414 I-3.433 J-2.053
G1 X-11.98 Z0.386
G2 X-15.413 Y5.053 Z0.358 I0 J4
G3 Y9.927 Z0.342 I-4.076 J2.437
G2 X-11.98 Y15.98 Z0.314 I3.433 J2.053
G1 X-3 Z0.286
G2 X0.433 Y9.927 Z0.258 I0 J-4
G3 Y5.053 Z0.242 I4.076 J-2.437
G2 X-3 Y-1 Z0.214 I-3.433 J-2.053
G1 X-11.98 Z0.186
G2 X-15.413 Y5.053 Z0.158 I0 J4
G3 Y9.927 Z0.142 I-4.076 J2.437
G2 X-11.98 Y15.98 Z0.114 I3.433 J2.053
G1 X-3 Z0.086
G2 X0.433 Y9.927 Z0.058 I0 J-4
G3 Y5.053 Z0.042 I4.076 J-2.437
G2 X-3 Y-1 Z0.014 I-3.433 J-2.053
G1 X-11.98 Z-0.014
G2 X-15.413 Y5.053 Z-0.042 I0 J4
G3 Y9.927 Z-0.058 I-4.076 J2.437
G2 X-11.98 Y15.98 Z-0.086 I3.433 J2.053
G1 X-3 Z-0.114
G2 X0.433 Y9.927 Z-0.142 I0 J-4
G3 Y5.053 Z-0.158 I4.076 J-2.437
G2 X-3 Y-1 Z-0.186 I-3.433 J-2.053
G1 X-11.98 Z-0.214
G2 X-15.413 Y5.053 Z-0.242 I0 J4
G3 Y9.927 Z-0.258 I-4.076 J2.437
G2 X-11.98 Y15.98 Z-0.286 I3.433 J2.053
G1 X-3 Z-0.314
G2 X0.433 Y9.927 Z-0.342 I0 J-4
G3 Y5.053 Z-0.358 I4.076 J-2.437
G2 X-3 Y-1 Z-0.386 I-3.433 J-2.053
G1 X-11.98 Z-0.414
G2 X-15.413 Y5.053 Z-0.442 I0 J4
G3 Y9.927 Z-0.458 I-4.076 J2.437
G2 X-11.98 Y15.98 Z-0.486 I3.433 J2.053
G1 X-3 Z-0.514
G2 X0.433 Y9.927 Z-0.542 I0 J-4
G3 Y5.053 Z-0.558 I4.076 J-2.437
G2 X-3 Y-1 Z-0.586 I-3.433 J-2.053
G1 X-11.98 Z-0.614
G2 X-15.413 Y5.053 Z-0.642 I0 J4
G3 Y9.927 Z-0.658 I-4.076 J2.437
G2 X-11.98 Y15.98 Z-0.686 I3.433 J2.053
G1 X-3 Z-0.714
G2 X0.433 Y9.927 Z-0.742 I0 J-4
G3 Y5.053 Z-0.758 I4.076 J-2.437
G2 X-3 Y-1 Z-0.786 I-3.433 J-2.053
G1 X-11.98 Z-0.814
G2 X-15.413 Y5.053 Z-0.842 I0 J4
G3 Y9.927 Z-0.858 I-4.076 J2.437
G2 X-11.98 Y15.98 Z-0.886 I3.433 J2.053
G1 X-3 Z-0.914
G2 X0.433 Y9.927 Z-0.942 I0 J-4
G3 Y5.053 Z-0.958 I4.076 J-2.437
G2 X-3 Y-1 Z-0.986 I-3.433 J-2.053
G1 X-11.98 Z-1.014
G2 X-15.413 Y5.053 Z-1.042 I0 J4
G3 Y9.927 Z-1.058 I-4.076 J2.437
G2 X-11.98 Y15.98 Z-1.086 I3.433 J2.053
G1 X-3 Z-1.114
G2 X0.433 Y9.927 Z-1.142 I0 J-4
G3 Y5.053 Z-1.158 I4.076 J-2.437
G2 X-3 Y-1 Z-1.186 I-3.433 J-2.053
G1 X-11.98 Z-1.214
G2 X-15.413 Y5.053 Z-1.242 I0 J4
G3 Y9.927 Z-1.258 I-4.076 J2.437
G2 X-11.98 Y15.98 Z-1.286 I3.433 J2.053
G1 X-3 Z-1.314
G2 X0.433 Y9.927 Z-1.342 I0 J-4
G3 Y5.053 Z-1.358 I4.076 J-2.437
G2 X-3 Y-1 Z-1.386 I-3.433 J-2.053
G1 X-11.98 Z-1.414
G2 X-15.413 Y5.053 Z-1.442 I0 J4
G3 Y9.927 Z-1.458 I-4.076 J2.437
G2 X-11.98 Y15.98 Z-1.486 I3.433 J2.053
G1 X-3 Z-1.514
G2 X0.433 Y9.927 Z-1.542 I0 J-4
G3 Y5.053 Z-1.558 I4.076 J-2.437
G2 X-3 Y-1 Z-1.586 I-3.433 J-2.053
G1 X-11.98 Z-1.614
G2 X-15.413 Y5.053 Z-1.642 I0 J4
G3 Y9.927 Z-1.658 I-4.076 J2.437
G2 X-11.98 Y15.98 Z-1.686 I3.433 J2.053
G1 X-3 Z-1.714
G2 X0.433 Y9.927 Z-1.742 I0 J-4
G3 Y5.053 Z-1.758 I4.076 J-2.437
G2 X-3 Y-1 Z-1.786 I-3.433 J-2.053
G1 X-11.98 Z-1.814
G2 X-15.413 Y5.053 Z-1.842 I0 J4
G3 Y9.927 Z-1.858 I-4.076 J2.437
G2 X-11.98 Y15.98 Z-1.886 I3.433 J2.053
G1 X-3 Z-1.914
G2 X0.433 Y9.927 Z-1.942 I0 J-4
G3 Y5.053 Z-1.958 I4.076 J-2.437
G2 X-3 Y-1 Z-1.986 I-3.433 J-2.053
G1 X-11.98 Z-2.014
G2 X-15.413 Y5.053 Z-2.042 I0 J4
G3 Y9.927 Z-2.058 I-4.076 J2.437
G2 X-11.98 Y15.98 Z-2.086 I3.433 J2.053
G1 X-3 Z-2.114
G2 X0.433 Y9.927 Z-2.142 I0 J-4
G3 Y5.053 Z-2.158 I4.076 J-2.437
G2 X-3 Y-1 Z-2.186 I-3.433 J-2.053
G1 X-11.98 Z-2.214
G2 X-15.413 Y5.053 Z-2.242 I0 J4
G3 Y9.927 Z-2.258 I-4.076 J2.437
G2 X-11.98 Y15.98 Z-2.286 I3.433 J2.053
G1 X-3 Z-2.314
G2 X0.433 Y9.927 Z-2.342 I0 J-4
G3 Y5.053 Z-2.358 I4.076 J-2.437
G2 X-3 Y-1 Z-2.386 I-3.433 J-2.053
G1 X-11.98 Z-2.414
G2 X-15.413 Y5.053 Z-2.442 I0 J4
G3 Y9.927 Z-2.458 I-4.076 J2.437
G2 X-11.98 Y15.98 Z-2.486 I3.433 J2.053
G1 X-3 Z-2.514
G2 X0.433 Y9.927 Z-2.542 I0 J-4
G3 Y5.053 Z-2.558 I4.076 J-2.437
G2 X-3 Y-1 Z-2.586 I-3.433 J-2.053
G1 X-11.98 Z-2.614
G2 X-15.413 Y5.053 Z-2.642 I0 J4
G3 Y9.927 Z-2.658 I-4.076 J2.437
G2 X-11.98 Y15.98 Z-2.686 I3.433 J2.053
G1 X-3 Z-2.714
G2 X0.433 Y9.927 Z-2.742 I0 J-4
G3 Y5.053 Z-2.758 I4.076 J-2.437
G2 X-3 Y-1 Z-2.786 I-3.433 J-2.053
G1 X-11.98 Z-2.814
G2 X-15.413 Y5.053 Z-2.842 I0 J4
G3 Y9.927 Z-2.858 I-4.076 J2.437
G2 X-11.98 Y15.98 Z-2.886 I3.433 J2.053
G1 X-3 Z-2.914
G2 X0.433 Y9.927 Z-2.942 I0 J-4
G3 Y5.053 Z-2.958 I4.076 J-2.437
G2 X-3 Y-1 Z-2.986 I-3.433 J-2.053
G1 X-11.98 Z-3.014
G2 X-15.413 Y5.053 Z-3.042 I0 J4
G3 Y9.927 Z-3.058 I-4.076 J2.437
G2 X-11.98 Y15.98 Z-3.086 I3.433 J2.053
G1 X-3 Z-3.114
G2 X0.433 Y9.927 Z-3.142 I0 J-4
G3 Y5.053 Z-3.158 I4.076 J-2.437
G2 X-3 Y-1 Z-3.186 I-3.433 J-2.053
G1 X-11.98 Z-3.214
G2 X-15.413 Y5.053 Z-3.242 I0 J4
G3 Y9.927 Z-3.258 I-4.076 J2.437
G2 X-11.98 Y15.98 Z-3.286 I3.433 J2.053
G1 X-3 Z-3.314
G2 X0.433 Y9.927 Z-3.342 I0 J-4
G3 Y5.053 Z-3.358 I4.076 J-2.437
G2 X-3 Y-1 Z-3.386 I-3.433 J-2.053
G1 X-11.98 Z-3.414
G2 X-15.413 Y5.053 Z-3.442 I0 J4
G3 Y9.927 Z-3.458 I-4.076 J2.437
G2 X-11.98 Y15.98 Z-3.486 I3.433 J2.053
G1 X-3 Z-3.514
G2 X0.433 Y9.927 Z-3.542 I0 J-4
G3 Y5.053 Z-3.558 I4.076 J-2.437
G2 X-3 Y-1 Z-3.586 I-3.433 J-2.053
G1 X-11.98 Z-3.614
G2 X-15.413 Y5.053 Z-3.642 I0 J4
G3 Y9.927 Z-3.658 I-4.076 J2.437
G2 X-11.98 Y15.98 Z-3.686 I3.433 J2.053
G1 X-3 Z-3.714
G2 X0.433 Y9.927 Z-3.742 I0 J-4
G3 Y5.053 Z-3.758 I4.076 J-2.437
G2 X-3 Y-1 Z-3.786 I-3.433 J-2.053
G1 X-11.98 Z-3.814
G2 X-15.413 Y5.053 Z-3.842 I0 J4
G3 Y9.927 Z-3.858 I-4.076 J2.437
G2 X-11.98 Y15.98 Z-3.886 I3.433 J2.053
G1 X-3 Z-3.914
G2 X0.433 Y9.927 Z-3.942 I0 J-4
G3 Y5.053 Z-3.958 I4.076 J-2.437
G2 X-3 Y-1 Z-3.986 I-3.433 J-2.053
G1 X-11.98 Z-4.014
G2 X-15.413 Y5.053 Z-4.042 I0 J4
G3 Y9.927 Z-4.058 I-4.076 J2.437
G2 X-11.98 Y15.98 Z-4.086 I3.433 J2.053
G1 X-3 Z-4.114
G2 X0.433 Y9.927 Z-4.142 I0 J-4
G3 Y5.053 Z-4.158 I4.076 J-2.437
G2 X-3 Y-1 Z-4.186 I-3.433 J-2.053
G1 X-7.49 Z-4.2
X-11.98
G2 X-15.413 Y5.053 I0 J4
G3 Y9.927 I-4.076 J2.437
G2 X-11.98 Y15.98 I3.433 J2.053
G1 X-3
G2 X0.433 Y9.927 I0 J-4
G3 Y5.053 I4.076 J-2.437
G2 X-3 Y-1 I-3.433 J-2.053
G1 X-7.49
G0 Z15

M9
M30
