(03 1MM FLAT GRUB HOLE)
(T1  D=1 CR=0 - ZMIN=-6.24 - FLAT END MILL)
G90 G94 G91.1 G40 G49 G17
G21

(03 1MM FLAT GRUB HOLE)
M5
M9
T1
(2 FLUTE FISH)
S20000 M3
G54
M8
G0 X0.429 Y-0.344
G43 Z15 H1
Z2
G1 Z0.1 F60
G3 X-0.429 Y0.344 Z0.07 I-0.429 J0.344 F600
X0.429 Y-0.344 Z0.04 I0.429 J-0.344
X-0.429 Y0.344 Z0.01 I-0.429 J0.344
X0.429 Y-0.344 Z-0.021 I0.429 J-0.344
X-0.429 Y0.344 Z-0.051 I-0.429 J0.344
X0.429 Y-0.344 Z-0.081 I0.429 J-0.344
X-0.429 Y0.344 Z-0.111 I-0.429 J0.344
X0.429 Y-0.344 Z-0.141 I0.429 J-0.344
X-0.429 Y0.344 Z-0.171 I-0.429 J0.344
X0.429 Y-0.344 Z-0.202 I0.429 J-0.344
X-0.429 Y0.344 Z-0.232 I-0.429 J0.344
X0.429 Y-0.344 Z-0.262 I0.429 J-0.344
X-0.429 Y0.344 Z-0.292 I-0.429 J0.344
X0.429 Y-0.344 Z-0.322 I0.429 J-0.344
X-0.429 Y0.344 Z-0.352 I-0.429 J0.344
X0.429 Y-0.344 Z-0.383 I0.429 J-0.344
X-0.429 Y0.344 Z-0.413 I-0.429 J0.344
X0.429 Y-0.344 Z-0.443 I0.429 J-0.344
X-0.429 Y0.344 Z-0.473 I-0.429 J0.344
X0.429 Y-0.344 Z-0.503 I0.429 J-0.344
X-0.429 Y0.344 Z-0.533 I-0.429 J0.344
X0.429 Y-0.344 Z-0.564 I0.429 J-0.344
X-0.429 Y0.344 Z-0.594 I-0.429 J0.344
X0.429 Y-0.344 Z-0.624 I0.429 J-0.344
X-0.429 Y0.344 Z-0.654 I-0.429 J0.344
X0.429 Y-0.344 Z-0.684 I0.429 J-0.344
X-0.429 Y0.344 Z-0.714 I-0.429 J0.344
X0.429 Y-0.344 Z-0.744 I0.429 J-0.344
X-0.429 Y0.344 Z-0.775 I-0.429 J0.344
X0.429 Y-0.344 Z-0.805 I0.429 J-0.344
X-0.429 Y0.344 Z-0.835 I-0.429 J0.344
X0.429 Y-0.344 Z-0.865 I0.429 J-0.344
X-0.429 Y0.344 Z-0.895 I-0.429 J0.344
X0.429 Y-0.344 Z-0.925 I0.429 J-0.344
X-0.429 Y0.344 Z-0.956 I-0.429 J0.344
X0.429 Y-0.344 Z-0.986 I0.429 J-0.344
X-0.429 Y0.344 Z-1.016 I-0.429 J0.344
X0.429 Y-0.344 Z-1.046 I0.429 J-0.344
X-0.429 Y0.344 Z-1.076 I-0.429 J0.344
X0.429 Y-0.344 Z-1.106 I0.429 J-0.344
X-0.429 Y0.344 Z-1.137 I-0.429 J0.344
X0.429 Y-0.344 Z-1.167 I0.429 J-0.344
X-0.429 Y0.344 Z-1.197 I-0.429 J0.344
X0.429 Y-0.344 Z-1.227 I0.429 J-0.344
X-0.429 Y0.344 Z-1.257 I-0.429 J0.344
X0.429 Y-0.344 Z-1.287 I0.429 J-0.344
X-0.429 Y0.344 Z-1.318 I-0.429 J0.344
X0.429 Y-0.344 Z-1.348 I0.429 J-0.344
X-0.429 Y0.344 Z-1.378 I-0.429 J0.344
X0.429 Y-0.344 Z-1.408 I0.429 J-0.344
X-0.429 Y0.344 Z-1.438 I-0.429 J0.344
X0.429 Y-0.344 Z-1.468 I0.429 J-0.344
X-0.429 Y0.344 Z-1.498 I-0.429 J0.344
X0.429 Y-0.344 Z-1.529 I0.429 J-0.344
X-0.429 Y0.344 Z-1.559 I-0.429 J0.344
X0.429 Y-0.344 Z-1.589 I0.429 J-0.344
X-0.429 Y0.344 Z-1.619 I-0.429 J0.344
X0.429 Y-0.344 Z-1.649 I0.429 J-0.344
X-0.429 Y0.344 Z-1.679 I-0.429 J0.344
X0.429 Y-0.344 Z-1.71 I0.429 J-0.344
X-0.429 Y0.344 Z-1.74 I-0.429 J0.344
X0.429 Y-0.344 Z-1.77 I0.429 J-0.344
X-0.429 Y0.344 Z-1.8 I-0.429 J0.344
X0.429 Y-0.344 Z-1.83 I0.429 J-0.344
X-0.429 Y0.344 Z-1.86 I-0.429 J0.344
X0.429 Y-0.344 Z-1.891 I0.429 J-0.344
X-0.429 Y0.344 Z-1.921 I-0.429 J0.344
X0.429 Y-0.344 Z-1.951 I0.429 J-0.344
X-0.429 Y0.344 Z-1.981 I-0.429 J0.344
X0.429 Y-0.344 Z-2.011 I0.429 J-0.344
X-0.429 Y0.344 Z-2.041 I-0.429 J0.344
X0.429 Y-0.344 Z-2.072 I0.429 J-0.344
X-0.429 Y0.344 Z-2.102 I-0.429 J0.344
X0.429 Y-0.344 Z-2.132 I0.429 J-0.344
X-0.429 Y0.344 Z-2.162 I-0.429 J0.344
X0.429 Y-0.344 Z-2.192 I0.429 J-0.344
X-0.429 Y0.344 Z-2.222 I-0.429 J0.344
X0.429 Y-0.344 Z-2.252 I0.429 J-0.344
X-0.429 Y0.344 Z-2.283 I-0.429 J0.344
X0.429 Y-0.344 Z-2.313 I0.429 J-0.344
X-0.429 Y0.344 Z-2.343 I-0.429 J0.344
X0.429 Y-0.344 Z-2.373 I0.429 J-0.344
X-0.429 Y0.344 Z-2.403 I-0.429 J0.344
X0.429 Y-0.344 Z-2.433 I0.429 J-0.344
X-0.429 Y0.344 Z-2.464 I-0.429 J0.344
X0.429 Y-0.344 Z-2.494 I0.429 J-0.344
X-0.429 Y0.344 Z-2.524 I-0.429 J0.344
X0.429 Y-0.344 Z-2.554 I0.429 J-0.344
X-0.429 Y0.344 Z-2.584 I-0.429 J0.344
X0.429 Y-0.344 Z-2.614 I0.429 J-0.344
X-0.429 Y0.344 Z-2.645 I-0.429 J0.344
X0.429 Y-0.344 Z-2.675 I0.429 J-0.344
X-0.429 Y0.344 Z-2.705 I-0.429 J0.344
X0.429 Y-0.344 Z-2.735 I0.429 J-0.344
X-0.429 Y0.344 Z-2.765 I-0.429 J0.344
X0.429 Y-0.344 Z-2.795 I0.429 J-0.344
X-0.429 Y0.344 Z-2.826 I-0.429 J0.344
X0.429 Y-0.344 Z-2.856 I0.429 J-0.344
X-0.429 Y0.344 Z-2.886 I-0.429 J0.344
X0.429 Y-0.344 Z-2.916 I0.429 J-0.344
X-0.429 Y0.344 Z-2.946 I-0.429 J0.344
X0.429 Y-0.344 Z-2.976 I0.429 J-0.344
X-0.429 Y0.344 Z-3.006 I-0.429 J0.344
X0.429 Y-0.344 Z-3.037 I0.429 J-0.344
X-0.429 Y0.344 Z-3.067 I-0.429 J0.344
X0.429 Y-0.344 Z-3.097 I0.429 J-0.344
X-0.429 Y0.344 Z-3.127 I-0.429 J0.344
X0.429 Y-0.344 Z-3.157 I0.429 J-0.344
X-0.429 Y0.344 Z-3.187 I-0.429 J0.344
X0.429 Y-0.344 Z-3.218 I0.429 J-0.344
X-0.429 Y0.344 Z-3.248 I-0.429 J0.344
X0.429 Y-0.344 Z-3.278 I0.429 J-0.344
X-0.429 Y0.344 Z-3.308 I-0.429 J0.344
X0.429 Y-0.344 Z-3.338 I0.429 J-0.344
X-0.429 Y0.344 Z-3.368 I-0.429 J0.344
X0.429 Y-0.344 Z-3.399 I0.429 J-0.344
X-0.429 Y0.344 Z-3.429 I-0.429 J0.344
X0.429 Y-0.344 Z-3.459 I0.429 J-0.344
X-0.429 Y0.344 Z-3.489 I-0.429 J0.344
X0.429 Y-0.344 Z-3.519 I0.429 J-0.344
X-0.429 Y0.344 Z-3.549 I-0.429 J0.344
X0.429 Y-0.344 Z-3.58 I0.429 J-0.344
X-0.429 Y0.344 Z-3.61 I-0.429 J0.344
X0.429 Y-0.344 Z-3.64 I0.429 J-0.344
X-0.429 Y0.344 Z-3.67 I-0.429 J0.344
X0.429 Y-0.344 Z-3.7 I0.429 J-0.344
X-0.429 Y0.344 Z-3.73 I-0.429 J0.344
X0.429 Y-0.344 Z-3.761 I0.429 J-0.344
X-0.429 Y0.344 Z-3.791 I-0.429 J0.344
X0.429 Y-0.344 Z-3.821 I0.429 J-0.344
X-0.429 Y0.344 Z-3.851 I-0.429 J0.344
X0.429 Y-0.344 Z-3.881 I0.429 J-0.344
X-0.429 Y0.344 Z-3.911 I-0.429 J0.344
X0.429 Y-0.344 Z-3.941 I0.429 J-0.344
X-0.429 Y0.344 Z-3.972 I-0.429 J0.344
X0.429 Y-0.344 Z-4.002 I0.429 J-0.344
X-0.429 Y0.344 Z-4.032 I-0.429 J0.344
X0.429 Y-0.344 Z-4.062 I0.429 J-0.344
X-0.429 Y0.344 Z-4.092 I-0.429 J0.344
X0.429 Y-0.344 Z-4.122 I0.429 J-0.344
X-0.429 Y0.344 Z-4.153 I-0.429 J0.344
X0.429 Y-0.344 Z-4.183 I0.429 J-0.344
X-0.429 Y0.344 Z-4.213 I-0.429 J0.344
X0.429 Y-0.344 Z-4.243 I0.429 J-0.344
X-0.429 Y0.344 Z-4.273 I-0.429 J0.344
X0.429 Y-0.344 Z-4.303 I0.429 J-0.344
X-0.429 Y0.344 Z-4.334 I-0.429 J0.344
X0.429 Y-0.344 Z-4.364 I0.429 J-0.344
X-0.429 Y0.344 Z-4.394 I-0.429 J0.344
X0.429 Y-0.344 Z-4.424 I0.429 J-0.344
X-0.429 Y0.344 Z-4.454 I-0.429 J0.344
X0.429 Y-0.344 Z-4.484 I0.429 J-0.344
X-0.429 Y0.344 Z-4.515 I-0.429 J0.344
X0.429 Y-0.344 Z-4.545 I0.429 J-0.344
X-0.429 Y0.344 Z-4.575 I-0.429 J0.344
X0.429 Y-0.344 Z-4.605 I0.429 J-0.344
X-0.429 Y0.344 Z-4.635 I-0.429 J0.344
X0.429 Y-0.344 Z-4.665 I0.429 J-0.344
X-0.429 Y0.344 Z-4.695 I-0.429 J0.344
X0.429 Y-0.344 Z-4.726 I0.429 J-0.344
X-0.429 Y0.344 Z-4.756 I-0.429 J0.344
X0.429 Y-0.344 Z-4.786 I0.429 J-0.344
X-0.429 Y0.344 Z-4.816 I-0.429 J0.344
X0.429 Y-0.344 Z-4.846 I0.429 J-0.344
X-0.429 Y0.344 Z-4.876 I-0.429 J0.344
X0.429 Y-0.344 Z-4.907 I0.429 J-0.344
X-0.429 Y0.344 Z-4.937 I-0.429 J0.344
X0.429 Y-0.344 Z-4.967 I0.429 J-0.344
X-0.429 Y0.344 Z-4.997 I-0.429 J0.344
X0.429 Y-0.344 Z-5.027 I0.429 J-0.344
X-0.429 Y0.344 Z-5.057 I-0.429 J0.344
X0.429 Y-0.344 Z-5.088 I0.429 J-0.344
X-0.429 Y0.344 Z-5.118 I-0.429 J0.344
X0.429 Y-0.344 Z-5.148 I0.429 J-0.344
X-0.429 Y0.344 Z-5.178 I-0.429 J0.344
X0.429 Y-0.344 Z-5.208 I0.429 J-0.344
X-0.429 Y0.344 Z-5.238 I-0.429 J0.344
X0.429 Y-0.344 Z-5.269 I0.429 J-0.344
X-0.429 Y0.344 Z-5.299 I-0.429 J0.344
X0.429 Y-0.344 Z-5.329 I0.429 J-0.344
X-0.429 Y0.344 Z-5.359 I-0.429 J0.344
X0.429 Y-0.344 Z-5.389 I0.429 J-0.344
X-0.429 Y0.344 Z-5.419 I-0.429 J0.344
X0.429 Y-0.344 Z-5.449 I0.429 J-0.344
X-0.429 Y0.344 Z-5.48 I-0.429 J0.344
X0.429 Y-0.344 Z-5.51 I0.429 J-0.344
X-0.429 Y0.344 Z-5.54 I-0.429 J0.344
X0.429 Y-0.344 Z-5.57 I0.429 J-0.344
X-0.429 Y0.344 Z-5.6 I-0.429 J0.344
X0.429 Y-0.344 Z-5.63 I0.429 J-0.344
X-0.429 Y0.344 Z-5.661 I-0.429 J0.344
X0.429 Y-0.344 Z-5.691 I0.429 J-0.344
X-0.429 Y0.344 Z-5.721 I-0.429 J0.344
X0.429 Y-0.344 Z-5.751 I0.429 J-0.344
X-0.429 Y0.344 Z-5.781 I-0.429 J0.344
X0.429 Y-0.344 Z-5.811 I0.429 J-0.344
X-0.429 Y0.344 Z-5.842 I-0.429 J0.344
X0.429 Y-0.344 Z-5.872 I0.429 J-0.344
X-0.429 Y0.344 Z-5.902 I-0.429 J0.344
X0.429 Y-0.344 Z-5.932 I0.429 J-0.344
X-0.429 Y0.344 Z-5.962 I-0.429 J0.344
X0.429 Y-0.344 Z-5.992 I0.429 J-0.344
X-0.429 Y0.344 Z-6.023 I-0.429 J0.344
X0.429 Y-0.344 Z-6.053 I0.429 J-0.344
X-0.429 Y0.344 Z-6.083 I-0.429 J0.344
X0.429 Y-0.344 Z-6.113 I0.429 J-0.344
X-0.429 Y0.344 Z-6.143 I-0.429 J0.344
X0.429 Y-0.344 Z-6.173 I0.429 J-0.344
X-0.429 Y0.344 Z-6.203 I-0.429 J0.344
X0.429 Y-0.344 Z-6.234 I0.429 J-0.344
X0.55 Y0 Z-6.24 I-0.429 J0.344
X-0.55 I-0.55 J0
X0.55 I0.55 J0
G0 Z15

M9
M30
