(FRAME-FRONT-INNER)
(T11  D=2 CR=0 - ZMIN=-1.5 - FLAT END MILL)
G90 G94 G91.1 G40 G49 G17
G21

(BOTTOM CONTOUR)
M5
M9
T11
(DIAMOND OR SPIRAL)
S16000 M3
G54
M8
G0 X-1.6 Y1.1
G43 Z15 H1
Z5
G1 Z2 F60
Z-0.55
X-1.593 Z-0.602
X-1.573 Z-0.65
X-1.541 Z-0.691
X-1.5 Z-0.723
X-1.452 Z-0.743
X-1.4 Z-0.75
X-1.2 F120
G3 X-1 Y1.3 I0 J0.2
G1 Y35.8 F240
G2 X0 Y36.8 I1 J0
G1 Y44.8
G2 X-1 Y45.8 I0 J1
G1 Y80.3
G3 X-1.2 Y80.5 I-0.2 J0 F480
G1 X-1.4
X-1.452 Z-0.743
X-1.5 Z-0.723
X-1.541 Z-0.691
X-1.573 Z-0.65
X-1.593 Z-0.602
X-1.6 Z-0.55
G0 Z5
Y1.1
G1 Z1.25 F60
Z-1.3
X-1.593 Z-1.352
X-1.573 Z-1.4
X-1.541 Z-1.441
X-1.5 Z-1.473
X-1.452 Z-1.493
X-1.4 Z-1.5
X-1.2 F120
G3 X-1 Y1.3 I0 J0.2
G1 Y35.8 F240
G2 X0 Y36.8 I1 J0
G1 Y44.8
G2 X-1 Y45.8 I0 J1
G1 Y80.3
G3 X-1.2 Y80.5 I-0.2 J0 F480
G1 X-1.4
X-1.452 Z-1.493
X-1.5 Z-1.473
X-1.541 Z-1.441
X-1.573 Z-1.4
X-1.593 Z-1.352
X-1.6 Z-1.3
G0 Z15

M9
M30
