(01 2MM FLAT HOLES)
(T11  D=2 CR=0 - ZMIN=-1.4 - FLAT END MILL)
G90 G94 G91.1 G40 G49 G17
G21

(01 2MM FLAT HOLES)
M5
M9
T11
(DIAMOND OR SPIRAL)
S20000 M3
G54
M8
G0 X-67.075 Y38.927
G43 Z15 H1
Z2
G1 Z0.1 F100
G3 X-66.719 Y40.073 Z-0.065 I0.178 J0.573 F1000
X-67.075 Y38.927 Z-0.23 I-0.178 J-0.573
X-66.719 Y40.073 Z-0.395 I0.178 J0.573
X-67.075 Y38.927 Z-0.56 I-0.178 J-0.573
X-66.719 Y40.073 Z-0.725 I0.178 J0.573
X-67.075 Y38.927 Z-0.889 I-0.178 J-0.573
X-66.719 Y40.073 Z-1.054 I0.178 J0.573
X-67.075 Y38.927 Z-1.219 I-0.178 J-0.573
X-66.304 Y39.41 Z-1.31 I0.178 J0.573
X-66.897 Y40.1 Z-1.4 I-0.593 J0.09
Y38.9 I0 J-0.6
Y40.1 I0 J0.6
G0 Z5
X-76.503 Y60.847
Z2
G1 Z0.1 F100
G3 X-76.147 Y61.993 Z-0.065 I0.178 J0.573 F1000
X-76.503 Y60.847 Z-0.23 I-0.178 J-0.573
X-76.147 Y61.993 Z-0.395 I0.178 J0.573
X-76.503 Y60.847 Z-0.56 I-0.178 J-0.573
X-76.147 Y61.993 Z-0.725 I0.178 J0.573
X-76.503 Y60.847 Z-0.889 I-0.178 J-0.573
X-76.147 Y61.993 Z-1.054 I0.178 J0.573
X-76.503 Y60.847 Z-1.219 I-0.178 J-0.573
X-75.732 Y61.33 Z-1.31 I0.178 J0.573
X-76.325 Y62.02 Z-1.4 I-0.593 J0.09
Y60.82 I0 J-0.6
Y62.02 I0 J0.6
G0 Z5
X-76.677 Y18.066
Z2
G1 Z0.1 F100
G3 X-75.973 Y17.094 Z-0.065 I0.352 J-0.486 F1000
X-76.677 Y18.066 Z-0.23 I-0.352 J0.486
X-75.973 Y17.094 Z-0.395 I0.352 J-0.486
X-76.677 Y18.066 Z-0.56 I-0.352 J0.486
X-75.973 Y17.094 Z-0.725 I0.352 J-0.486
X-76.677 Y18.066 Z-0.889 I-0.352 J0.486
X-75.973 Y17.094 Z-1.054 I0.352 J-0.486
X-76.677 Y18.066 Z-1.219 I-0.352 J0.486
X-76.753 Y17.159 Z-1.31 I0.352 J-0.486
X-75.845 Y17.22 Z-1.4 I0.428 J0.421
X-76.805 Y17.94 I-0.48 J0.36
X-75.845 Y17.22 I0.48 J-0.36
G0 Z5
X-4.503 Y2.047
Z2
G1 Z0.1 F100
G3 X-4.147 Y3.193 Z-0.065 I0.178 J0.573 F1000
X-4.503 Y2.047 Z-0.23 I-0.178 J-0.573
X-4.147 Y3.193 Z-0.395 I0.178 J0.573
X-4.503 Y2.047 Z-0.56 I-0.178 J-0.573
X-4.147 Y3.193 Z-0.725 I0.178 J0.573
X-4.503 Y2.047 Z-0.889 I-0.178 J-0.573
X-4.147 Y3.193 Z-1.054 I0.178 J0.573
X-4.503 Y2.047 Z-1.219 I-0.178 J-0.573
X-3.732 Y2.53 Z-1.31 I0.178 J0.573
X-4.325 Y3.22 Z-1.4 I-0.593 J0.09
Y2.02 I0 J-0.6
Y3.22 I0 J0.6
G0 Z5
X-4.503 Y38.927
Z2
G1 Z0.1 F100
G3 X-4.147 Y40.073 Z-0.065 I0.178 J0.573 F1000
X-4.503 Y38.927 Z-0.23 I-0.178 J-0.573
X-4.147 Y40.073 Z-0.395 I0.178 J0.573
X-4.503 Y38.927 Z-0.56 I-0.178 J-0.573
X-4.147 Y40.073 Z-0.725 I0.178 J0.573
X-4.503 Y38.927 Z-0.889 I-0.178 J-0.573
X-4.147 Y40.073 Z-1.054 I0.178 J0.573
X-4.503 Y38.927 Z-1.219 I-0.178 J-0.573
X-3.732 Y39.41 Z-1.31 I0.178 J0.573
X-4.325 Y40.1 Z-1.4 I-0.593 J0.09
Y38.9 I0 J-0.6
Y40.1 I0 J0.6
G0 Z5
X-4.677 Y76.866
Z2
G1 Z0.1 F100
G3 X-3.973 Y75.894 Z-0.065 I0.352 J-0.486 F1000
X-4.677 Y76.866 Z-0.23 I-0.352 J0.486
X-3.973 Y75.894 Z-0.395 I0.352 J-0.486
X-4.677 Y76.866 Z-0.56 I-0.352 J0.486
X-3.973 Y75.894 Z-0.725 I0.352 J-0.486
X-4.677 Y76.866 Z-0.889 I-0.352 J0.486
X-3.973 Y75.894 Z-1.054 I0.352 J-0.486
X-4.677 Y76.866 Z-1.219 I-0.352 J0.486
X-4.753 Y75.959 Z-1.31 I0.352 J-0.486
X-3.845 Y76.02 Z-1.4 I0.428 J0.421
X-4.805 Y76.74 I-0.48 J0.36
X-3.845 Y76.02 I0.48 J-0.36
G0 Z15

M9
M30
