(01 2MM FLAT HOLES)
(T11  D=2 CR=0 - ZMIN=-1.4 - FLAT END MILL)
G90 G94 G91.1 G40 G49 G17
G21

(03 2MM FLAT OUTSIDE)
M5
M9
T11
(DIAMOND OR SPIRAL)
S20000 M3
G54
M8
G0 X-66.016 Y79.971
G43 Z15 H1
Z2
G1 Z0.1 F100
G2 X-64.352 Y78 Z0.096 I-0.336 J-1.971 F1000
G1 Y76.38 Z0.094
G3 X-62.602 Y74.63 Z0.09 I1.75 J0
G1 X-11.4 Z0.017
G3 X-9.822 Y77.136 Z0.012 I0 J1.75
G2 X-8.018 Y80 Z0.007 I1.804 J0.864
G1 X-1 Z-0.003
G2 X1 Y78 Z-0.008 I0 J-2
G1 Y1 Z-0.117
G2 X-1 Y-1 Z-0.121 I-2 J0
G1 X-8.018 Z-0.131
G2 X-9.822 Y1.864 Z-0.137 I0 J2
G3 X-11.4 Y4.37 Z-0.142 I-1.578 J0.756
G1 X-55.5 Z-0.205
G2 X-57.5 Y6.37 Z-0.209 I0 J2
G1 Y7.37 Z-0.21
X-78.392 Z-0.24
G2 X-85.762 Y13.675 Z-0.255 I0 J7.46
X-84.355 Y15.902 Z-0.259 I1.976 J0.31
G3 X-84.385 Y19.267 Z-0.266 I-0.497 J1.678
G2 X-85.852 Y21.194 Z-0.269 I0.533 J1.928
G1 Y22.038 Z-0.27
G2 X-84.338 Y23.979 Z-0.274 I2 J0
G3 Y55.021 Z-0.334 I-3.884 J15.521
G2 X-85.852 Y56.962 Z-0.338 I0.486 J1.94
G1 Y57.806 Z-0.339
G2 X-84.385 Y59.733 Z-0.343 I2 J0
G3 Y63.107 Z-0.349 I-0.467 J1.687
G2 X-85.852 Y65.034 Z-0.353 I0.533 J1.928
G1 Y69.3 Z-0.359
G2 X-83.852 Y71.3 Z-0.364 I2 J0
G1 X-76.352 Z-0.374
Y78 Z-0.384
G2 X-74.352 Y80 Z-0.388 I2 J0
G1 X-66.352 Z-0.4
G2 X-66.016 Y79.971 I0 J-2
X-64.352 Y78 Z-0.404 I-0.336 J-1.971
G1 Y76.38 Z-0.406
G3 X-62.602 Y74.63 Z-0.41 I1.75 J0
G1 X-11.4 Z-0.483
G3 X-9.822 Y77.136 Z-0.488 I0 J1.75
G2 X-8.018 Y80 Z-0.493 I1.804 J0.864
G1 X-1 Z-0.503
G2 X1 Y78 Z-0.508 I0 J-2
G1 Y1 Z-0.617
G2 X-1 Y-1 Z-0.621 I-2 J0
G1 X-8.018 Z-0.631
G2 X-9.822 Y1.864 Z-0.637 I0 J2
G3 X-11.4 Y4.37 Z-0.642 I-1.578 J0.756
G1 X-55.5 Z-0.705
G2 X-57.5 Y6.37 Z-0.709 I0 J2
G1 Y7.37 Z-0.71
X-78.392 Z-0.74
G2 X-85.762 Y13.675 Z-0.755 I0 J7.46
X-84.355 Y15.902 Z-0.759 I1.976 J0.31
G3 X-84.385 Y19.267 Z-0.766 I-0.497 J1.678
G2 X-85.852 Y21.194 Z-0.769 I0.533 J1.928
G1 Y22.038 Z-0.77
G2 X-84.338 Y23.979 Z-0.774 I2 J0
G3 Y55.021 Z-0.834 I-3.884 J15.521
G2 X-85.852 Y56.962 Z-0.838 I0.486 J1.94
G1 Y57.806 Z-0.839
G2 X-84.385 Y59.733 Z-0.843 I2 J0
G3 Y63.107 Z-0.849 I-0.467 J1.687
G2 X-85.852 Y65.034 Z-0.853 I0.533 J1.928
G1 Y69.3 Z-0.859
G2 X-83.852 Y71.3 Z-0.864 I2 J0
G1 X-76.352 Z-0.874
Y78 Z-0.884
G2 X-74.352 Y80 Z-0.888 I2 J0
G1 X-66.352 Z-0.9
G2 X-66.016 Y79.971 I0 J-2
X-64.352 Y78 Z-0.904 I-0.336 J-1.971
G1 Y76.38 Z-0.906
G3 X-62.602 Y74.63 Z-0.91 I1.75 J0
G1 X-11.4 Z-0.983
G3 X-9.822 Y77.136 Z-0.988 I0 J1.75
G2 X-8.018 Y80 Z-0.993 I1.804 J0.864
G1 X-1 Z-1.003
G2 X1 Y78 Z-1.008 I0 J-2
G1 Y1 Z-1.117
G2 X-1 Y-1 Z-1.121 I-2 J0
G1 X-8.018 Z-1.131
G2 X-9.822 Y1.864 Z-1.137 I0 J2
G3 X-11.4 Y4.37 Z-1.142 I-1.578 J0.756
G1 X-55.5 Z-1.205
G2 X-57.5 Y6.37 Z-1.209 I0 J2
G1 Y7.37 Z-1.21
X-78.392 Z-1.24
G2 X-85.762 Y13.675 Z-1.255 I0 J7.46
X-84.355 Y15.902 Z-1.259 I1.976 J0.31
G3 X-84.385 Y19.267 Z-1.266 I-0.497 J1.678
G2 X-85.852 Y21.194 Z-1.269 I0.533 J1.928
G1 Y22.038 Z-1.27
G2 X-84.338 Y23.979 Z-1.274 I2 J0
G3 Y55.021 Z-1.334 I-3.884 J15.521
G2 X-85.852 Y56.962 Z-1.338 I0.486 J1.94
G1 Y57.806 Z-1.339
G2 X-84.385 Y59.733 Z-1.343 I2 J0
G3 Y63.107 Z-1.349 I-0.467 J1.687
G2 X-85.852 Y65.034 Z-1.353 I0.533 J1.928
G1 Y69.3 Z-1.359
G2 X-83.852 Y71.3 Z-1.364 I2 J0
G1 X-76.352 Z-1.374
Y78 Z-1.384
G2 X-74.352 Y80 Z-1.388 I2 J0
G1 X-66.352 Z-1.4
G2 X-66.016 Y79.971 I0 J-2
X-64.352 Y78 I-0.336 J-1.971
G1 Y76.38
G3 X-62.602 Y74.63 I1.75 J0
G1 X-11.4
G3 X-9.822 Y77.136 I0 J1.75
G2 X-8.018 Y80 I1.804 J0.864
G1 X-1
G2 X1 Y78 I0 J-2
G1 Y1
G2 X-1 Y-1 I-2 J0
G1 X-8.018
G2 X-9.822 Y1.864 I0 J2
G3 X-11.4 Y4.37 I-1.578 J0.756
G1 X-55.5
G2 X-57.5 Y6.37 I0 J2
G1 Y7.37
X-78.392
G2 X-85.762 Y13.675 I0 J7.46
X-84.355 Y15.902 I1.976 J0.31
G3 X-84.385 Y19.267 I-0.497 J1.678
G2 X-85.852 Y21.194 I0.533 J1.928
G1 Y22.038
G2 X-84.338 Y23.979 I2 J0
G3 Y55.021 I-3.884 J15.521
G2 X-85.852 Y56.962 I0.486 J1.94
G1 Y57.806
G2 X-84.385 Y59.733 I2 J0
G3 Y63.107 I-0.467 J1.687
G2 X-85.852 Y65.034 I0.533 J1.928
G1 Y69.3
G2 X-83.852 Y71.3 I2 J0
G1 X-76.352
Y78
G2 X-74.352 Y80 I2 J0
G1 X-66.352
G2 X-66.016 Y79.971 I0 J-2
G0 Z15

M9
M30
