(TAP EXPERIMENT)
(T11  D=2 CR=0 - ZMIN=-1.7 - FLAT END MILL)
G90 G94 G91.1 G40 G49 G17
G21

(SLOT)
M5
M9
T11
(DIAMOND OR SPIRAL)
S16000 M3
G54
M8
G0 X-2.4 Y24.5
G43 Z15 H1
Z5
G1 Z2 F60
Z-0.35
X-2.407 Z-0.402
X-2.427 Z-0.45
X-2.459 Z-0.491
X-2.5 Z-0.523
X-2.548 Z-0.543
X-2.6 Z-0.55
X-2.8 F120
G3 X-3 Y24.3 I0 J-0.2
G2 X-3.158 Y23.52 I-2 J0 F240
X-2.586 Y23.7 I0.573 J-0.82
G1 X2.586
G2 X3.158 Y23.52 I0 J-1
Y25.08 I1.842 J0.78
X2.586 Y24.9 I-0.573 J0.82
G1 X-2.586
G2 X-3.158 Y25.08 I0 J1
X-3 Y24.3 I-1.842 J-0.78
G3 X-2.8 Y24.1 I0.2 J0 F480
G1 X-2.6
X-2.548 Z-0.543
X-2.5 Z-0.523
X-2.459 Z-0.491
X-2.427 Z-0.45
X-2.407 Z-0.402
X-2.4 Z-0.35
Y24.5 F240
Z-0.9 F60
X-2.407 Z-0.952
X-2.427 Z-1
X-2.459 Z-1.041
X-2.5 Z-1.073
X-2.548 Z-1.093
X-2.6 Z-1.1
X-2.8 F120
G3 X-3 Y24.3 I0 J-0.2
G2 X-3.158 Y23.52 I-2 J0 F240
X-2.586 Y23.7 I0.573 J-0.82
G1 X2.586
G2 X3.158 Y23.52 I0 J-1
Y25.08 I1.842 J0.78
X2.586 Y24.9 I-0.573 J0.82
G1 X-2.586
G2 X-3.158 Y25.08 I0 J1
X-3 Y24.3 I-1.842 J-0.78
G3 X-2.8 Y24.1 I0.2 J0 F480
G1 X-2.6
X-2.548 Z-1.093
X-2.5 Z-1.073
X-2.459 Z-1.041
X-2.427 Z-1
X-2.407 Z-0.952
X-2.4 Z-0.9
Y24.5 F240
Z-1.2 F60
X-2.407 Z-1.252
X-2.427 Z-1.3
X-2.459 Z-1.341
X-2.5 Z-1.373
X-2.548 Z-1.393
X-2.6 Z-1.4
X-2.8 F120
G3 X-3 Y24.3 I0 J-0.2
G2 X-3.158 Y23.52 I-2 J0 F240
X-2.586 Y23.7 I0.573 J-0.82
G1 X2.586
G2 X3.158 Y23.52 I0 J-1
Y25.08 I1.842 J0.78
X2.586 Y24.9 I-0.573 J0.82
G1 X-2.586
G2 X-3.158 Y25.08 I0 J1
X-3 Y24.3 I-1.842 J-0.78
G3 X-2.8 Y24.1 I0.2 J0 F480
G1 X-2.6
X-2.548 Z-1.393
X-2.5 Z-1.373
X-2.459 Z-1.341
X-2.427 Z-1.3
X-2.407 Z-1.252
X-2.4 Z-1.2
Y24.5 F240
Z-1.5 F60
X-2.407 Z-1.552
X-2.427 Z-1.6
X-2.459 Z-1.641
X-2.5 Z-1.673
X-2.548 Z-1.693
X-2.6 Z-1.7
X-2.8 F120
G3 X-3 Y24.3 I0 J-0.2
G2 X-3.158 Y23.52 I-2 J0 F240
X-2.586 Y23.7 I0.573 J-0.82
G1 X2.586
G2 X3.158 Y23.52 I0 J-1
Y25.08 I1.842 J0.78
X2.586 Y24.9 I-0.573 J0.82
G1 X-2.586
G2 X-3.158 Y25.08 I0 J1
X-3 Y24.3 I-1.842 J-0.78
G3 X-2.8 Y24.1 I0.2 J0 F480
G1 X-2.6
X-2.548 Z-1.693
X-2.5 Z-1.673
X-2.459 Z-1.641
X-2.427 Z-1.6
X-2.407 Z-1.552
X-2.4 Z-1.5
G0 Z15

M9
M30
