(TAP EXPERIMENT)
(T11  D=2 CR=0 - ZMIN=-3.2 - FLAT END MILL)
(T50  D=2 CR=0 - ZMIN=-3.2 - FLAT END MILL)
G90 G94 G91.1 G40 G49 G17
G21

(MOTOR HOLE)
M5
M9
T11
(DIAMOND OR SPIRAL)
S16000 M3
G54
M8
G0 X1.9 Y7.3
G43 Z15 H1
Z2
G1 Z-0.35 F60
X1.907 Z-0.402
X1.927 Z-0.45
X1.959 Z-0.491
X2 Z-0.523
X2.048 Z-0.543
X2.1 Z-0.55
X2.3 F120
G3 X2.5 Y7.5 I0 J0.2
X-2.5 I-2.5 J0 F240
X2.5 I2.5 J0
X2.3 Y7.7 I-0.2 J0 F480
G1 X2.1
X2.048 Z-0.543
X2 Z-0.523
X1.959 Z-0.491
X1.927 Z-0.45
X1.907 Z-0.402
X1.9 Z-0.35
Y7.3 F240
Z-0.9 F60
X1.907 Z-0.952
X1.927 Z-1
X1.959 Z-1.041
X2 Z-1.073
X2.048 Z-1.093
X2.1 Z-1.1
X2.3 F120
G3 X2.5 Y7.5 I0 J0.2
X-2.5 I-2.5 J0 F240
X2.5 I2.5 J0
X2.3 Y7.7 I-0.2 J0 F480
G1 X2.1
X2.048 Z-1.093
X2 Z-1.073
X1.959 Z-1.041
X1.927 Z-1
X1.907 Z-0.952
X1.9 Z-0.9
Y7.3 F240
Z-1.45 F60
X1.907 Z-1.502
X1.927 Z-1.55
X1.959 Z-1.591
X2 Z-1.623
X2.048 Z-1.643
X2.1 Z-1.65
X2.3 F120
G3 X2.5 Y7.5 I0 J0.2
X-2.5 I-2.5 J0 F240
X2.5 I2.5 J0
X2.3 Y7.7 I-0.2 J0 F480
G1 X2.1
X2.048 Z-1.643
X2 Z-1.623
X1.959 Z-1.591
X1.927 Z-1.55
X1.907 Z-1.502
X1.9 Z-1.45
Y7.3 F240
Z-2 F60
X1.907 Z-2.052
X1.927 Z-2.1
X1.959 Z-2.141
X2 Z-2.173
X2.048 Z-2.193
X2.1 Z-2.2
X2.3 F120
G3 X2.5 Y7.5 I0 J0.2
X-2.5 I-2.5 J0 F240
X2.5 I2.5 J0
X2.3 Y7.7 I-0.2 J0 F480
G1 X2.1
X2.048 Z-2.193
X2 Z-2.173
X1.959 Z-2.141
X1.927 Z-2.1
X1.907 Z-2.052
X1.9 Z-2
Y7.3 F240
Z-2.55 F60
X1.907 Z-2.602
X1.927 Z-2.65
X1.959 Z-2.691
X2 Z-2.723
X2.048 Z-2.743
X2.1 Z-2.75
X2.3 F120
G3 X2.5 Y7.5 I0 J0.2
X-2.5 I-2.5 J0 F240
X2.5 I2.5 J0
X2.3 Y7.7 I-0.2 J0 F480
G1 X2.1
X2.048 Z-2.743
X2 Z-2.723
X1.959 Z-2.691
X1.927 Z-2.65
X1.907 Z-2.602
X1.9 Z-2.55
Y7.3 F240
Z-3 F60
X1.907 Z-3.052
X1.927 Z-3.1
X1.959 Z-3.141
X2 Z-3.173
X2.048 Z-3.193
X2.1 Z-3.2
X2.3 F120
G3 X2.5 Y7.5 I0 J0.2
X-2.5 I-2.5 J0 F240
X2.5 I2.5 J0
X2.3 Y7.7 I-0.2 J0 F480
G1 X2.1
X2.048 Z-3.193
X2 Z-3.173
X1.959 Z-3.141
X1.927 Z-3.1
X1.907 Z-3.052
X1.9 Z-3
G0 Z15

(OUTLINES)
M5
M9
T50
(DIAMOND OR SPIRAL)
S16000 M3
M8
G0 X-6.1 Y28.1
G43 Z15 H1
Z2
G1 Z-0.35 F60
Y28.093 Z-0.402
Y28.073 Z-0.45
Y28.041 Z-0.491
Y28 Z-0.523
Y27.952 Z-0.543
Y27.9 Z-0.55
Y27.7 F120
G3 X-5.9 Y27.5 I0.2 J0
G1 X5.9 F240
G2 X7.1 Y27.1 I0 J-2
X7.499 Y26.75 I-2.1 J-2.8
G1 X10
G2 X11 Y25.75 I0 J-1
G1 Y-3.5
G2 X10 Y-4.5 I-1 J0
G1 X-10
G2 X-11 Y-3.5 I0 J1
G1 Y25.75
G2 X-10 Y26.75 I1 J0
G1 X-7.5
G2 X-7.1 Y27.1 I2.499 J-2.45
X-5.9 Y27.5 I1.2 J-1.6
G3 X-5.7 Y27.7 I0 J0.2 F480
G1 Y27.9
Y27.952 Z-0.543
Y28 Z-0.523
Y28.041 Z-0.491
Y28.073 Z-0.45
Y28.093 Z-0.402
Y28.1 Z-0.35
Y27.9 F240
Y27.907 Z-0.402 F60
Y27.927 Z-0.45
Y27.959 Z-0.491
Y28 Z-0.523
Y28.048 Z-0.543
Y28.1 Z-0.55
Y28.3 F120
G3 X-5.9 Y28.5 I-0.2 J0
G1 X-10 F240
G2 X-11 Y29.5 I0 J1
G1 Y48.2
G2 X-10 Y49.2 I1 J0
G1 X-6
G2 X-5 Y48.2 I0 J-1
G1 Y45.2
G2 X-6 Y44.2 I-1 J0
G1 X-6.5
Y44
X-3.5
Y44.2
X-4
G2 X-5 Y45.2 I0 J1
G1 Y49.5
G2 X-4 Y50.5 I1 J0
G1 X4
G2 X5 Y49.5 I0 J-1
G1 Y45.2
G2 X4 Y44.2 I-1 J0
G1 X3.5
Y44
X6.5
Y44.2
X6
G2 X5 Y45.2 I0 J1
G1 Y48.2
G2 X6 Y49.2 I1 J0
G1 X10
G2 X11 Y48.2 I0 J-1
G1 Y29.5
G2 X10 Y28.5 I-1 J0
G1 X-5.9
G3 X-6.1 Y28.3 I0 J-0.2 F480
G1 Y28.1
Y28.048 Z-0.543
Y28 Z-0.523
Y27.959 Z-0.491
Y27.927 Z-0.45
Y27.907 Z-0.402
Y27.9 Z-0.35
X-6.112 Y28.099 F240
Z-0.9 F60
Y28.092 Z-0.952
X-6.111 Y28.072 Z-1
Y28.041 Z-1.041
Y27.999 Z-1.073
Y27.951 Z-1.093
Y27.899 Z-1.1
X-6.11 Y27.699 F120
G3 X-5.909 Y27.5 I0.2 J0.001
G1 X-5.9 F240
X5.9
G2 X7.1 Y27.1 I0 J-2
X7.499 Y26.75 I-2.1 J-2.8
G1 X10
G2 X11 Y25.75 I0 J-1
G1 Y-3.5
G2 X10 Y-4.5 I-1 J0
G1 X-10
G2 X-11 Y-3.5 I0 J1
G1 Y25.75
G2 X-10 Y26.75 I1 J0
G1 X-7.5
G2 X-7.1 Y27.1 I2.499 J-2.45
X-5.909 Y27.5 I1.2 J-1.6
G3 X-5.71 Y27.701 I-0.001 J0.2 F480
G1 X-5.711 Y27.901
Y27.953 Z-1.093
Y28.001 Z-1.073
Y28.042 Z-1.041
Y28.074 Z-1
X-5.712 Y28.094 Z-0.952
Y28.101 Z-0.9
X-5.7 Y27.9 F240
Y27.907 Z-0.952 F60
Y27.927 Z-1
Y27.959 Z-1.041
Y28 Z-1.073
Y28.048 Z-1.093
Y28.1 Z-1.1
Y28.3 F120
G3 X-5.9 Y28.5 I-0.2 J0
G1 X-10 F240
G2 X-11 Y29.5 I0 J1
G1 Y48.2
G2 X-10 Y49.2 I1 J0
G1 X-6
G2 X-5 Y48.2 I0 J-1
G1 Y45.2
G2 X-6 Y44.2 I-1 J0
G1 X-6.5
Y44
X-3.5
Y44.2
X-4
G2 X-5 Y45.2 I0 J1
G1 Y49.5
G2 X-4 Y50.5 I1 J0
G1 X4
G2 X5 Y49.5 I0 J-1
G1 Y45.2
G2 X4 Y44.2 I-1 J0
G1 X3.5
Y44
X6.5
Y44.2
X6
G2 X5 Y45.2 I0 J1
G1 Y48.2
G2 X6 Y49.2 I1 J0
G1 X10
G2 X11 Y48.2 I0 J-1
G1 Y29.5
G2 X10 Y28.5 I-1 J0
G1 X-5.9
G3 X-6.1 Y28.3 I0 J-0.2 F480
G1 Y28.1
Y28.048 Z-1.093
Y28 Z-1.073
Y27.959 Z-1.041
Y27.927 Z-1
Y27.907 Z-0.952
Y27.9 Z-0.9
X-6.112 Y28.099 F240
Z-1.45 F60
Y28.092 Z-1.502
X-6.111 Y28.072 Z-1.55
Y28.041 Z-1.591
Y27.999 Z-1.623
Y27.951 Z-1.643
Y27.899 Z-1.65
X-6.11 Y27.699 F120
G3 X-5.909 Y27.5 I0.2 J0.001
G1 X-5.9 F240
X5.9
G2 X7.1 Y27.1 I0 J-2
X7.499 Y26.75 I-2.1 J-2.8
G1 X10
G2 X11 Y25.75 I0 J-1
G1 Y-3.5
G2 X10 Y-4.5 I-1 J0
G1 X-10
G2 X-11 Y-3.5 I0 J1
G1 Y25.75
G2 X-10 Y26.75 I1 J0
G1 X-7.5
G2 X-7.1 Y27.1 I2.499 J-2.45
X-5.909 Y27.5 I1.2 J-1.6
G3 X-5.71 Y27.701 I-0.001 J0.2 F480
G1 X-5.711 Y27.901
Y27.953 Z-1.643
Y28.001 Z-1.623
Y28.042 Z-1.591
Y28.074 Z-1.55
X-5.712 Y28.094 Z-1.502
Y28.101 Z-1.45
X-5.7 Y27.9 F240
Y27.907 Z-1.502 F60
Y27.927 Z-1.55
Y27.959 Z-1.591
Y28 Z-1.623
Y28.048 Z-1.643
Y28.1 Z-1.65
Y28.3 F120
G3 X-5.9 Y28.5 I-0.2 J0
G1 X-10 F240
G2 X-11 Y29.5 I0 J1
G1 Y48.2
G2 X-10 Y49.2 I1 J0
G1 X-6
G2 X-5 Y48.2 I0 J-1
G1 Y45.2
G2 X-6 Y44.2 I-1 J0
G1 X-6.5
Y44
X-3.5
Y44.2
X-4
G2 X-5 Y45.2 I0 J1
G1 Y49.5
G2 X-4 Y50.5 I1 J0
G1 X4
G2 X5 Y49.5 I0 J-1
G1 Y45.2
G2 X4 Y44.2 I-1 J0
G1 X3.5
Y44
X6.5
Y44.2
X6
G2 X5 Y45.2 I0 J1
G1 Y48.2
G2 X6 Y49.2 I1 J0
G1 X10
G2 X11 Y48.2 I0 J-1
G1 Y29.5
G2 X10 Y28.5 I-1 J0
G1 X-5.9
G3 X-6.1 Y28.3 I0 J-0.2 F480
G1 Y28.1
Y28.048 Z-1.643
Y28 Z-1.623
Y27.959 Z-1.591
Y27.927 Z-1.55
Y27.907 Z-1.502
Y27.9 Z-1.45
X-6.112 Y28.099 F240
Z-2 F60
Y28.092 Z-2.052
X-6.111 Y28.072 Z-2.1
Y28.041 Z-2.141
Y27.999 Z-2.173
Y27.951 Z-2.193
Y27.899 Z-2.2
X-6.11 Y27.699 F120
G3 X-5.909 Y27.5 I0.2 J0.001
G1 X-5.9 F240
X5.9
G2 X7.1 Y27.1 I0 J-2
X7.499 Y26.75 I-2.1 J-2.8
G1 X10
G2 X11 Y25.75 I0 J-1
G1 Y-3.5
G2 X10 Y-4.5 I-1 J0
G1 X-10
G2 X-11 Y-3.5 I0 J1
G1 Y25.75
G2 X-10 Y26.75 I1 J0
G1 X-7.5
G2 X-7.1 Y27.1 I2.499 J-2.45
X-5.909 Y27.5 I1.2 J-1.6
G3 X-5.71 Y27.701 I-0.001 J0.2 F480
G1 X-5.711 Y27.901
Y27.953 Z-2.193
Y28.001 Z-2.173
Y28.042 Z-2.141
Y28.074 Z-2.1
X-5.712 Y28.094 Z-2.052
Y28.101 Z-2
X-5.7 Y27.9 F240
Y27.907 Z-2.052 F60
Y27.927 Z-2.1
Y27.959 Z-2.141
Y28 Z-2.173
Y28.048 Z-2.193
Y28.1 Z-2.2
Y28.3 F120
G3 X-5.9 Y28.5 I-0.2 J0
G1 X-10 F240
G2 X-11 Y29.5 I0 J1
G1 Y48.2
G2 X-10 Y49.2 I1 J0
G1 X-6
G2 X-5 Y48.2 I0 J-1
G1 Y45.2
G2 X-6 Y44.2 I-1 J0
G1 X-6.5
Y44
X-3.5
Y44.2
X-4
G2 X-5 Y45.2 I0 J1
G1 Y49.5
G2 X-4 Y50.5 I1 J0
G1 X4
G2 X5 Y49.5 I0 J-1
G1 Y45.2
G2 X4 Y44.2 I-1 J0
G1 X3.5
Y44
X6.5
Y44.2
X6
G2 X5 Y45.2 I0 J1
G1 Y48.2
G2 X6 Y49.2 I1 J0
G1 X10
G2 X11 Y48.2 I0 J-1
G1 Y29.5
G2 X10 Y28.5 I-1 J0
G1 X-5.9
G3 X-6.1 Y28.3 I0 J-0.2 F480
G1 Y28.1
Y28.048 Z-2.193
Y28 Z-2.173
Y27.959 Z-2.141
Y27.927 Z-2.1
Y27.907 Z-2.052
Y27.9 Z-2
X-6.112 Y28.099 F240
Z-2.55 F60
Y28.092 Z-2.602
X-6.111 Y28.072 Z-2.65
Y28.041 Z-2.691
Y27.999 Z-2.723
Y27.951 Z-2.743
Y27.899 Z-2.75
X-6.11 Y27.699 F120
G3 X-5.909 Y27.5 I0.2 J0.001
G1 X-5.9 F240
X5.9
G2 X7.1 Y27.1 I0 J-2
X7.499 Y26.75 I-2.1 J-2.8
G1 X10
G2 X11 Y25.75 I0 J-1
G1 Y-3.5
G2 X10 Y-4.5 I-1 J0
G1 X-10
G2 X-11 Y-3.5 I0 J1
G1 Y25.75
G2 X-10 Y26.75 I1 J0
G1 X-7.5
G2 X-7.1 Y27.1 I2.499 J-2.45
X-5.909 Y27.5 I1.2 J-1.6
G3 X-5.71 Y27.701 I-0.001 J0.2 F480
G1 X-5.711 Y27.901
Y27.953 Z-2.743
Y28.001 Z-2.723
Y28.042 Z-2.691
Y28.074 Z-2.65
X-5.712 Y28.094 Z-2.602
Y28.101 Z-2.55
X-5.7 Y27.9 F240
Y27.907 Z-2.602 F60
Y27.927 Z-2.65
Y27.959 Z-2.691
Y28 Z-2.723
Y28.048 Z-2.743
Y28.1 Z-2.75
Y28.3 F120
G3 X-5.9 Y28.5 I-0.2 J0
G1 X-10 F240
G2 X-11 Y29.5 I0 J1
G1 Y48.2
G2 X-10 Y49.2 I1 J0
G1 X-6
G2 X-5 Y48.2 I0 J-1
G1 Y45.2
G2 X-6 Y44.2 I-1 J0
G1 X-6.5
Y44
X-3.5
Y44.2
X-4
G2 X-5 Y45.2 I0 J1
G1 Y49.5
G2 X-4 Y50.5 I1 J0
G1 X4
G2 X5 Y49.5 I0 J-1
G1 Y45.2
G2 X4 Y44.2 I-1 J0
G1 X3.5
Y44
X6.5
Y44.2
X6
G2 X5 Y45.2 I0 J1
G1 Y48.2
G2 X6 Y49.2 I1 J0
G1 X10
G2 X11 Y48.2 I0 J-1
G1 Y29.5
G2 X10 Y28.5 I-1 J0
G1 X-5.9
G3 X-6.1 Y28.3 I0 J-0.2 F480
G1 Y28.1
Y28.048 Z-2.743
Y28 Z-2.723
Y27.959 Z-2.691
Y27.927 Z-2.65
Y27.907 Z-2.602
Y27.9 Z-2.55
X-6.112 Y28.099 F240
Z-3 F60
Y28.092 Z-3.052
X-6.111 Y28.072 Z-3.1
Y28.041 Z-3.141
Y27.999 Z-3.173
Y27.951 Z-3.193
Y27.899 Z-3.2
X-6.11 Y27.699 F120
G3 X-5.909 Y27.5 I0.2 J0.001
G1 X-5.9 F240
X5.9
G2 X7.1 Y27.1 I0 J-2
X7.499 Y26.75 I-2.1 J-2.8
G1 X10
G2 X11 Y25.75 I0 J-1
G1 Y-3.5
G2 X10 Y-4.5 I-1 J0
G1 X-10
G2 X-11 Y-3.5 I0 J1
G1 Y25.75
G2 X-10 Y26.75 I1 J0
G1 X-7.5
G2 X-7.1 Y27.1 I2.499 J-2.45
X-5.909 Y27.5 I1.2 J-1.6
G3 X-5.71 Y27.701 I-0.001 J0.2 F480
G1 X-5.711 Y27.901
Y27.953 Z-3.193
Y28.001 Z-3.173
Y28.042 Z-3.141
Y28.074 Z-3.1
X-5.712 Y28.094 Z-3.052
Y28.101 Z-3
X-5.7 Y27.9 F240
Y27.907 Z-3.052 F60
Y27.927 Z-3.1
Y27.959 Z-3.141
Y28 Z-3.173
Y28.048 Z-3.193
Y28.1 Z-3.2
Y28.3 F120
G3 X-5.9 Y28.5 I-0.2 J0
G1 X-10 F240
G2 X-11 Y29.5 I0 J1
G1 Y48.2
G2 X-10 Y49.2 I1 J0
G1 X-6
G2 X-5 Y48.2 I0 J-1
G1 Y45.2
G2 X-6 Y44.2 I-1 J0
G1 X-6.5
Y44
X-3.5
Y44.2
X-4
G2 X-5 Y45.2 I0 J1
G1 Y49.5
G2 X-4 Y50.5 I1 J0
G1 X4
G2 X5 Y49.5 I0 J-1
G1 Y45.2
G2 X4 Y44.2 I-1 J0
G1 X3.5
Y44
X6.5
Y44.2
X6
G2 X5 Y45.2 I0 J1
G1 Y48.2
G2 X6 Y49.2 I1 J0
G1 X10
G2 X11 Y48.2 I0 J-1
G1 Y29.5
G2 X10 Y28.5 I-1 J0
G1 X-5.9
G3 X-6.1 Y28.3 I0 J-0.2 F480
G1 Y28.1
Y28.048 Z-3.193
Y28 Z-3.173
Y27.959 Z-3.141
Y27.927 Z-3.1
Y27.907 Z-3.052
Y27.9 Z-3
G0 Z15

M9
M30
