(2MM FLAT HOLES)
(T11  D=2 CR=0 - ZMIN=-4.6 - FLAT END MILL)
G90 G94 G91.1 G40 G49 G17
G21

(2MM FLAT INSIDE)
M5
M9
T11
(DIAMOND OR SPIRAL)
S20000 M3
G54
M8
G0 X-28.774 Y3.182
G43 Z15 H1
Z2
G1 Z0.1 F100
G3 X-24.006 Y2.101 Z0.089 I6.774 J18.818 F1000
G2 X-19.994 Y8.199 Z0.062 I2.006 J3.049
Y2.101 Z0.045 I-2.006 J-3.049
G3 X-5.77 Y10.313 Z0.005 I-2.006 J19.899
G2 X-9.045 Y16.837 Z-0.022 I-1.637 J3.262
X-3.764 Y13.788 Z-0.039 I1.637 J-3.262
G3 Y30.212 Z-0.078 I-18.236 J8.212
G2 X-11.051 Y30.638 Z-0.105 I-3.644 J0.213
X-5.77 Y33.687 Z-0.122 I3.644 J-0.213
G3 X-19.994 Y41.899 Z-0.161 I-16.23 J-11.687
G2 X-22 Y35.2 Z-0.183 I-2.006 J-3.049
X-24.006 Y41.899 Z-0.205 I0 J3.65
G3 X-38.23 Y33.687 Z-0.245 I2.006 J-19.899
G2 X-33.432 Y28.6 Z-0.267 I1.637 J-3.262
X-40.236 Y30.212 Z-0.289 I-3.161 J1.825
G3 Y13.788 Z-0.328 I18.236 J-8.212
G2 X-32.949 Y13.362 Z-0.355 I3.644 J-0.213
X-38.23 Y10.313 Z-0.372 I-3.644 J0.213
G3 X-24.006 Y2.101 Z-0.411 I16.23 J11.687
G2 X-19.994 Y8.199 Z-0.438 I2.006 J3.049
Y2.101 Z-0.455 I-2.006 J-3.049
G3 X-5.77 Y10.313 Z-0.495 I-2.006 J19.899
G2 X-9.045 Y16.837 Z-0.522 I-1.637 J3.262
X-3.764 Y13.788 Z-0.539 I1.637 J-3.262
G3 Y30.212 Z-0.578 I-18.236 J8.212
G2 X-11.051 Y30.638 Z-0.605 I-3.644 J0.213
X-5.77 Y33.687 Z-0.622 I3.644 J-0.213
G3 X-19.994 Y41.899 Z-0.661 I-16.23 J-11.687
G2 X-22 Y35.2 Z-0.683 I-2.006 J-3.049
X-24.006 Y41.899 Z-0.705 I0 J3.65
G3 X-38.23 Y33.687 Z-0.745 I2.006 J-19.899
G2 X-33.432 Y28.6 Z-0.767 I1.637 J-3.262
X-40.236 Y30.212 Z-0.789 I-3.161 J1.825
G3 Y13.788 Z-0.828 I18.236 J-8.212
G2 X-32.949 Y13.362 Z-0.855 I3.644 J-0.213
X-38.23 Y10.313 Z-0.872 I-3.644 J0.213
G3 X-24.006 Y2.101 Z-0.911 I16.23 J11.687
G2 X-19.994 Y8.199 Z-0.938 I2.006 J3.049
Y2.101 Z-0.955 I-2.006 J-3.049
G3 X-5.77 Y10.313 Z-0.995 I-2.006 J19.899
G2 X-9.045 Y16.837 Z-1.022 I-1.637 J3.262
X-3.764 Y13.788 Z-1.039 I1.637 J-3.262
G3 Y30.212 Z-1.078 I-18.236 J8.212
G2 X-11.051 Y30.638 Z-1.105 I-3.644 J0.213
X-5.77 Y33.687 Z-1.122 I3.644 J-0.213
G3 X-19.994 Y41.899 Z-1.161 I-16.23 J-11.687
G2 X-22 Y35.2 Z-1.183 I-2.006 J-3.049
X-24.006 Y41.899 Z-1.205 I0 J3.65
G3 X-38.23 Y33.687 Z-1.245 I2.006 J-19.899
G2 X-33.432 Y28.6 Z-1.267 I1.637 J-3.262
X-40.236 Y30.212 Z-1.289 I-3.161 J1.825
G3 Y13.788 Z-1.328 I18.236 J-8.212
G2 X-32.949 Y13.362 Z-1.355 I3.644 J-0.213
X-38.23 Y10.313 Z-1.372 I-3.644 J0.213
G3 X-24.006 Y2.101 Z-1.411 I16.23 J11.687
G2 X-19.994 Y8.199 Z-1.438 I2.006 J3.049
Y2.101 Z-1.455 I-2.006 J-3.049
G3 X-5.77 Y10.313 Z-1.495 I-2.006 J19.899
G2 X-9.045 Y16.837 Z-1.522 I-1.637 J3.262
X-3.764 Y13.788 Z-1.539 I1.637 J-3.262
G3 Y30.212 Z-1.578 I-18.236 J8.212
G2 X-11.051 Y30.638 Z-1.605 I-3.644 J0.213
X-5.77 Y33.687 Z-1.622 I3.644 J-0.213
G3 X-19.994 Y41.899 Z-1.661 I-16.23 J-11.687
G2 X-22 Y35.2 Z-1.683 I-2.006 J-3.049
X-24.006 Y41.899 Z-1.705 I0 J3.65
G3 X-38.23 Y33.687 Z-1.745 I2.006 J-19.899
G2 X-33.432 Y28.6 Z-1.767 I1.637 J-3.262
X-40.236 Y30.212 Z-1.789 I-3.161 J1.825
G3 Y13.788 Z-1.828 I18.236 J-8.212
G2 X-32.949 Y13.362 Z-1.855 I3.644 J-0.213
X-38.23 Y10.313 Z-1.872 I-3.644 J0.213
G3 X-24.006 Y2.101 Z-1.911 I16.23 J11.687
G2 X-19.994 Y8.199 Z-1.938 I2.006 J3.049
Y2.101 Z-1.955 I-2.006 J-3.049
G3 X-5.77 Y10.313 Z-1.995 I-2.006 J19.899
G2 X-9.045 Y16.837 Z-2.022 I-1.637 J3.262
X-3.764 Y13.788 Z-2.039 I1.637 J-3.262
G3 Y30.212 Z-2.078 I-18.236 J8.212
G2 X-11.051 Y30.638 Z-2.105 I-3.644 J0.213
X-5.77 Y33.687 Z-2.122 I3.644 J-0.213
G3 X-19.994 Y41.899 Z-2.161 I-16.23 J-11.687
G2 X-22 Y35.2 Z-2.183 I-2.006 J-3.049
X-24.006 Y41.899 Z-2.205 I0 J3.65
G3 X-38.23 Y33.687 Z-2.245 I2.006 J-19.899
G2 X-33.432 Y28.6 Z-2.267 I1.637 J-3.262
X-40.236 Y30.212 Z-2.289 I-3.161 J1.825
G3 Y13.788 Z-2.328 I18.236 J-8.212
G2 X-32.949 Y13.362 Z-2.355 I3.644 J-0.213
X-38.23 Y10.313 Z-2.372 I-3.644 J0.213
G3 X-24.006 Y2.101 Z-2.411 I16.23 J11.687
G2 X-19.994 Y8.199 Z-2.438 I2.006 J3.049
Y2.101 Z-2.455 I-2.006 J-3.049
G3 X-5.77 Y10.313 Z-2.495 I-2.006 J19.899
G2 X-9.045 Y16.837 Z-2.522 I-1.637 J3.262
X-3.764 Y13.788 Z-2.539 I1.637 J-3.262
G3 Y30.212 Z-2.578 I-18.236 J8.212
G2 X-11.051 Y30.638 Z-2.605 I-3.644 J0.213
X-5.77 Y33.687 Z-2.622 I3.644 J-0.213
G3 X-19.994 Y41.899 Z-2.661 I-16.23 J-11.687
G2 X-22 Y35.2 Z-2.683 I-2.006 J-3.049
X-24.006 Y41.899 Z-2.705 I0 J3.65
G3 X-38.23 Y33.687 Z-2.745 I2.006 J-19.899
G2 X-33.432 Y28.6 Z-2.767 I1.637 J-3.262
X-40.236 Y30.212 Z-2.789 I-3.161 J1.825
G3 Y13.788 Z-2.828 I18.236 J-8.212
G2 X-32.949 Y13.362 Z-2.855 I3.644 J-0.213
X-38.23 Y10.313 Z-2.872 I-3.644 J0.213
G3 X-24.006 Y2.101 Z-2.911 I16.23 J11.687
G2 X-19.994 Y8.199 Z-2.938 I2.006 J3.049
Y2.101 Z-2.955 I-2.006 J-3.049
G3 X-5.77 Y10.313 Z-2.995 I-2.006 J19.899
G2 X-9.045 Y16.837 Z-3.022 I-1.637 J3.262
X-3.764 Y13.788 Z-3.039 I1.637 J-3.262
G3 Y30.212 Z-3.078 I-18.236 J8.212
G2 X-11.051 Y30.638 Z-3.105 I-3.644 J0.213
X-5.77 Y33.687 Z-3.122 I3.644 J-0.213
G3 X-19.994 Y41.899 Z-3.161 I-16.23 J-11.687
G2 X-22 Y35.2 Z-3.183 I-2.006 J-3.049
X-24.006 Y41.899 Z-3.205 I0 J3.65
G3 X-38.23 Y33.687 Z-3.245 I2.006 J-19.899
G2 X-33.432 Y28.6 Z-3.267 I1.637 J-3.262
X-40.236 Y30.212 Z-3.289 I-3.161 J1.825
G3 Y13.788 Z-3.328 I18.236 J-8.212
G2 X-32.949 Y13.362 Z-3.355 I3.644 J-0.213
X-38.23 Y10.313 Z-3.372 I-3.644 J0.213
G3 X-24.006 Y2.101 Z-3.411 I16.23 J11.687
G2 X-19.994 Y8.199 Z-3.438 I2.006 J3.049
Y2.101 Z-3.455 I-2.006 J-3.049
G3 X-5.77 Y10.313 Z-3.495 I-2.006 J19.899
G2 X-9.045 Y16.837 Z-3.522 I-1.637 J3.262
X-3.764 Y13.788 Z-3.539 I1.637 J-3.262
G3 Y30.212 Z-3.578 I-18.236 J8.212
G2 X-11.051 Y30.638 Z-3.605 I-3.644 J0.213
X-5.77 Y33.687 Z-3.622 I3.644 J-0.213
G3 X-19.994 Y41.899 Z-3.661 I-16.23 J-11.687
G2 X-22 Y35.2 Z-3.683 I-2.006 J-3.049
X-24.006 Y41.899 Z-3.705 I0 J3.65
G3 X-38.23 Y33.687 Z-3.745 I2.006 J-19.899
G2 X-33.432 Y28.6 Z-3.767 I1.637 J-3.262
X-40.236 Y30.212 Z-3.789 I-3.161 J1.825
G3 Y13.788 Z-3.828 I18.236 J-8.212
G2 X-32.949 Y13.362 Z-3.855 I3.644 J-0.213
X-38.23 Y10.313 Z-3.872 I-3.644 J0.213
G3 X-24.006 Y2.101 Z-3.911 I16.23 J11.687
G2 X-19.994 Y8.199 Z-3.938 I2.006 J3.049
Y2.101 Z-3.955 I-2.006 J-3.049
G3 X-5.77 Y10.313 Z-3.995 I-2.006 J19.899
G2 X-9.045 Y16.837 Z-4.022 I-1.637 J3.262
X-3.764 Y13.788 Z-4.039 I1.637 J-3.262
G3 Y30.212 Z-4.078 I-18.236 J8.212
G2 X-11.051 Y30.638 Z-4.105 I-3.644 J0.213
X-5.77 Y33.687 Z-4.122 I3.644 J-0.213
G3 X-19.994 Y41.899 Z-4.161 I-16.23 J-11.687
G2 X-22 Y35.2 Z-4.183 I-2.006 J-3.049
X-24.006 Y41.899 Z-4.205 I0 J3.65
G3 X-38.23 Y33.687 Z-4.245 I2.006 J-19.899
G2 X-33.432 Y28.6 Z-4.267 I1.637 J-3.262
X-40.236 Y30.212 Z-4.289 I-3.161 J1.825
G3 Y13.788 Z-4.328 I18.236 J-8.212
G2 X-32.949 Y13.362 Z-4.355 I3.644 J-0.213
X-38.23 Y10.313 Z-4.372 I-3.644 J0.213
G3 X-24.006 Y2.101 Z-4.411 I16.23 J11.687
G2 X-19.994 Y8.199 Z-4.438 I2.006 J3.049
Y2.101 Z-4.455 I-2.006 J-3.049
G3 X-5.77 Y10.313 Z-4.495 I-2.006 J19.899
G2 X-9.045 Y16.837 Z-4.522 I-1.637 J3.262
X-3.764 Y13.788 Z-4.539 I1.637 J-3.262
G3 Y30.212 Z-4.578 I-18.236 J8.212
G2 X-10.568 Y28.6 Z-4.6 I-3.644 J0.213
X-5.77 Y33.687 I3.161 J1.825
G3 X-19.994 Y41.899 I-16.23 J-11.687
G2 X-22 Y35.2 I-2.006 J-3.049
X-24.006 Y41.899 I0 J3.65
G3 X-38.23 Y33.687 I2.006 J-19.899
G2 X-33.432 Y28.6 I1.637 J-3.262
X-40.236 Y30.212 I-3.161 J1.825
G3 Y13.788 I18.236 J-8.212
G2 X-32.949 Y13.362 I3.644 J-0.213
X-38.23 Y10.313 I-3.644 J0.213
G3 X-24.006 Y2.101 I16.23 J11.687
G2 X-19.994 Y8.199 I2.006 J3.049
Y2.101 I-2.006 J-3.049
G3 X-5.77 Y10.313 I-2.006 J19.899
G2 X-9.045 Y16.837 I-1.637 J3.262
X-3.764 Y13.788 I1.637 J-3.262
G3 Y30.212 I-18.236 J8.212
G2 X-10.568 Y28.6 I-3.644 J0.213
G0 Z15

M9
M30
