(2MM FLAT HOLES)
(T11  D=2 CR=0 - ZMIN=-4.6 - FLAT END MILL)
G90 G94 G91.1 G40 G49 G17
G21

(2MM FLAT OUTSIDE)
M5
M9
T11
(DIAMOND OR SPIRAL)
S20000 M3
G54
M8
G0 X-35.519 Y3.393
G43 Z15 H1
Z2
G1 Z0.1 F100
G2 X-35.8 Y3.6 Z0.099 I13.519 J18.607 F1000
X-8.2 Y40.4 Z-0.151 I13.8 J18.4
X-35.8 Y3.6 Z-0.401 I-13.8 J-18.4
X-8.2 Y40.4 Z-0.651 I13.8 J18.4
X-35.8 Y3.6 Z-0.901 I-13.8 J-18.4
X-8.2 Y40.4 Z-1.151 I13.8 J18.4
X-35.8 Y3.6 Z-1.401 I-13.8 J-18.4
X-8.2 Y40.4 Z-1.651 I13.8 J18.4
X-35.8 Y3.6 Z-1.901 I-13.8 J-18.4
X-8.2 Y40.4 Z-2.151 I13.8 J18.4
X-35.8 Y3.6 Z-2.401 I-13.8 J-18.4
X-8.2 Y40.4 Z-2.651 I13.8 J18.4
X-35.8 Y3.6 Z-2.901 I-13.8 J-18.4
X-8.2 Y40.4 Z-3.151 I13.8 J18.4
X-35.8 Y3.6 Z-3.401 I-13.8 J-18.4
X-8.2 Y40.4 Z-3.651 I13.8 J18.4
X-35.8 Y3.6 Z-3.901 I-13.8 J-18.4
X-8.2 Y40.4 Z-4.151 I13.8 J18.4
X-35.8 Y3.6 Z-4.401 I-13.8 J-18.4
X-22 Y45 Z-4.6 I13.8 J18.4
Y-1 I0 J-23
Y45 I0 J23
G0 Z15

M9
M30
