(01 2MM FLAT HOLES)
(T11  D=2 CR=0 - ZMIN=-1.4 - FLAT END MILL)
G90 G94 G91.1 G40 G49 G17
G21

(01 2MM FLAT HOLES)
M5
M9
T11
(DIAMOND OR SPIRAL)
S20000 M3
G54
M8
G0 X-67.073 Y39.086
G43 Z15 H1
Z2
G1 Z0.1 F100
G3 X-66.721 Y39.914 Z-0.024 I0.176 J0.414 F1000
X-67.073 Y39.086 Z-0.147 I-0.176 J-0.414
X-66.721 Y39.914 Z-0.271 I0.176 J0.414
X-67.073 Y39.086 Z-0.395 I-0.176 J-0.414
X-66.721 Y39.914 Z-0.518 I0.176 J0.414
X-67.073 Y39.086 Z-0.642 I-0.176 J-0.414
X-66.721 Y39.914 Z-0.766 I0.176 J0.414
X-67.073 Y39.086 Z-0.889 I-0.176 J-0.414
X-66.721 Y39.914 Z-1.013 I0.176 J0.414
X-67.073 Y39.086 Z-1.137 I-0.176 J-0.414
X-66.721 Y39.914 Z-1.261 I0.176 J0.414
X-67.073 Y39.086 Z-1.384 I-0.176 J-0.414
X-66.897 Y39.05 Z-1.4 I0.176 J0.414
Y39.95 I0 J0.45
Y39.05 I0 J-0.45
G0 Z5
X-76.501 Y17.166
Z2
G1 Z0.1 F100
G3 X-76.149 Y17.994 Z-0.024 I0.176 J0.414 F1000
X-76.501 Y17.166 Z-0.147 I-0.176 J-0.414
X-76.149 Y17.994 Z-0.271 I0.176 J0.414
X-76.501 Y17.166 Z-0.395 I-0.176 J-0.414
X-76.149 Y17.994 Z-0.518 I0.176 J0.414
X-76.501 Y17.166 Z-0.642 I-0.176 J-0.414
X-76.149 Y17.994 Z-0.766 I0.176 J0.414
X-76.501 Y17.166 Z-0.889 I-0.176 J-0.414
X-76.149 Y17.994 Z-1.013 I0.176 J0.414
X-76.501 Y17.166 Z-1.137 I-0.176 J-0.414
X-76.149 Y17.994 Z-1.261 I0.176 J0.414
X-76.501 Y17.166 Z-1.384 I-0.176 J-0.414
X-76.325 Y17.13 Z-1.4 I0.176 J0.414
Y18.03 I0 J0.45
Y17.13 I0 J-0.45
G0 Z5
X-76.501 Y61.006
Z2
G1 Z0.1 F100
G3 X-76.149 Y61.834 Z-0.024 I0.176 J0.414 F1000
X-76.501 Y61.006 Z-0.147 I-0.176 J-0.414
X-76.149 Y61.834 Z-0.271 I0.176 J0.414
X-76.501 Y61.006 Z-0.395 I-0.176 J-0.414
X-76.149 Y61.834 Z-0.518 I0.176 J0.414
X-76.501 Y61.006 Z-0.642 I-0.176 J-0.414
X-76.149 Y61.834 Z-0.766 I0.176 J0.414
X-76.501 Y61.006 Z-0.889 I-0.176 J-0.414
X-76.149 Y61.834 Z-1.013 I0.176 J0.414
X-76.501 Y61.006 Z-1.137 I-0.176 J-0.414
X-76.149 Y61.834 Z-1.261 I0.176 J0.414
X-76.501 Y61.006 Z-1.384 I-0.176 J-0.414
X-76.325 Y60.97 Z-1.4 I0.176 J0.414
Y61.87 I0 J0.45
Y60.97 I0 J-0.45
G0 Z5
X-4.501 Y75.966
Z2
G1 Z0.1 F100
G3 X-4.325 Y75.93 Z0.084 I0.176 J0.414 F1000
Y76.83 Z-0.039 I0 J0.45
Y75.93 Z-0.163 I0 J-0.45
Y76.83 Z-0.287 I0 J0.45
Y75.93 Z-0.411 I0 J-0.45
Y76.83 Z-0.534 I0 J0.45
Y75.93 Z-0.658 I0 J-0.45
Y76.83 Z-0.782 I0 J0.45
Y75.93 Z-0.905 I0 J-0.45
Y76.83 Z-1.029 I0 J0.45
Y75.93 Z-1.153 I0 J-0.45
Y76.83 Z-1.276 I0 J0.45
Y75.93 Z-1.4 I0 J-0.45
Y76.83 I0 J0.45
Y75.93 I0 J-0.45
G0 Z5
X-4.501 Y39.086
Z2
G1 Z0.1 F100
G3 X-4.149 Y39.914 Z-0.024 I0.176 J0.414 F1000
X-4.501 Y39.086 Z-0.147 I-0.176 J-0.414
X-4.149 Y39.914 Z-0.271 I0.176 J0.414
X-4.501 Y39.086 Z-0.395 I-0.176 J-0.414
X-4.149 Y39.914 Z-0.518 I0.176 J0.414
X-4.501 Y39.086 Z-0.642 I-0.176 J-0.414
X-4.149 Y39.914 Z-0.766 I0.176 J0.414
X-4.501 Y39.086 Z-0.889 I-0.176 J-0.414
X-4.149 Y39.914 Z-1.013 I0.176 J0.414
X-4.501 Y39.086 Z-1.137 I-0.176 J-0.414
X-4.149 Y39.914 Z-1.261 I0.176 J0.414
X-4.501 Y39.086 Z-1.384 I-0.176 J-0.414
X-4.325 Y39.05 Z-1.4 I0.176 J0.414
Y39.95 I0 J0.45
Y39.05 I0 J-0.45
G0 Z5
X-4.501 Y2.206
Z2
G1 Z0.1 F100
G3 X-4.149 Y3.034 Z-0.024 I0.176 J0.414 F1000
X-4.501 Y2.206 Z-0.147 I-0.176 J-0.414
X-4.149 Y3.034 Z-0.271 I0.176 J0.414
X-4.501 Y2.206 Z-0.395 I-0.176 J-0.414
X-4.149 Y3.034 Z-0.518 I0.176 J0.414
X-4.501 Y2.206 Z-0.642 I-0.176 J-0.414
X-4.149 Y3.034 Z-0.766 I0.176 J0.414
X-4.501 Y2.206 Z-0.889 I-0.176 J-0.414
X-4.149 Y3.034 Z-1.013 I0.176 J0.414
X-4.501 Y2.206 Z-1.137 I-0.176 J-0.414
X-4.149 Y3.034 Z-1.261 I0.176 J0.414
X-4.501 Y2.206 Z-1.384 I-0.176 J-0.414
X-4.325 Y2.17 Z-1.4 I0.176 J0.414
Y3.07 I0 J0.45
Y2.17 I0 J-0.45
G0 Z15

M9
M30
