(01 2MM FLAT HOLES)
(T48  D=5 CR=0 TAPER=45DEG - ZMIN=-2.65 - CHAMFER MILL)
G90 G94 G91.1 G40 G49 G17
G21

(02 5MM CHAMFER)
M5
M9
T48
(4 FLUTE FISH)
S20000 M3
G54
M8
G0 X-4.325 Y2.62
G43 Z15 H26
Z5
G98 G81 X-4.325 Y2.62 Z-2.65 R1 F25
Y39.5
Y76.38
X-76.325 Y61.42
X-66.897 Y39.5
X-76.325 Y17.58
G80
Z15

M9
M30
