(01 2MM FLAT HOLES)
(T11  D=2 CR=0 - ZMIN=-1.4 - FLAT END MILL)
G90 G94 G91.1 G40 G49 G17
G21

(03 2MM FLAT OUTSIDE)
M5
M9
T11
(DIAMOND OR SPIRAL)
S20000 M3
G54
M8
G0 X-66.016 Y-0.971
G43 Z15 H1
Z2
G1 Z0.1 F100
G2 X-66.352 Y-1 I-0.336 J1.971 F1000
G1 X-74.352 Z0.088
G2 X-76.352 Y1 Z0.084 I0 J2
G1 Y7.7 Z0.074
X-83.852 Z0.064
G2 X-85.852 Y9.7 Z0.059 I0 J2
G1 Y13.966 Z0.053
G2 X-84.385 Y15.893 Z0.049 I2 J0
G3 Y19.267 Z0.043 I-0.467 J1.687
G2 X-85.852 Y21.194 Z0.039 I0.533 J1.928
G1 Y22.038 Z0.038
G2 X-84.338 Y23.979 Z0.034 I2 J0
G3 Y55.021 Z-0.026 I-3.884 J15.521
G2 X-85.852 Y56.962 Z-0.03 I0.486 J1.94
G1 Y57.806 Z-0.031
G2 X-84.385 Y59.733 Z-0.034 I2 J0
G3 X-84.355 Y63.098 Z-0.041 I-0.467 J1.687
G2 X-85.762 Y65.325 Z-0.045 I0.568 J1.917
X-78.392 Y71.63 Z-0.06 I7.37 J-1.155
G1 X-57.5 Z-0.09
Y72.63 Z-0.091
G2 X-55.5 Y74.63 Z-0.095 I2 J0
G1 X-11.4 Z-0.158
G3 X-9.822 Y77.136 Z-0.163 I0 J1.75
G2 X-8.018 Y80 Z-0.169 I1.804 J0.864
G1 X-1 Z-0.179
G2 X1 Y78 Z-0.183 I0 J-2
G1 Y1 Z-0.292
G2 X-1 Y-1 Z-0.297 I-2 J0
G1 X-8.018 Z-0.307
G2 X-9.822 Y1.864 Z-0.312 I0 J2
G3 X-11.4 Y4.37 Z-0.317 I-1.578 J0.756
G1 X-62.602 Z-0.39
G3 X-64.352 Y2.62 Z-0.394 I0 J-1.75
G1 Y1 Z-0.396
G2 X-66.352 Y-1 Z-0.4 I-2 J0
G1 X-74.352 Z-0.412
G2 X-76.352 Y1 Z-0.416 I0 J2
G1 Y7.7 Z-0.426
X-83.852 Z-0.436
G2 X-85.852 Y9.7 Z-0.441 I0 J2
G1 Y13.966 Z-0.447
G2 X-84.385 Y15.893 Z-0.451 I2 J0
G3 Y19.267 Z-0.457 I-0.467 J1.687
G2 X-85.852 Y21.194 Z-0.461 I0.533 J1.928
G1 Y22.038 Z-0.462
G2 X-84.338 Y23.979 Z-0.466 I2 J0
G3 Y55.021 Z-0.526 I-3.884 J15.521
G2 X-85.852 Y56.962 Z-0.53 I0.486 J1.94
G1 Y57.806 Z-0.531
G2 X-84.385 Y59.733 Z-0.534 I2 J0
G3 X-84.355 Y63.098 Z-0.541 I-0.467 J1.687
G2 X-85.762 Y65.325 Z-0.545 I0.568 J1.917
X-78.392 Y71.63 Z-0.56 I7.37 J-1.155
G1 X-57.5 Z-0.59
Y72.63 Z-0.591
G2 X-55.5 Y74.63 Z-0.595 I2 J0
G1 X-11.4 Z-0.658
G3 X-9.822 Y77.136 Z-0.663 I0 J1.75
G2 X-8.018 Y80 Z-0.669 I1.804 J0.864
G1 X-1 Z-0.679
G2 X1 Y78 Z-0.683 I0 J-2
G1 Y1 Z-0.792
G2 X-1 Y-1 Z-0.797 I-2 J0
G1 X-8.018 Z-0.807
G2 X-9.822 Y1.864 Z-0.812 I0 J2
G3 X-11.4 Y4.37 Z-0.817 I-1.578 J0.756
G1 X-62.602 Z-0.89
G3 X-64.352 Y2.62 Z-0.894 I0 J-1.75
G1 Y1 Z-0.896
G2 X-66.352 Y-1 Z-0.9 I-2 J0
G1 X-74.352 Z-0.912
G2 X-76.352 Y1 Z-0.916 I0 J2
G1 Y7.7 Z-0.926
X-83.852 Z-0.936
G2 X-85.852 Y9.7 Z-0.941 I0 J2
G1 Y13.966 Z-0.947
G2 X-84.385 Y15.893 Z-0.951 I2 J0
G3 Y19.267 Z-0.957 I-0.467 J1.687
G2 X-85.852 Y21.194 Z-0.961 I0.533 J1.928
G1 Y22.038 Z-0.962
G2 X-84.338 Y23.979 Z-0.966 I2 J0
G3 Y55.021 Z-1.026 I-3.884 J15.521
G2 X-85.852 Y56.962 Z-1.03 I0.486 J1.94
G1 Y57.806 Z-1.031
G2 X-84.385 Y59.733 Z-1.034 I2 J0
G3 X-84.355 Y63.098 Z-1.041 I-0.467 J1.687
G2 X-85.762 Y65.325 Z-1.045 I0.568 J1.917
X-78.392 Y71.63 Z-1.06 I7.37 J-1.155
G1 X-57.5 Z-1.09
Y72.63 Z-1.091
G2 X-55.5 Y74.63 Z-1.095 I2 J0
G1 X-11.4 Z-1.158
G3 X-9.822 Y77.136 Z-1.163 I0 J1.75
G2 X-8.018 Y80 Z-1.169 I1.804 J0.864
G1 X-1 Z-1.179
G2 X1 Y78 Z-1.183 I0 J-2
G1 Y1 Z-1.292
G2 X-1 Y-1 Z-1.297 I-2 J0
G1 X-8.018 Z-1.307
G2 X-9.822 Y1.864 Z-1.312 I0 J2
G3 X-11.4 Y4.37 Z-1.317 I-1.578 J0.756
G1 X-62.602 Z-1.39
G3 X-64.352 Y2.62 Z-1.394 I0 J-1.75
G1 Y1 Z-1.396
G2 X-66.016 Y-0.971 Z-1.4 I-2 J0
X-66.352 Y-1 I-0.336 J1.971
G1 X-74.352
G2 X-76.352 Y1 I0 J2
G1 Y7.7
X-83.852
G2 X-85.852 Y9.7 I0 J2
G1 Y13.966
G2 X-84.385 Y15.893 I2 J0
G3 Y19.267 I-0.467 J1.687
G2 X-85.852 Y21.194 I0.533 J1.928
G1 Y22.038
G2 X-84.338 Y23.979 I2 J0
G3 Y55.021 I-3.884 J15.521
G2 X-85.852 Y56.962 I0.486 J1.94
G1 Y57.806
G2 X-84.385 Y59.733 I2 J0
G3 X-84.355 Y63.098 I-0.467 J1.687
G2 X-85.762 Y65.325 I0.568 J1.917
X-78.392 Y71.63 I7.37 J-1.155
G1 X-57.5
Y72.63
G2 X-55.5 Y74.63 I2 J0
G1 X-11.4
G3 X-9.822 Y77.136 I0 J1.75
G2 X-8.018 Y80 I1.804 J0.864
G1 X-1
G2 X1 Y78 I0 J-2
G1 Y1
G2 X-1 Y-1 I-2 J0
G1 X-8.018
G2 X-9.822 Y1.864 I0 J2
G3 X-11.4 Y4.37 I-1.578 J0.756
G1 X-62.602
G3 X-64.352 Y2.62 I0 J-1.75
G1 Y1
G2 X-66.016 Y-0.971 I-2 J0
G0 Z15

M9
M30
