(MILL 2MM CONTOUR)
(T11  D=2 CR=0 - ZMIN=-3.5 - FLAT END MILL)
G90 G94 G91.1 G40 G49 G17
G21

(MILL 2MM CONTOUR)
M5
M9
T11
(DIAMOND OR SPIRAL)
S16000 M3
G54
M8
G0 X0.2 Y-1.6
G43 Z15 H1
Z2
G1 Z-0.625 F60
Y-1.593 Z-0.677
Y-1.573 Z-0.725
Y-1.541 Z-0.766
Y-1.5 Z-0.798
Y-1.452 Z-0.818
Y-1.4 Z-0.825
Y-1.2 F120
G3 X0 Y-1 I-0.2 J0
G2 X-1 Y0 I0 J1 F240
G1 Y6.9
G2 X0 Y7.9 I1 J0
G1 X0.7
Y73.7
X0
G2 X-1 Y74.7 I0 J1
G1 Y81.6
G2 X0 Y82.6 I1 J0
G1 X2.95
G2 X3.95 Y81.6 I0 J-1
G1 Y78.6
G2 X2.95 Y77.6 I-1 J0
G1 X2.7
Y77.4
X5.3
Y77.6
X5.05
G2 X4.05 Y78.6 I0 J1
G1 Y81.6
G2 X5.05 Y82.6 I1 J0
G1 X8
G2 X9 Y81.6 I0 J-1
G1 Y74.7
G2 X8 Y73.7 I-1 J0
G1 X7.3
Y7.9
X8
G2 X9 Y6.9 I0 J-1
G1 Y0
G2 X8 Y-1 I-1 J0
G1 X5.05
G2 X4.05 Y0 I0 J1
G1 Y3
G2 X5.05 Y4 I1 J0
G1 X5.3
Y4.2
X2.7
Y4
X2.95
G2 X3.95 Y3 I0 J-1
G1 Y0
G2 X2.95 Y-1 I-1 J0
G1 X0
G3 X-0.2 Y-1.2 I0 J-0.2 F480
G1 Y-1.4
Y-1.452 Z-0.818
Y-1.5 Z-0.798
Y-1.541 Z-0.766
Y-1.573 Z-0.725
Y-1.593 Z-0.677
Y-1.6 Z-0.625
X0.2 F240
Z-1.45 F60
Y-1.593 Z-1.502
Y-1.573 Z-1.55
Y-1.541 Z-1.591
Y-1.5 Z-1.623
Y-1.452 Z-1.643
Y-1.4 Z-1.65
Y-1.2 F120
G3 X0 Y-1 I-0.2 J0
G2 X-1 Y0 I0 J1 F240
G1 Y6.9
G2 X0 Y7.9 I1 J0
G1 X0.7
Y73.7
X0
G2 X-1 Y74.7 I0 J1
G1 Y81.6
G2 X0 Y82.6 I1 J0
G1 X2.95
G2 X3.95 Y81.6 I0 J-1
G1 Y78.6
G2 X2.95 Y77.6 I-1 J0
G1 X2.7
Y77.4
X5.3
Y77.6
X5.05
G2 X4.05 Y78.6 I0 J1
G1 Y81.6
G2 X5.05 Y82.6 I1 J0
G1 X8
G2 X9 Y81.6 I0 J-1
G1 Y74.7
G2 X8 Y73.7 I-1 J0
G1 X7.3
Y7.9
X8
G2 X9 Y6.9 I0 J-1
G1 Y0
G2 X8 Y-1 I-1 J0
G1 X5.05
G2 X4.05 Y0 I0 J1
G1 Y3
G2 X5.05 Y4 I1 J0
G1 X5.3
Y4.2
X2.7
Y4
X2.95
G2 X3.95 Y3 I0 J-1
G1 Y0
G2 X2.95 Y-1 I-1 J0
G1 X0
G3 X-0.2 Y-1.2 I0 J-0.2 F480
G1 Y-1.4
Y-1.452 Z-1.643
Y-1.5 Z-1.623
Y-1.541 Z-1.591
Y-1.573 Z-1.55
Y-1.593 Z-1.502
Y-1.6 Z-1.45
X0.2 F240
Z-2.275 F60
Y-1.593 Z-2.327
Y-1.573 Z-2.375
Y-1.541 Z-2.416
Y-1.5 Z-2.448
Y-1.452 Z-2.468
Y-1.4 Z-2.475
Y-1.2 F120
G3 X0 Y-1 I-0.2 J0
G2 X-1 Y0 I0 J1 F240
G1 Y6.9
G2 X0 Y7.9 I1 J0
G1 X0.7
Y73.7
X0
G2 X-1 Y74.7 I0 J1
G1 Y81.6
G2 X0 Y82.6 I1 J0
G1 X2.95
G2 X3.95 Y81.6 I0 J-1
G1 Y78.6
G2 X2.95 Y77.6 I-1 J0
G1 X2.7
Y77.4
X5.3
Y77.6
X5.05
G2 X4.05 Y78.6 I0 J1
G1 Y81.6
G2 X5.05 Y82.6 I1 J0
G1 X8
G2 X9 Y81.6 I0 J-1
G1 Y74.7
G2 X8 Y73.7 I-1 J0
G1 X7.3
Y7.9
X8
G2 X9 Y6.9 I0 J-1
G1 Y0
G2 X8 Y-1 I-1 J0
G1 X5.05
G2 X4.05 Y0 I0 J1
G1 Y3
G2 X5.05 Y4 I1 J0
G1 X5.3
Y4.2
X2.7
Y4
X2.95
G2 X3.95 Y3 I0 J-1
G1 Y0
G2 X2.95 Y-1 I-1 J0
G1 X0
G3 X-0.2 Y-1.2 I0 J-0.2 F480
G1 Y-1.4
Y-1.452 Z-2.468
Y-1.5 Z-2.448
Y-1.541 Z-2.416
Y-1.573 Z-2.375
Y-1.593 Z-2.327
Y-1.6 Z-2.275
X0.2 F240
Z-2.788 F60
Y-1.593 Z-2.839
Y-1.573 Z-2.888
Y-1.541 Z-2.929
Y-1.5 Z-2.961
Y-1.452 Z-2.981
Y-1.4 Z-2.987
Y-1.2 F120
G3 X0 Y-1 I-0.2 J0
G2 X-1 Y0 I0 J1 F240
G1 Y6.9
G2 X0 Y7.9 I1 J0
G1 X0.7
Y73.7
X0
G2 X-1 Y74.7 I0 J1
G1 Y81.6
G2 X0 Y82.6 I1 J0
G1 X2.95
G2 X3.95 Y81.6 I0 J-1
G1 Y78.6
G2 X2.95 Y77.6 I-1 J0
G1 X2.7
Y77.4
X5.3
Y77.6
X5.05
G2 X4.05 Y78.6 I0 J1
G1 Y81.6
G2 X5.05 Y82.6 I1 J0
G1 X8
G2 X9 Y81.6 I0 J-1
G1 Y74.7
G2 X8 Y73.7 I-1 J0
G1 X7.3
Y7.9
X8
G2 X9 Y6.9 I0 J-1
G1 Y0
G2 X8 Y-1 I-1 J0
G1 X5.05
G2 X4.05 Y0 I0 J1
G1 Y3
G2 X5.05 Y4 I1 J0
G1 X5.3
Y4.2
X2.7
Y4
X2.95
G2 X3.95 Y3 I0 J-1
G1 Y0
G2 X2.95 Y-1 I-1 J0
G1 X0
G3 X-0.2 Y-1.2 I0 J-0.2 F480
G1 Y-1.4
Y-1.452 Z-2.981
Y-1.5 Z-2.961
Y-1.541 Z-2.929
Y-1.573 Z-2.888
Y-1.593 Z-2.839
Y-1.6 Z-2.788
X0.2 F240
Z-3.3 F60
Y-1.593 Z-3.352
Y-1.573 Z-3.4
Y-1.541 Z-3.441
Y-1.5 Z-3.473
Y-1.452 Z-3.493
Y-1.4 Z-3.5
Y-1.2 F120
G3 X0 Y-1 I-0.2 J0
G2 X-1 Y0 I0 J1 F240
G1 Y6.9
G2 X0 Y7.9 I1 J0
G1 X0.7
Y73.7
X0
G2 X-1 Y74.7 I0 J1
G1 Y81.6
G2 X0 Y82.6 I1 J0
G1 X2.95
G2 X3.95 Y81.6 I0 J-1
G1 Y78.6
G2 X2.95 Y77.6 I-1 J0
G1 X2.7
Y77.4
X5.3
Y77.6
X5.05
G2 X4.05 Y78.6 I0 J1
G1 Y81.6
G2 X5.05 Y82.6 I1 J0
G1 X8
G2 X9 Y81.6 I0 J-1
G1 Y74.7
G2 X8 Y73.7 I-1 J0
G1 X7.3
Y7.9
X8
G2 X9 Y6.9 I0 J-1
G1 Y0
G2 X8 Y-1 I-1 J0
G1 X5.05
G2 X4.05 Y0 I0 J1
G1 Y3
G2 X5.05 Y4 I1 J0
G1 X5.3
Y4.2
X2.7
Y4
X2.95
G2 X3.95 Y3 I0 J-1
G1 Y0
G2 X2.95 Y-1 I-1 J0
G1 X0
G3 X-0.2 Y-1.2 I0 J-0.2 F480
G1 Y-1.4
Y-1.452 Z-3.493
Y-1.5 Z-3.473
Y-1.541 Z-3.441
Y-1.573 Z-3.4
Y-1.593 Z-3.352
Y-1.6 Z-3.3
G0 Z15

M9
M30
