(MILL 2MM HOLES)
(T11  D=2 CR=0 - ZMIN=-3.5 - FLAT END MILL)
G90 G94 G91.1 G40 G49 G17
G21

(MILL 2MM HOLES)
M5
M9
T11
(DIAMOND OR SPIRAL)
S16000 M3
G54
M8
G0 X62.62 Y76.45
G43 Z15 H1
Z2
G1 Z-0.675 F60
X62.627 Z-0.727
X62.647 Z-0.775
X62.679 Z-0.816
X62.72 Z-0.848
X62.768 Z-0.868
X62.82 Z-0.875
X63.02 F120
G3 X63.22 Y76.65 I0 J0.2
X62.22 I-0.5 J0 F240
X63.22 I0.5 J0
X63.02 Y76.85 I-0.2 J0 F480
G1 X62.82
X62.768 Z-0.868
X62.72 Z-0.848
X62.679 Z-0.816
X62.647 Z-0.775
X62.627 Z-0.727
X62.62 Z-0.675
Y76.45 F240
Z-1.55 F60
X62.627 Z-1.602
X62.647 Z-1.65
X62.679 Z-1.691
X62.72 Z-1.723
X62.768 Z-1.743
X62.82 Z-1.75
X63.02 F120
G3 X63.22 Y76.65 I0 J0.2
X62.22 I-0.5 J0 F240
X63.22 I0.5 J0
X63.02 Y76.85 I-0.2 J0 F480
G1 X62.82
X62.768 Z-1.743
X62.72 Z-1.723
X62.679 Z-1.691
X62.647 Z-1.65
X62.627 Z-1.602
X62.62 Z-1.55
Y76.45 F240
Z-2.425 F60
X62.627 Z-2.477
X62.647 Z-2.525
X62.679 Z-2.566
X62.72 Z-2.598
X62.768 Z-2.618
X62.82 Z-2.625
X63.02 F120
G3 X63.22 Y76.65 I0 J0.2
X62.22 I-0.5 J0 F240
X63.22 I0.5 J0
X63.02 Y76.85 I-0.2 J0 F480
G1 X62.82
X62.768 Z-2.618
X62.72 Z-2.598
X62.679 Z-2.566
X62.647 Z-2.525
X62.627 Z-2.477
X62.62 Z-2.425
Y76.45 F240
Z-3.3 F60
X62.627 Z-3.352
X62.647 Z-3.4
X62.679 Z-3.441
X62.72 Z-3.473
X62.768 Z-3.493
X62.82 Z-3.5
X63.02 F120
G3 X63.22 Y76.65 I0 J0.2
X62.22 I-0.5 J0 F240
X63.22 I0.5 J0
X63.02 Y76.85 I-0.2 J0 F480
G1 X62.82
X62.768 Z-3.493
X62.72 Z-3.473
X62.679 Z-3.441
X62.647 Z-3.4
X62.627 Z-3.352
X62.62 Z-3.3
G0 Z5
X18.68 Y76.55
Z2
G1 Z-0.675 F60
X18.685 Y76.546 Z-0.727
X18.701 Y76.534 Z-0.775
X18.727 Y76.515 Z-0.816
X18.76 Y76.49 Z-0.848
X18.799 Y76.461 Z-0.868
X18.84 Y76.43 Z-0.875
X19 Y76.31 F120
G3 X19.28 Y76.35 I0.12 J0.16
X18.48 Y76.95 I-0.4 J0.3 F240
X19.28 Y76.35 I0.4 J-0.3
X19.24 Y76.63 I-0.16 J0.12 F480
G1 X19.08 Y76.75
X19.039 Y76.781 Z-0.868
X19 Y76.81 Z-0.848
X18.967 Y76.835 Z-0.816
X18.941 Y76.854 Z-0.775
X18.925 Y76.866 Z-0.727
X18.92 Y76.87 Z-0.675
X18.68 Y76.55 F240
Z-1.55 F60
X18.685 Y76.546 Z-1.602
X18.701 Y76.534 Z-1.65
X18.727 Y76.515 Z-1.691
X18.76 Y76.49 Z-1.723
X18.799 Y76.461 Z-1.743
X18.84 Y76.43 Z-1.75
X19 Y76.31 F120
G3 X19.28 Y76.35 I0.12 J0.16
X18.48 Y76.95 I-0.4 J0.3 F240
X19.28 Y76.35 I0.4 J-0.3
X19.24 Y76.63 I-0.16 J0.12 F480
G1 X19.08 Y76.75
X19.039 Y76.781 Z-1.743
X19 Y76.81 Z-1.723
X18.967 Y76.835 Z-1.691
X18.941 Y76.854 Z-1.65
X18.925 Y76.866 Z-1.602
X18.92 Y76.87 Z-1.55
X18.68 Y76.55 F240
Z-2.425 F60
X18.685 Y76.546 Z-2.477
X18.701 Y76.534 Z-2.525
X18.727 Y76.515 Z-2.566
X18.76 Y76.49 Z-2.598
X18.799 Y76.461 Z-2.618
X18.84 Y76.43 Z-2.625
X19 Y76.31 F120
G3 X19.28 Y76.35 I0.12 J0.16
X18.48 Y76.95 I-0.4 J0.3 F240
X19.28 Y76.35 I0.4 J-0.3
X19.24 Y76.63 I-0.16 J0.12 F480
G1 X19.08 Y76.75
X19.039 Y76.781 Z-2.618
X19 Y76.81 Z-2.598
X18.967 Y76.835 Z-2.566
X18.941 Y76.854 Z-2.525
X18.925 Y76.866 Z-2.477
X18.92 Y76.87 Z-2.425
X18.68 Y76.55 F240
Z-3.3 F60
X18.685 Y76.546 Z-3.352
X18.701 Y76.534 Z-3.4
X18.727 Y76.515 Z-3.441
X18.76 Y76.49 Z-3.473
X18.799 Y76.461 Z-3.493
X18.84 Y76.43 Z-3.5
X19 Y76.31 F120
G3 X19.28 Y76.35 I0.12 J0.16
X18.48 Y76.95 I-0.4 J0.3 F240
X19.28 Y76.35 I0.4 J-0.3
X19.24 Y76.63 I-0.16 J0.12 F480
G1 X19.08 Y76.75
X19.039 Y76.781 Z-3.493
X19 Y76.81 Z-3.473
X18.967 Y76.835 Z-3.441
X18.941 Y76.854 Z-3.4
X18.925 Y76.866 Z-3.352
X18.92 Y76.87 Z-3.3
G0 Z5
X3.72 Y3.1
Z2
G1 Z-0.675 F60
X3.725 Y3.096 Z-0.727
X3.741 Y3.084 Z-0.775
X3.767 Y3.065 Z-0.816
X3.8 Y3.04 Z-0.848
X3.839 Y3.011 Z-0.868
X3.88 Y2.98 Z-0.875
X4.04 Y2.86 F120
G3 X4.32 Y2.9 I0.12 J0.16
X3.52 Y3.5 I-0.4 J0.3 F240
X4.32 Y2.9 I0.4 J-0.3
X4.28 Y3.18 I-0.16 J0.12 F480
G1 X4.12 Y3.3
X4.079 Y3.331 Z-0.868
X4.04 Y3.36 Z-0.848
X4.007 Y3.385 Z-0.816
X3.981 Y3.404 Z-0.775
X3.965 Y3.416 Z-0.727
X3.96 Y3.42 Z-0.675
X3.72 Y3.1 F240
Z-1.55 F60
X3.725 Y3.096 Z-1.602
X3.741 Y3.084 Z-1.65
X3.767 Y3.065 Z-1.691
X3.8 Y3.04 Z-1.723
X3.839 Y3.011 Z-1.743
X3.88 Y2.98 Z-1.75
X4.04 Y2.86 F120
G3 X4.32 Y2.9 I0.12 J0.16
X3.52 Y3.5 I-0.4 J0.3 F240
X4.32 Y2.9 I0.4 J-0.3
X4.28 Y3.18 I-0.16 J0.12 F480
G1 X4.12 Y3.3
X4.079 Y3.331 Z-1.743
X4.04 Y3.36 Z-1.723
X4.007 Y3.385 Z-1.691
X3.981 Y3.404 Z-1.65
X3.965 Y3.416 Z-1.602
X3.96 Y3.42 Z-1.55
X3.72 Y3.1 F240
Z-2.425 F60
X3.725 Y3.096 Z-2.477
X3.741 Y3.084 Z-2.525
X3.767 Y3.065 Z-2.566
X3.8 Y3.04 Z-2.598
X3.839 Y3.011 Z-2.618
X3.88 Y2.98 Z-2.625
X4.04 Y2.86 F120
G3 X4.32 Y2.9 I0.12 J0.16
X3.52 Y3.5 I-0.4 J0.3 F240
X4.32 Y2.9 I0.4 J-0.3
X4.28 Y3.18 I-0.16 J0.12 F480
G1 X4.12 Y3.3
X4.079 Y3.331 Z-2.618
X4.04 Y3.36 Z-2.598
X4.007 Y3.385 Z-2.566
X3.981 Y3.404 Z-2.525
X3.965 Y3.416 Z-2.477
X3.96 Y3.42 Z-2.425
X3.72 Y3.1 F240
Z-3.3 F60
X3.725 Y3.096 Z-3.352
X3.741 Y3.084 Z-3.4
X3.767 Y3.065 Z-3.441
X3.8 Y3.04 Z-3.473
X3.839 Y3.011 Z-3.493
X3.88 Y2.98 Z-3.5
X4.04 Y2.86 F120
G3 X4.32 Y2.9 I0.12 J0.16
X3.52 Y3.5 I-0.4 J0.3 F240
X4.32 Y2.9 I0.4 J-0.3
X4.28 Y3.18 I-0.16 J0.12 F480
G1 X4.12 Y3.3
X4.079 Y3.331 Z-3.493
X4.04 Y3.36 Z-3.473
X4.007 Y3.385 Z-3.441
X3.981 Y3.404 Z-3.4
X3.965 Y3.416 Z-3.352
X3.96 Y3.42 Z-3.3
G0 Z5
X77.58 Y3
Z2
G1 Z-0.675 F60
X77.587 Z-0.727
X77.607 Z-0.775
X77.639 Z-0.816
X77.68 Z-0.848
X77.728 Z-0.868
X77.78 Z-0.875
X77.98 F120
G3 X78.18 Y3.2 I0 J0.2
X77.18 I-0.5 J0 F240
X78.18 I0.5 J0
X77.98 Y3.4 I-0.2 J0 F480
G1 X77.78
X77.728 Z-0.868
X77.68 Z-0.848
X77.639 Z-0.816
X77.607 Z-0.775
X77.587 Z-0.727
X77.58 Z-0.675
Y3 F240
Z-1.55 F60
X77.587 Z-1.602
X77.607 Z-1.65
X77.639 Z-1.691
X77.68 Z-1.723
X77.728 Z-1.743
X77.78 Z-1.75
X77.98 F120
G3 X78.18 Y3.2 I0 J0.2
X77.18 I-0.5 J0 F240
X78.18 I0.5 J0
X77.98 Y3.4 I-0.2 J0 F480
G1 X77.78
X77.728 Z-1.743
X77.68 Z-1.723
X77.639 Z-1.691
X77.607 Z-1.65
X77.587 Z-1.602
X77.58 Z-1.55
Y3 F240
Z-2.425 F60
X77.587 Z-2.477
X77.607 Z-2.525
X77.639 Z-2.566
X77.68 Z-2.598
X77.728 Z-2.618
X77.78 Z-2.625
X77.98 F120
G3 X78.18 Y3.2 I0 J0.2
X77.18 I-0.5 J0 F240
X78.18 I0.5 J0
X77.98 Y3.4 I-0.2 J0 F480
G1 X77.78
X77.728 Z-2.618
X77.68 Z-2.598
X77.639 Z-2.566
X77.607 Z-2.525
X77.587 Z-2.477
X77.58 Z-2.425
Y3 F240
Z-3.3 F60
X77.587 Z-3.352
X77.607 Z-3.4
X77.639 Z-3.441
X77.68 Z-3.473
X77.728 Z-3.493
X77.78 Z-3.5
X77.98 F120
G3 X78.18 Y3.2 I0 J0.2
X77.18 I-0.5 J0 F240
X78.18 I0.5 J0
X77.98 Y3.4 I-0.2 J0 F480
G1 X77.78
X77.728 Z-3.493
X77.68 Z-3.473
X77.639 Z-3.441
X77.607 Z-3.4
X77.587 Z-3.352
X77.58 Z-3.3
G0 Z15

M9
M30
