(MILL 2MM HOLES)
(T11  D=2 CR=0 - ZMIN=-3.5 - FLAT END MILL)
G90 G94 G91.1 G40 G49 G17
G21

(MILL 2MM INSIDE CONTOURS)
M5
M9
T11
(DIAMOND OR SPIRAL)
S16000 M3
G54
M8
G0 X29.513 Y30.21
G43 Z15 H1
Z2
G1 Z-0.675 F60
X29.508 Y30.214 Z-0.727
X29.492 Y30.226 Z-0.775
X29.468 Y30.246 Z-0.816
X29.435 Y30.272 Z-0.848
X29.398 Y30.302 Z-0.868
X29.357 Y30.335 Z-0.875
X29.201 Y30.46 F120
G3 X28.92 Y30.428 I-0.125 J-0.156
G1 X9.124 Y5.7 F240
X72.476
X40.8 Y45.268
X28.92 Y30.428
G3 X28.951 Y30.147 I0.156 J-0.125 F480
G1 X29.107 Y30.022
X29.148 Y29.99 Z-0.868
X29.185 Y29.96 Z-0.848
X29.218 Y29.934 Z-0.816
X29.242 Y29.914 Z-0.775
X29.258 Y29.902 Z-0.727
X29.263 Y29.897 Z-0.675
X29.513 Y30.21 F240
Z-1.55 F60
X29.508 Y30.214 Z-1.602
X29.492 Y30.226 Z-1.65
X29.468 Y30.246 Z-1.691
X29.435 Y30.272 Z-1.723
X29.398 Y30.302 Z-1.743
X29.357 Y30.335 Z-1.75
X29.201 Y30.46 F120
G3 X28.92 Y30.428 I-0.125 J-0.156
G1 X9.124 Y5.7 F240
X72.476
X40.8 Y45.268
X28.92 Y30.428
G3 X28.951 Y30.147 I0.156 J-0.125 F480
G1 X29.107 Y30.022
X29.148 Y29.99 Z-1.743
X29.185 Y29.96 Z-1.723
X29.218 Y29.934 Z-1.691
X29.242 Y29.914 Z-1.65
X29.258 Y29.902 Z-1.602
X29.263 Y29.897 Z-1.55
X29.513 Y30.21 F240
Z-2.425 F60
X29.508 Y30.214 Z-2.477
X29.492 Y30.226 Z-2.525
X29.468 Y30.246 Z-2.566
X29.435 Y30.272 Z-2.598
X29.398 Y30.302 Z-2.618
X29.357 Y30.335 Z-2.625
X29.201 Y30.46 F120
G3 X28.92 Y30.428 I-0.125 J-0.156
G1 X9.124 Y5.7 F240
X72.476
X40.8 Y45.268
X28.92 Y30.428
G3 X28.951 Y30.147 I0.156 J-0.125 F480
G1 X29.107 Y30.022
X29.148 Y29.99 Z-2.618
X29.185 Y29.96 Z-2.598
X29.218 Y29.934 Z-2.566
X29.242 Y29.914 Z-2.525
X29.258 Y29.902 Z-2.477
X29.263 Y29.897 Z-2.425
X29.513 Y30.21 F240
Z-3.3 F60
X29.508 Y30.214 Z-3.352
X29.492 Y30.226 Z-3.4
X29.468 Y30.246 Z-3.441
X29.435 Y30.272 Z-3.473
X29.398 Y30.302 Z-3.493
X29.357 Y30.335 Z-3.5
X29.201 Y30.46 F120
G3 X28.92 Y30.428 I-0.125 J-0.156
G1 X9.124 Y5.7 F240
X72.476
X40.8 Y45.268
X28.92 Y30.428
G3 X28.951 Y30.147 I0.156 J-0.125 F480
G1 X29.107 Y30.022
X29.148 Y29.99 Z-3.493
X29.185 Y29.96 Z-3.473
X29.218 Y29.934 Z-3.441
X29.242 Y29.914 Z-3.4
X29.258 Y29.902 Z-3.352
X29.263 Y29.897 Z-3.3
G0 Z5
X19.587 Y62.55
Z2
G1 Z-0.675 F60
Y62.557 Z-0.727
Y62.577 Z-0.775
Y62.609 Z-0.816
Y62.65 Z-0.848
Y62.698 Z-0.868
Y62.75 Z-0.875
Y62.95 F120
G3 X19.387 Y63.15 I-0.2 J0
G1 X5.3 F240
Y8.924
X37.598 Y49.269
X26.485 Y63.15
X19.387
G3 X19.187 Y62.95 I0 J-0.2 F480
G1 Y62.75
Y62.698 Z-0.868
Y62.65 Z-0.848
Y62.609 Z-0.816
Y62.577 Z-0.775
Y62.557 Z-0.727
Y62.55 Z-0.675
X19.587 F240
Z-1.55 F60
Y62.557 Z-1.602
Y62.577 Z-1.65
Y62.609 Z-1.691
Y62.65 Z-1.723
Y62.698 Z-1.743
Y62.75 Z-1.75
Y62.95 F120
G3 X19.387 Y63.15 I-0.2 J0
G1 X5.3 F240
Y8.924
X37.598 Y49.269
X26.485 Y63.15
X19.387
G3 X19.187 Y62.95 I0 J-0.2 F480
G1 Y62.75
Y62.698 Z-1.743
Y62.65 Z-1.723
Y62.609 Z-1.691
Y62.577 Z-1.65
Y62.557 Z-1.602
Y62.55 Z-1.55
X19.587 F240
Z-2.425 F60
Y62.557 Z-2.477
Y62.577 Z-2.525
Y62.609 Z-2.566
Y62.65 Z-2.598
Y62.698 Z-2.618
Y62.75 Z-2.625
Y62.95 F120
G3 X19.387 Y63.15 I-0.2 J0
G1 X5.3 F240
Y8.924
X37.598 Y49.269
X26.485 Y63.15
X19.387
G3 X19.187 Y62.95 I0 J-0.2 F480
G1 Y62.75
Y62.698 Z-2.618
Y62.65 Z-2.598
Y62.609 Z-2.566
Y62.577 Z-2.525
Y62.557 Z-2.477
Y62.55 Z-2.425
X19.587 F240
Z-3.3 F60
Y62.557 Z-3.352
Y62.577 Z-3.4
Y62.609 Z-3.441
Y62.65 Z-3.473
Y62.698 Z-3.493
Y62.75 Z-3.5
Y62.95 F120
G3 X19.387 Y63.15 I-0.2 J0
G1 X5.3 F240
Y8.924
X37.598 Y49.269
X26.485 Y63.15
X19.387
G3 X19.187 Y62.95 I0 J-0.2 F480
G1 Y62.75
Y62.698 Z-3.493
Y62.65 Z-3.473
Y62.609 Z-3.441
Y62.577 Z-3.4
Y62.557 Z-3.352
Y62.55 Z-3.3
G0 Z5
X75.7 Y48.863
Z2
G1 Z-0.675 F60
X75.707 Z-0.727
X75.727 Z-0.775
X75.759 Z-0.816
X75.8 Z-0.848
X75.848 Z-0.868
X75.9 Z-0.875
X76.1 F120
G3 X76.3 Y49.063 I0 J0.2
G1 Y63.15 F240
X55.115
X44.002 Y49.269
X76.3 Y8.924
Y49.063
G3 X76.1 Y49.263 I-0.2 J0 F480
G1 X75.9
X75.848 Z-0.868
X75.8 Z-0.848
X75.759 Z-0.816
X75.727 Z-0.775
X75.707 Z-0.727
X75.7 Z-0.675
Y48.863 F240
Z-1.55 F60
X75.707 Z-1.602
X75.727 Z-1.65
X75.759 Z-1.691
X75.8 Z-1.723
X75.848 Z-1.743
X75.9 Z-1.75
X76.1 F120
G3 X76.3 Y49.063 I0 J0.2
G1 Y63.15 F240
X55.115
X44.002 Y49.269
X76.3 Y8.924
Y49.063
G3 X76.1 Y49.263 I-0.2 J0 F480
G1 X75.9
X75.848 Z-1.743
X75.8 Z-1.723
X75.759 Z-1.691
X75.727 Z-1.65
X75.707 Z-1.602
X75.7 Z-1.55
Y48.863 F240
Z-2.425 F60
X75.707 Z-2.477
X75.727 Z-2.525
X75.759 Z-2.566
X75.8 Z-2.598
X75.848 Z-2.618
X75.9 Z-2.625
X76.1 F120
G3 X76.3 Y49.063 I0 J0.2
G1 Y63.15 F240
X55.115
X44.002 Y49.269
X76.3 Y8.924
Y49.063
G3 X76.1 Y49.263 I-0.2 J0 F480
G1 X75.9
X75.848 Z-2.618
X75.8 Z-2.598
X75.759 Z-2.566
X75.727 Z-2.525
X75.707 Z-2.477
X75.7 Z-2.425
Y48.863 F240
Z-3.3 F60
X75.707 Z-3.352
X75.727 Z-3.4
X75.759 Z-3.441
X75.8 Z-3.473
X75.848 Z-3.493
X75.9 Z-3.5
X76.1 F120
G3 X76.3 Y49.063 I0 J0.2
G1 Y63.15 F240
X55.115
X44.002 Y49.269
X76.3 Y8.924
Y49.063
G3 X76.1 Y49.263 I-0.2 J0 F480
G1 X75.9
X75.848 Z-3.493
X75.8 Z-3.473
X75.759 Z-3.441
X75.727 Z-3.4
X75.707 Z-3.352
X75.7 Z-3.3
G0 Z15

(MILL 2MM OUTSIDE CONTOURS)
M8
G0 X-0.3 Y39.725
Z15
Z2
G1 Z-0.675 F60
X-0.293 Z-0.727
X-0.273 Z-0.775
X-0.241 Z-0.816
X-0.2 Z-0.848
X-0.152 Z-0.868
X-0.1 Z-0.875
X0.1 F120
G3 X0.3 Y39.925 I0 J0.2
G1 Y62.15 F240
G2 X1.3 Y63.15 I1 J0
G1 X0
G2 X-1 Y64.15 I0 J1
G1 Y67.15
G2 X0 Y68.15 I1 J0
G1 X16.38
Y73.275
G2 X18.88 Y80.85 I2.5 J3.375
X21.38 Y73.275 I0 J-4.2
G1 Y68.15
X27.926
G2 X29.488 Y67.4 I0 J-2
G1 X40.8 Y53.269
X52.112 Y67.4
G2 X53.674 Y68.15 I1.561 J-1.25
G1 X60.22
Y73.275
G2 X62.72 Y80.85 I2.5 J3.375
X65.22 Y73.275 I0 J-4.2
G1 Y68.15
X81.6
G2 X82.6 Y67.15 I0 J-1
G1 Y64.15
G2 X81.6 Y63.15 I-1 J0
G1 X80.3
G2 X81.3 Y62.15 I0 J-1
G1 Y6.7
G2 X80.3 Y5.7 I-1 J0
G1 X81.6
G2 X82.6 Y4.7 I0 J-1
G1 Y1.7
G2 X81.6 Y0.7 I-1 J0
G1 X81.055
G2 X74.305 I-3.375 J2.5
G1 X7.295
G2 X0.545 I-3.375 J2.5
G1 X0
G2 X-1 Y1.7 I0 J1
G1 Y4.7
G2 X0 Y5.7 I1 J0
G1 X1.3
G2 X0.3 Y6.7 I0 J1
G1 Y39.925
G3 X0.1 Y40.125 I-0.2 J0 F480
G1 X-0.1
X-0.152 Z-0.868
X-0.2 Z-0.848
X-0.241 Z-0.816
X-0.273 Z-0.775
X-0.293 Z-0.727
X-0.3 Z-0.675
Y39.725 F240
Z-1.55 F60
X-0.293 Z-1.602
X-0.273 Z-1.65
X-0.241 Z-1.691
X-0.2 Z-1.723
X-0.152 Z-1.743
X-0.1 Z-1.75
X0.1 F120
G3 X0.3 Y39.925 I0 J0.2
G1 Y62.15 F240
G2 X1.3 Y63.15 I1 J0
G1 X0
G2 X-1 Y64.15 I0 J1
G1 Y67.15
G2 X0 Y68.15 I1 J0
G1 X16.38
Y73.275
G2 X18.88 Y80.85 I2.5 J3.375
X21.38 Y73.275 I0 J-4.2
G1 Y68.15
X27.926
G2 X29.488 Y67.4 I0 J-2
G1 X40.8 Y53.269
X52.112 Y67.4
G2 X53.674 Y68.15 I1.561 J-1.25
G1 X60.22
Y73.275
G2 X62.72 Y80.85 I2.5 J3.375
X65.22 Y73.275 I0 J-4.2
G1 Y68.15
X81.6
G2 X82.6 Y67.15 I0 J-1
G1 Y64.15
G2 X81.6 Y63.15 I-1 J0
G1 X80.3
G2 X81.3 Y62.15 I0 J-1
G1 Y6.7
G2 X80.3 Y5.7 I-1 J0
G1 X81.6
G2 X82.6 Y4.7 I0 J-1
G1 Y1.7
G2 X81.6 Y0.7 I-1 J0
G1 X81.055
G2 X74.305 I-3.375 J2.5
G1 X7.295
G2 X0.545 I-3.375 J2.5
G1 X0
G2 X-1 Y1.7 I0 J1
G1 Y4.7
G2 X0 Y5.7 I1 J0
G1 X1.3
G2 X0.3 Y6.7 I0 J1
G1 Y39.925
G3 X0.1 Y40.125 I-0.2 J0 F480
G1 X-0.1
X-0.152 Z-1.743
X-0.2 Z-1.723
X-0.241 Z-1.691
X-0.273 Z-1.65
X-0.293 Z-1.602
X-0.3 Z-1.55
Y39.725 F240
Z-2.425 F60
X-0.293 Z-2.477
X-0.273 Z-2.525
X-0.241 Z-2.566
X-0.2 Z-2.598
X-0.152 Z-2.618
X-0.1 Z-2.625
X0.1 F120
G3 X0.3 Y39.925 I0 J0.2
G1 Y62.15 F240
G2 X1.3 Y63.15 I1 J0
G1 X0
G2 X-1 Y64.15 I0 J1
G1 Y67.15
G2 X0 Y68.15 I1 J0
G1 X16.38
Y73.275
G2 X18.88 Y80.85 I2.5 J3.375
X21.38 Y73.275 I0 J-4.2
G1 Y68.15
X27.926
G2 X29.488 Y67.4 I0 J-2
G1 X40.8 Y53.269
X52.112 Y67.4
G2 X53.674 Y68.15 I1.561 J-1.25
G1 X60.22
Y73.275
G2 X62.72 Y80.85 I2.5 J3.375
X65.22 Y73.275 I0 J-4.2
G1 Y68.15
X81.6
G2 X82.6 Y67.15 I0 J-1
G1 Y64.15
G2 X81.6 Y63.15 I-1 J0
G1 X80.3
G2 X81.3 Y62.15 I0 J-1
G1 Y6.7
G2 X80.3 Y5.7 I-1 J0
G1 X81.6
G2 X82.6 Y4.7 I0 J-1
G1 Y1.7
G2 X81.6 Y0.7 I-1 J0
G1 X81.055
G2 X74.305 I-3.375 J2.5
G1 X7.295
G2 X0.545 I-3.375 J2.5
G1 X0
G2 X-1 Y1.7 I0 J1
G1 Y4.7
G2 X0 Y5.7 I1 J0
G1 X1.3
G2 X0.3 Y6.7 I0 J1
G1 Y39.925
G3 X0.1 Y40.125 I-0.2 J0 F480
G1 X-0.1
X-0.152 Z-2.618
X-0.2 Z-2.598
X-0.241 Z-2.566
X-0.273 Z-2.525
X-0.293 Z-2.477
X-0.3 Z-2.425
Y39.725 F240
Z-3.3 F60
X-0.293 Z-3.352
X-0.273 Z-3.4
X-0.241 Z-3.441
X-0.2 Z-3.473
X-0.152 Z-3.493
X-0.1 Z-3.5
X0.1 F120
G3 X0.3 Y39.925 I0 J0.2
G1 Y62.15 F240
G2 X1.3 Y63.15 I1 J0
G1 X0
G2 X-1 Y64.15 I0 J1
G1 Y67.15
G2 X0 Y68.15 I1 J0
G1 X16.38
Y73.275
G2 X18.88 Y80.85 I2.5 J3.375
X21.38 Y73.275 I0 J-4.2
G1 Y68.15
X27.926
G2 X29.488 Y67.4 I0 J-2
G1 X40.8 Y53.269
X52.112 Y67.4
G2 X53.674 Y68.15 I1.561 J-1.25
G1 X60.22
Y73.275
G2 X62.72 Y80.85 I2.5 J3.375
X65.22 Y73.275 I0 J-4.2
G1 Y68.15
X81.6
G2 X82.6 Y67.15 I0 J-1
G1 Y64.15
G2 X81.6 Y63.15 I-1 J0
G1 X80.3
G2 X81.3 Y62.15 I0 J-1
G1 Y6.7
G2 X80.3 Y5.7 I-1 J0
G1 X81.6
G2 X82.6 Y4.7 I0 J-1
G1 Y1.7
G2 X81.6 Y0.7 I-1 J0
G1 X81.055
G2 X74.305 I-3.375 J2.5
G1 X7.295
G2 X0.545 I-3.375 J2.5
G1 X0
G2 X-1 Y1.7 I0 J1
G1 Y4.7
G2 X0 Y5.7 I1 J0
G1 X1.3
G2 X0.3 Y6.7 I0 J1
G1 Y39.925
G3 X0.1 Y40.125 I-0.2 J0 F480
G1 X-0.1
X-0.152 Z-3.493
X-0.2 Z-3.473
X-0.241 Z-3.441
X-0.273 Z-3.4
X-0.293 Z-3.352
X-0.3 Z-3.3
G0 Z15

M9
M30
