(2MM FLAT HOLES)
(T11  D=2 CR=0 - ZMIN=-4.6 - FLAT END MILL)
G90 G94 G91.1 G40 G49 G17
G21

(2MM FLAT HOLES)
M5
M9
T11
(DIAMOND OR SPIRAL)
S20000 M3
G54
M8
G0 X-21.412 Y21.191
G43 Z15 H1
Z2
G1 Z0.1 F100
G3 X-22.588 Y22.809 Z-0.15 I-0.588 J0.809 F1000
X-21.412 Y21.191 Z-0.4 I0.588 J-0.809
X-22.588 Y22.809 Z-0.65 I-0.588 J0.809
X-21.412 Y21.191 Z-0.9 I0.588 J-0.809
X-22.588 Y22.809 Z-1.15 I-0.588 J0.809
X-21.412 Y21.191 Z-1.4 I0.588 J-0.809
X-22.588 Y22.809 Z-1.65 I-0.588 J0.809
X-21.412 Y21.191 Z-1.9 I0.588 J-0.809
X-22.588 Y22.809 Z-2.15 I-0.588 J0.809
X-21.412 Y21.191 Z-2.4 I0.588 J-0.809
X-22.588 Y22.809 Z-2.65 I-0.588 J0.809
X-21.412 Y21.191 Z-2.9 I0.588 J-0.809
X-22.588 Y22.809 Z-3.15 I-0.588 J0.809
X-21.412 Y21.191 Z-3.4 I0.588 J-0.809
X-22.588 Y22.809 Z-3.65 I-0.588 J0.809
X-21.412 Y21.191 Z-3.9 I0.588 J-0.809
X-22.588 Y22.809 Z-4.15 I-0.588 J0.809
X-21.412 Y21.191 Z-4.4 I0.588 J-0.809
X-22 Y23 Z-4.6 I-0.588 J0.809
Y21 I0 J-1
Y23 I0 J1
G0 Z5
X-21.762 Y28.427
Z2
G1 Z0.1 F100
G3 X-22.238 Y28.273 Z0.031 I-0.238 J-0.077 F1000
X-21.762 Y28.427 Z-0.037 I0.238 J0.077
X-22.238 Y28.273 Z-0.106 I-0.238 J-0.077
X-21.762 Y28.427 Z-0.175 I0.238 J0.077
X-22.238 Y28.273 Z-0.244 I-0.238 J-0.077
X-21.762 Y28.427 Z-0.312 I0.238 J0.077
X-22.238 Y28.273 Z-0.381 I-0.238 J-0.077
X-21.762 Y28.427 Z-0.45 I0.238 J0.077
X-22.238 Y28.273 Z-0.518 I-0.238 J-0.077
X-21.762 Y28.427 Z-0.587 I0.238 J0.077
X-22.238 Y28.273 Z-0.656 I-0.238 J-0.077
X-21.762 Y28.427 Z-0.725 I0.238 J0.077
X-22.238 Y28.273 Z-0.793 I-0.238 J-0.077
X-21.762 Y28.427 Z-0.862 I0.238 J0.077
X-22.238 Y28.273 Z-0.931 I-0.238 J-0.077
X-21.762 Y28.427 Z-0.999 I0.238 J0.077
X-22.238 Y28.273 Z-1.068 I-0.238 J-0.077
X-21.762 Y28.427 Z-1.137 I0.238 J0.077
X-22.238 Y28.273 Z-1.206 I-0.238 J-0.077
X-21.762 Y28.427 Z-1.274 I0.238 J0.077
X-22.238 Y28.273 Z-1.343 I-0.238 J-0.077
X-21.762 Y28.427 Z-1.412 I0.238 J0.077
X-22.238 Y28.273 Z-1.48 I-0.238 J-0.077
X-21.762 Y28.427 Z-1.549 I0.238 J0.077
X-22.238 Y28.273 Z-1.618 I-0.238 J-0.077
X-21.762 Y28.427 Z-1.687 I0.238 J0.077
X-22.238 Y28.273 Z-1.755 I-0.238 J-0.077
X-21.762 Y28.427 Z-1.824 I0.238 J0.077
X-22.238 Y28.273 Z-1.893 I-0.238 J-0.077
X-21.762 Y28.427 Z-1.961 I0.238 J0.077
X-22.238 Y28.273 Z-2.03 I-0.238 J-0.077
X-21.762 Y28.427 Z-2.099 I0.238 J0.077
X-22.238 Y28.273 Z-2.168 I-0.238 J-0.077
X-21.762 Y28.427 Z-2.236 I0.238 J0.077
X-22.238 Y28.273 Z-2.305 I-0.238 J-0.077
X-21.762 Y28.427 Z-2.374 I0.238 J0.077
X-22.238 Y28.273 Z-2.442 I-0.238 J-0.077
X-21.762 Y28.427 Z-2.511 I0.238 J0.077
X-22.238 Y28.273 Z-2.58 I-0.238 J-0.077
X-21.762 Y28.427 Z-2.649 I0.238 J0.077
X-22.238 Y28.273 Z-2.717 I-0.238 J-0.077
X-21.762 Y28.427 Z-2.786 I0.238 J0.077
X-22.238 Y28.273 Z-2.855 I-0.238 J-0.077
X-21.762 Y28.427 Z-2.923 I0.238 J0.077
X-22.238 Y28.273 Z-2.992 I-0.238 J-0.077
X-21.762 Y28.427 Z-3.061 I0.238 J0.077
X-22.238 Y28.273 Z-3.13 I-0.238 J-0.077
X-21.762 Y28.427 Z-3.198 I0.238 J0.077
X-22.238 Y28.273 Z-3.267 I-0.238 J-0.077
X-21.762 Y28.427 Z-3.336 I0.238 J0.077
X-22.238 Y28.273 Z-3.404 I-0.238 J-0.077
X-21.762 Y28.427 Z-3.473 I0.238 J0.077
X-22.238 Y28.273 Z-3.542 I-0.238 J-0.077
X-21.762 Y28.427 Z-3.611 I0.238 J0.077
X-22.238 Y28.273 Z-3.679 I-0.238 J-0.077
X-21.762 Y28.427 Z-3.748 I0.238 J0.077
X-22.238 Y28.273 Z-3.817 I-0.238 J-0.077
X-21.762 Y28.427 Z-3.885 I0.238 J0.077
X-22.238 Y28.273 Z-3.954 I-0.238 J-0.077
X-21.762 Y28.427 Z-4.023 I0.238 J0.077
X-22.238 Y28.273 Z-4.092 I-0.238 J-0.077
X-21.762 Y28.427 Z-4.16 I0.238 J0.077
X-22.238 Y28.273 Z-4.229 I-0.238 J-0.077
X-21.762 Y28.427 Z-4.298 I0.238 J0.077
X-22.238 Y28.273 Z-4.366 I-0.238 J-0.077
X-21.762 Y28.427 Z-4.435 I0.238 J0.077
X-22.238 Y28.273 Z-4.504 I-0.238 J-0.077
X-21.762 Y28.427 Z-4.573 I0.238 J0.077
X-22 Y28.6 Z-4.6 I-0.238 J-0.077
Y28.1 I0 J-0.25
Y28.6 I0 J0.25
G0 Z5
X-15.412 Y22.077
Z2
G1 Z0.1 F100
G3 X-15.888 Y21.923 Z0.031 I-0.238 J-0.077 F1000
X-15.412 Y22.077 Z-0.037 I0.238 J0.077
X-15.888 Y21.923 Z-0.106 I-0.238 J-0.077
X-15.412 Y22.077 Z-0.175 I0.238 J0.077
X-15.888 Y21.923 Z-0.244 I-0.238 J-0.077
X-15.412 Y22.077 Z-0.312 I0.238 J0.077
X-15.888 Y21.923 Z-0.381 I-0.238 J-0.077
X-15.412 Y22.077 Z-0.45 I0.238 J0.077
X-15.888 Y21.923 Z-0.518 I-0.238 J-0.077
X-15.412 Y22.077 Z-0.587 I0.238 J0.077
X-15.888 Y21.923 Z-0.656 I-0.238 J-0.077
X-15.412 Y22.077 Z-0.725 I0.238 J0.077
X-15.888 Y21.923 Z-0.793 I-0.238 J-0.077
X-15.412 Y22.077 Z-0.862 I0.238 J0.077
X-15.888 Y21.923 Z-0.931 I-0.238 J-0.077
X-15.412 Y22.077 Z-0.999 I0.238 J0.077
X-15.888 Y21.923 Z-1.068 I-0.238 J-0.077
X-15.412 Y22.077 Z-1.137 I0.238 J0.077
X-15.888 Y21.923 Z-1.206 I-0.238 J-0.077
X-15.412 Y22.077 Z-1.274 I0.238 J0.077
X-15.888 Y21.923 Z-1.343 I-0.238 J-0.077
X-15.412 Y22.077 Z-1.412 I0.238 J0.077
X-15.888 Y21.923 Z-1.48 I-0.238 J-0.077
X-15.412 Y22.077 Z-1.549 I0.238 J0.077
X-15.888 Y21.923 Z-1.618 I-0.238 J-0.077
X-15.412 Y22.077 Z-1.687 I0.238 J0.077
X-15.888 Y21.923 Z-1.755 I-0.238 J-0.077
X-15.412 Y22.077 Z-1.824 I0.238 J0.077
X-15.888 Y21.923 Z-1.893 I-0.238 J-0.077
X-15.412 Y22.077 Z-1.961 I0.238 J0.077
X-15.888 Y21.923 Z-2.03 I-0.238 J-0.077
X-15.412 Y22.077 Z-2.099 I0.238 J0.077
X-15.888 Y21.923 Z-2.168 I-0.238 J-0.077
X-15.412 Y22.077 Z-2.236 I0.238 J0.077
X-15.888 Y21.923 Z-2.305 I-0.238 J-0.077
X-15.412 Y22.077 Z-2.374 I0.238 J0.077
X-15.888 Y21.923 Z-2.442 I-0.238 J-0.077
X-15.412 Y22.077 Z-2.511 I0.238 J0.077
X-15.888 Y21.923 Z-2.58 I-0.238 J-0.077
X-15.412 Y22.077 Z-2.649 I0.238 J0.077
X-15.888 Y21.923 Z-2.717 I-0.238 J-0.077
X-15.412 Y22.077 Z-2.786 I0.238 J0.077
X-15.888 Y21.923 Z-2.855 I-0.238 J-0.077
X-15.412 Y22.077 Z-2.923 I0.238 J0.077
X-15.888 Y21.923 Z-2.992 I-0.238 J-0.077
X-15.412 Y22.077 Z-3.061 I0.238 J0.077
X-15.888 Y21.923 Z-3.13 I-0.238 J-0.077
X-15.412 Y22.077 Z-3.198 I0.238 J0.077
X-15.888 Y21.923 Z-3.267 I-0.238 J-0.077
X-15.412 Y22.077 Z-3.336 I0.238 J0.077
X-15.888 Y21.923 Z-3.404 I-0.238 J-0.077
X-15.412 Y22.077 Z-3.473 I0.238 J0.077
X-15.888 Y21.923 Z-3.542 I-0.238 J-0.077
X-15.412 Y22.077 Z-3.611 I0.238 J0.077
X-15.888 Y21.923 Z-3.679 I-0.238 J-0.077
X-15.412 Y22.077 Z-3.748 I0.238 J0.077
X-15.888 Y21.923 Z-3.817 I-0.238 J-0.077
X-15.412 Y22.077 Z-3.885 I0.238 J0.077
X-15.888 Y21.923 Z-3.954 I-0.238 J-0.077
X-15.412 Y22.077 Z-4.023 I0.238 J0.077
X-15.888 Y21.923 Z-4.092 I-0.238 J-0.077
X-15.412 Y22.077 Z-4.16 I0.238 J0.077
X-15.888 Y21.923 Z-4.229 I-0.238 J-0.077
X-15.412 Y22.077 Z-4.298 I0.238 J0.077
X-15.888 Y21.923 Z-4.366 I-0.238 J-0.077
X-15.412 Y22.077 Z-4.435 I0.238 J0.077
X-15.888 Y21.923 Z-4.504 I-0.238 J-0.077
X-15.412 Y22.077 Z-4.573 I0.238 J0.077
X-15.65 Y22.25 Z-4.6 I-0.238 J-0.077
Y21.75 I0 J-0.25
Y22.25 I0 J0.25
G0 Z5
X-21.762 Y15.727
Z2
G1 Z0.1 F100
G3 X-22.238 Y15.573 Z0.031 I-0.238 J-0.077 F1000
X-21.762 Y15.727 Z-0.037 I0.238 J0.077
X-22.238 Y15.573 Z-0.106 I-0.238 J-0.077
X-21.762 Y15.727 Z-0.175 I0.238 J0.077
X-22.238 Y15.573 Z-0.244 I-0.238 J-0.077
X-21.762 Y15.727 Z-0.312 I0.238 J0.077
X-22.238 Y15.573 Z-0.381 I-0.238 J-0.077
X-21.762 Y15.727 Z-0.45 I0.238 J0.077
X-22.238 Y15.573 Z-0.518 I-0.238 J-0.077
X-21.762 Y15.727 Z-0.587 I0.238 J0.077
X-22.238 Y15.573 Z-0.656 I-0.238 J-0.077
X-21.762 Y15.727 Z-0.725 I0.238 J0.077
X-22.238 Y15.573 Z-0.793 I-0.238 J-0.077
X-21.762 Y15.727 Z-0.862 I0.238 J0.077
X-22.238 Y15.573 Z-0.931 I-0.238 J-0.077
X-21.762 Y15.727 Z-0.999 I0.238 J0.077
X-22.238 Y15.573 Z-1.068 I-0.238 J-0.077
X-21.762 Y15.727 Z-1.137 I0.238 J0.077
X-22.238 Y15.573 Z-1.206 I-0.238 J-0.077
X-21.762 Y15.727 Z-1.274 I0.238 J0.077
X-22.238 Y15.573 Z-1.343 I-0.238 J-0.077
X-21.762 Y15.727 Z-1.412 I0.238 J0.077
X-22.238 Y15.573 Z-1.48 I-0.238 J-0.077
X-21.762 Y15.727 Z-1.549 I0.238 J0.077
X-22.238 Y15.573 Z-1.618 I-0.238 J-0.077
X-21.762 Y15.727 Z-1.687 I0.238 J0.077
X-22.238 Y15.573 Z-1.755 I-0.238 J-0.077
X-21.762 Y15.727 Z-1.824 I0.238 J0.077
X-22.238 Y15.573 Z-1.893 I-0.238 J-0.077
X-21.762 Y15.727 Z-1.961 I0.238 J0.077
X-22.238 Y15.573 Z-2.03 I-0.238 J-0.077
X-21.762 Y15.727 Z-2.099 I0.238 J0.077
X-22.238 Y15.573 Z-2.168 I-0.238 J-0.077
X-21.762 Y15.727 Z-2.236 I0.238 J0.077
X-22.238 Y15.573 Z-2.305 I-0.238 J-0.077
X-21.762 Y15.727 Z-2.374 I0.238 J0.077
X-22.238 Y15.573 Z-2.442 I-0.238 J-0.077
X-21.762 Y15.727 Z-2.511 I0.238 J0.077
X-22.238 Y15.573 Z-2.58 I-0.238 J-0.077
X-21.762 Y15.727 Z-2.649 I0.238 J0.077
X-22.238 Y15.573 Z-2.717 I-0.238 J-0.077
X-21.762 Y15.727 Z-2.786 I0.238 J0.077
X-22.238 Y15.573 Z-2.855 I-0.238 J-0.077
X-21.762 Y15.727 Z-2.923 I0.238 J0.077
X-22.238 Y15.573 Z-2.992 I-0.238 J-0.077
X-21.762 Y15.727 Z-3.061 I0.238 J0.077
X-22.238 Y15.573 Z-3.13 I-0.238 J-0.077
X-21.762 Y15.727 Z-3.198 I0.238 J0.077
X-22.238 Y15.573 Z-3.267 I-0.238 J-0.077
X-21.762 Y15.727 Z-3.336 I0.238 J0.077
X-22.238 Y15.573 Z-3.404 I-0.238 J-0.077
X-21.762 Y15.727 Z-3.473 I0.238 J0.077
X-22.238 Y15.573 Z-3.542 I-0.238 J-0.077
X-21.762 Y15.727 Z-3.611 I0.238 J0.077
X-22.238 Y15.573 Z-3.679 I-0.238 J-0.077
X-21.762 Y15.727 Z-3.748 I0.238 J0.077
X-22.238 Y15.573 Z-3.817 I-0.238 J-0.077
X-21.762 Y15.727 Z-3.885 I0.238 J0.077
X-22.238 Y15.573 Z-3.954 I-0.238 J-0.077
X-21.762 Y15.727 Z-4.023 I0.238 J0.077
X-22.238 Y15.573 Z-4.092 I-0.238 J-0.077
X-21.762 Y15.727 Z-4.16 I0.238 J0.077
X-22.238 Y15.573 Z-4.229 I-0.238 J-0.077
X-21.762 Y15.727 Z-4.298 I0.238 J0.077
X-22.238 Y15.573 Z-4.366 I-0.238 J-0.077
X-21.762 Y15.727 Z-4.435 I0.238 J0.077
X-22.238 Y15.573 Z-4.504 I-0.238 J-0.077
X-21.762 Y15.727 Z-4.573 I0.238 J0.077
X-22 Y15.9 Z-4.6 I-0.238 J-0.077
Y15.4 I0 J-0.25
Y15.9 I0 J0.25
G0 Z5
X-28.112 Y22.077
Z2
G1 Z0.1 F100
G3 X-28.588 Y21.923 Z0.031 I-0.238 J-0.077 F1000
X-28.112 Y22.077 Z-0.037 I0.238 J0.077
X-28.588 Y21.923 Z-0.106 I-0.238 J-0.077
X-28.112 Y22.077 Z-0.175 I0.238 J0.077
X-28.588 Y21.923 Z-0.244 I-0.238 J-0.077
X-28.112 Y22.077 Z-0.312 I0.238 J0.077
X-28.588 Y21.923 Z-0.381 I-0.238 J-0.077
X-28.112 Y22.077 Z-0.45 I0.238 J0.077
X-28.588 Y21.923 Z-0.518 I-0.238 J-0.077
X-28.112 Y22.077 Z-0.587 I0.238 J0.077
X-28.588 Y21.923 Z-0.656 I-0.238 J-0.077
X-28.112 Y22.077 Z-0.725 I0.238 J0.077
X-28.588 Y21.923 Z-0.793 I-0.238 J-0.077
X-28.112 Y22.077 Z-0.862 I0.238 J0.077
X-28.588 Y21.923 Z-0.931 I-0.238 J-0.077
X-28.112 Y22.077 Z-0.999 I0.238 J0.077
X-28.588 Y21.923 Z-1.068 I-0.238 J-0.077
X-28.112 Y22.077 Z-1.137 I0.238 J0.077
X-28.588 Y21.923 Z-1.206 I-0.238 J-0.077
X-28.112 Y22.077 Z-1.274 I0.238 J0.077
X-28.588 Y21.923 Z-1.343 I-0.238 J-0.077
X-28.112 Y22.077 Z-1.412 I0.238 J0.077
X-28.588 Y21.923 Z-1.48 I-0.238 J-0.077
X-28.112 Y22.077 Z-1.549 I0.238 J0.077
X-28.588 Y21.923 Z-1.618 I-0.238 J-0.077
X-28.112 Y22.077 Z-1.687 I0.238 J0.077
X-28.588 Y21.923 Z-1.755 I-0.238 J-0.077
X-28.112 Y22.077 Z-1.824 I0.238 J0.077
X-28.588 Y21.923 Z-1.893 I-0.238 J-0.077
X-28.112 Y22.077 Z-1.961 I0.238 J0.077
X-28.588 Y21.923 Z-2.03 I-0.238 J-0.077
X-28.112 Y22.077 Z-2.099 I0.238 J0.077
X-28.588 Y21.923 Z-2.168 I-0.238 J-0.077
X-28.112 Y22.077 Z-2.236 I0.238 J0.077
X-28.588 Y21.923 Z-2.305 I-0.238 J-0.077
X-28.112 Y22.077 Z-2.374 I0.238 J0.077
X-28.588 Y21.923 Z-2.442 I-0.238 J-0.077
X-28.112 Y22.077 Z-2.511 I0.238 J0.077
X-28.588 Y21.923 Z-2.58 I-0.238 J-0.077
X-28.112 Y22.077 Z-2.649 I0.238 J0.077
X-28.588 Y21.923 Z-2.717 I-0.238 J-0.077
X-28.112 Y22.077 Z-2.786 I0.238 J0.077
X-28.588 Y21.923 Z-2.855 I-0.238 J-0.077
X-28.112 Y22.077 Z-2.923 I0.238 J0.077
X-28.588 Y21.923 Z-2.992 I-0.238 J-0.077
X-28.112 Y22.077 Z-3.061 I0.238 J0.077
X-28.588 Y21.923 Z-3.13 I-0.238 J-0.077
X-28.112 Y22.077 Z-3.198 I0.238 J0.077
X-28.588 Y21.923 Z-3.267 I-0.238 J-0.077
X-28.112 Y22.077 Z-3.336 I0.238 J0.077
X-28.588 Y21.923 Z-3.404 I-0.238 J-0.077
X-28.112 Y22.077 Z-3.473 I0.238 J0.077
X-28.588 Y21.923 Z-3.542 I-0.238 J-0.077
X-28.112 Y22.077 Z-3.611 I0.238 J0.077
X-28.588 Y21.923 Z-3.679 I-0.238 J-0.077
X-28.112 Y22.077 Z-3.748 I0.238 J0.077
X-28.588 Y21.923 Z-3.817 I-0.238 J-0.077
X-28.112 Y22.077 Z-3.885 I0.238 J0.077
X-28.588 Y21.923 Z-3.954 I-0.238 J-0.077
X-28.112 Y22.077 Z-4.023 I0.238 J0.077
X-28.588 Y21.923 Z-4.092 I-0.238 J-0.077
X-28.112 Y22.077 Z-4.16 I0.238 J0.077
X-28.588 Y21.923 Z-4.229 I-0.238 J-0.077
X-28.112 Y22.077 Z-4.298 I0.238 J0.077
X-28.588 Y21.923 Z-4.366 I-0.238 J-0.077
X-28.112 Y22.077 Z-4.435 I0.238 J0.077
X-28.588 Y21.923 Z-4.504 I-0.238 J-0.077
X-28.112 Y22.077 Z-4.573 I0.238 J0.077
X-28.35 Y22.25 Z-4.6 I-0.238 J-0.077
Y21.75 I0 J-0.25
Y22.25 I0 J0.25
G0 Z5
X-37.127 Y30.056
Z2
G1 Z0.1 F100
G3 X-36.058 Y30.794 Z-0.079 I0.535 J0.369 F1000
X-37.127 Y30.056 Z-0.257 I-0.535 J-0.369
X-36.058 Y30.794 Z-0.436 I0.535 J0.369
X-37.127 Y30.056 Z-0.615 I-0.535 J-0.369
X-36.058 Y30.794 Z-0.793 I0.535 J0.369
X-37.127 Y30.056 Z-0.972 I-0.535 J-0.369
X-36.058 Y30.794 Z-1.151 I0.535 J0.369
X-37.127 Y30.056 Z-1.329 I-0.535 J-0.369
X-36.058 Y30.794 Z-1.508 I0.535 J0.369
X-37.127 Y30.056 Z-1.687 I-0.535 J-0.369
X-36.058 Y30.794 Z-1.865 I0.535 J0.369
X-37.127 Y30.056 Z-2.044 I-0.535 J-0.369
X-36.058 Y30.794 Z-2.223 I0.535 J0.369
X-37.127 Y30.056 Z-2.401 I-0.535 J-0.369
X-36.058 Y30.794 Z-2.58 I0.535 J0.369
X-37.127 Y30.056 Z-2.758 I-0.535 J-0.369
X-36.058 Y30.794 Z-2.937 I0.535 J0.369
X-37.127 Y30.056 Z-3.116 I-0.535 J-0.369
X-36.058 Y30.794 Z-3.294 I0.535 J0.369
X-37.127 Y30.056 Z-3.473 I-0.535 J-0.369
X-36.058 Y30.794 Z-3.652 I0.535 J0.369
X-37.127 Y30.056 Z-3.83 I-0.535 J-0.369
X-36.058 Y30.794 Z-4.009 I0.535 J0.369
X-37.127 Y30.056 Z-4.188 I-0.535 J-0.369
X-36.058 Y30.794 Z-4.366 I0.535 J0.369
X-37.127 Y30.056 Z-4.545 I-0.535 J-0.369
X-36.592 Y29.775 Z-4.6 I0.535 J0.369
Y31.075 I0 J0.65
Y29.775 I0 J-0.65
G0 Z5
X-36.567 Y14.224
Z2
G1 Z0.1 F100
G3 X-36.618 Y12.926 Z-0.079 I-0.026 J-0.649 F1000
X-36.567 Y14.224 Z-0.257 I0.026 J0.649
X-36.618 Y12.926 Z-0.436 I-0.026 J-0.649
X-36.567 Y14.224 Z-0.615 I0.026 J0.649
X-36.618 Y12.926 Z-0.793 I-0.026 J-0.649
X-36.567 Y14.224 Z-0.972 I0.026 J0.649
X-36.618 Y12.926 Z-1.151 I-0.026 J-0.649
X-36.567 Y14.224 Z-1.329 I0.026 J0.649
X-36.618 Y12.926 Z-1.508 I-0.026 J-0.649
X-36.567 Y14.224 Z-1.687 I0.026 J0.649
X-36.618 Y12.926 Z-1.865 I-0.026 J-0.649
X-36.567 Y14.224 Z-2.044 I0.026 J0.649
X-36.618 Y12.926 Z-2.223 I-0.026 J-0.649
X-36.567 Y14.224 Z-2.401 I0.026 J0.649
X-36.618 Y12.926 Z-2.58 I-0.026 J-0.649
X-36.567 Y14.224 Z-2.758 I0.026 J0.649
X-36.618 Y12.926 Z-2.937 I-0.026 J-0.649
X-36.567 Y14.224 Z-3.116 I0.026 J0.649
X-36.618 Y12.926 Z-3.294 I-0.026 J-0.649
X-36.567 Y14.224 Z-3.473 I0.026 J0.649
X-36.618 Y12.926 Z-3.652 I-0.026 J-0.649
X-36.567 Y14.224 Z-3.83 I0.026 J0.649
X-36.618 Y12.926 Z-4.009 I-0.026 J-0.649
X-36.567 Y14.224 Z-4.188 I0.026 J0.649
X-36.618 Y12.926 Z-4.366 I-0.026 J-0.649
X-36.567 Y14.224 Z-4.545 I0.026 J0.649
X-37.112 Y13.965 Z-4.6 I-0.026 J-0.649
X-36.072 Y13.185 I0.52 J-0.39
X-37.112 Y13.965 I-0.52 J0.39
G0 Z5
X-22.535 Y4.781
Z2
G1 Z0.1 F100
G3 X-21.465 Y5.519 Z-0.079 I0.535 J0.369 F1000
X-22.535 Y4.781 Z-0.257 I-0.535 J-0.369
X-21.465 Y5.519 Z-0.436 I0.535 J0.369
X-22.535 Y4.781 Z-0.615 I-0.535 J-0.369
X-21.465 Y5.519 Z-0.793 I0.535 J0.369
X-22.535 Y4.781 Z-0.972 I-0.535 J-0.369
X-21.465 Y5.519 Z-1.151 I0.535 J0.369
X-22.535 Y4.781 Z-1.329 I-0.535 J-0.369
X-21.465 Y5.519 Z-1.508 I0.535 J0.369
X-22.535 Y4.781 Z-1.687 I-0.535 J-0.369
X-21.465 Y5.519 Z-1.865 I0.535 J0.369
X-22.535 Y4.781 Z-2.044 I-0.535 J-0.369
X-21.465 Y5.519 Z-2.223 I0.535 J0.369
X-22.535 Y4.781 Z-2.401 I-0.535 J-0.369
X-21.465 Y5.519 Z-2.58 I0.535 J0.369
X-22.535 Y4.781 Z-2.758 I-0.535 J-0.369
X-21.465 Y5.519 Z-2.937 I0.535 J0.369
X-22.535 Y4.781 Z-3.116 I-0.535 J-0.369
X-21.465 Y5.519 Z-3.294 I0.535 J0.369
X-22.535 Y4.781 Z-3.473 I-0.535 J-0.369
X-21.465 Y5.519 Z-3.652 I0.535 J0.369
X-22.535 Y4.781 Z-3.83 I-0.535 J-0.369
X-21.465 Y5.519 Z-4.009 I0.535 J0.369
X-22.535 Y4.781 Z-4.188 I-0.535 J-0.369
X-21.465 Y5.519 Z-4.366 I0.535 J0.369
X-22.535 Y4.781 Z-4.545 I-0.535 J-0.369
X-22 Y4.5 Z-4.6 I0.535 J0.369
Y5.8 I0 J0.65
Y4.5 I0 J-0.65
G0 Z5
X-7.942 Y13.206
Z2
G1 Z0.1 F100
G3 X-6.873 Y13.944 Z-0.079 I0.535 J0.369 F1000
X-7.942 Y13.206 Z-0.257 I-0.535 J-0.369
X-6.873 Y13.944 Z-0.436 I0.535 J0.369
X-7.942 Y13.206 Z-0.615 I-0.535 J-0.369
X-6.873 Y13.944 Z-0.793 I0.535 J0.369
X-7.942 Y13.206 Z-0.972 I-0.535 J-0.369
X-6.873 Y13.944 Z-1.151 I0.535 J0.369
X-7.942 Y13.206 Z-1.329 I-0.535 J-0.369
X-6.873 Y13.944 Z-1.508 I0.535 J0.369
X-7.942 Y13.206 Z-1.687 I-0.535 J-0.369
X-6.873 Y13.944 Z-1.865 I0.535 J0.369
X-7.942 Y13.206 Z-2.044 I-0.535 J-0.369
X-6.873 Y13.944 Z-2.223 I0.535 J0.369
X-7.942 Y13.206 Z-2.401 I-0.535 J-0.369
X-6.873 Y13.944 Z-2.58 I0.535 J0.369
X-7.942 Y13.206 Z-2.758 I-0.535 J-0.369
X-6.873 Y13.944 Z-2.937 I0.535 J0.369
X-7.942 Y13.206 Z-3.116 I-0.535 J-0.369
X-6.873 Y13.944 Z-3.294 I0.535 J0.369
X-7.942 Y13.206 Z-3.473 I-0.535 J-0.369
X-6.873 Y13.944 Z-3.652 I0.535 J0.369
X-7.942 Y13.206 Z-3.83 I-0.535 J-0.369
X-6.873 Y13.944 Z-4.009 I0.535 J0.369
X-7.942 Y13.206 Z-4.188 I-0.535 J-0.369
X-6.873 Y13.944 Z-4.366 I0.535 J0.369
X-7.942 Y13.206 Z-4.545 I-0.535 J-0.369
X-7.407 Y12.925 Z-4.6 I0.535 J0.369
Y14.225 I0 J0.65
Y12.925 I0 J-0.65
G0 Z5
X-7.942 Y30.056
Z2
G1 Z0.1 F100
G3 X-6.873 Y30.794 Z-0.079 I0.535 J0.369 F1000
X-7.942 Y30.056 Z-0.257 I-0.535 J-0.369
X-6.873 Y30.794 Z-0.436 I0.535 J0.369
X-7.942 Y30.056 Z-0.615 I-0.535 J-0.369
X-6.873 Y30.794 Z-0.793 I0.535 J0.369
X-7.942 Y30.056 Z-0.972 I-0.535 J-0.369
X-6.873 Y30.794 Z-1.151 I0.535 J0.369
X-7.942 Y30.056 Z-1.329 I-0.535 J-0.369
X-6.873 Y30.794 Z-1.508 I0.535 J0.369
X-7.942 Y30.056 Z-1.687 I-0.535 J-0.369
X-6.873 Y30.794 Z-1.865 I0.535 J0.369
X-7.942 Y30.056 Z-2.044 I-0.535 J-0.369
X-6.873 Y30.794 Z-2.223 I0.535 J0.369
X-7.942 Y30.056 Z-2.401 I-0.535 J-0.369
X-6.873 Y30.794 Z-2.58 I0.535 J0.369
X-7.942 Y30.056 Z-2.758 I-0.535 J-0.369
X-6.873 Y30.794 Z-2.937 I0.535 J0.369
X-7.942 Y30.056 Z-3.116 I-0.535 J-0.369
X-6.873 Y30.794 Z-3.294 I0.535 J0.369
X-7.942 Y30.056 Z-3.473 I-0.535 J-0.369
X-6.873 Y30.794 Z-3.652 I0.535 J0.369
X-7.942 Y30.056 Z-3.83 I-0.535 J-0.369
X-6.873 Y30.794 Z-4.009 I0.535 J0.369
X-7.942 Y30.056 Z-4.188 I-0.535 J-0.369
X-6.873 Y30.794 Z-4.366 I0.535 J0.369
X-7.942 Y30.056 Z-4.545 I-0.535 J-0.369
X-7.407 Y29.775 Z-4.6 I0.535 J0.369
Y31.075 I0 J0.65
Y29.775 I0 J-0.65
G0 Z5
X-22.535 Y38.481
Z2
G1 Z0.1 F100
G3 X-21.465 Y39.219 Z-0.079 I0.535 J0.369 F1000
X-22.535 Y38.481 Z-0.257 I-0.535 J-0.369
X-21.465 Y39.219 Z-0.436 I0.535 J0.369
X-22.535 Y38.481 Z-0.615 I-0.535 J-0.369
X-21.465 Y39.219 Z-0.793 I0.535 J0.369
X-22.535 Y38.481 Z-0.972 I-0.535 J-0.369
X-21.465 Y39.219 Z-1.151 I0.535 J0.369
X-22.535 Y38.481 Z-1.329 I-0.535 J-0.369
X-21.465 Y39.219 Z-1.508 I0.535 J0.369
X-22.535 Y38.481 Z-1.687 I-0.535 J-0.369
X-21.465 Y39.219 Z-1.865 I0.535 J0.369
X-22.535 Y38.481 Z-2.044 I-0.535 J-0.369
X-21.465 Y39.219 Z-2.223 I0.535 J0.369
X-22.535 Y38.481 Z-2.401 I-0.535 J-0.369
X-21.465 Y39.219 Z-2.58 I0.535 J0.369
X-22.535 Y38.481 Z-2.758 I-0.535 J-0.369
X-21.465 Y39.219 Z-2.937 I0.535 J0.369
X-22.535 Y38.481 Z-3.116 I-0.535 J-0.369
X-21.465 Y39.219 Z-3.294 I0.535 J0.369
X-22.535 Y38.481 Z-3.473 I-0.535 J-0.369
X-21.465 Y39.219 Z-3.652 I0.535 J0.369
X-22.535 Y38.481 Z-3.83 I-0.535 J-0.369
X-21.465 Y39.219 Z-4.009 I0.535 J0.369
X-22.535 Y38.481 Z-4.188 I-0.535 J-0.369
X-21.465 Y39.219 Z-4.366 I0.535 J0.369
X-22.535 Y38.481 Z-4.545 I-0.535 J-0.369
X-22 Y38.2 Z-4.6 I0.535 J0.369
Y39.5 I0 J0.65
Y38.2 I0 J-0.65
G0 Z15

M9
M30
