(2MM FLAT HOLES)
(T11  D=2 CR=0 - ZMIN=-4.6 - FLAT END MILL)
G90 G94 G91.1 G40 G49 G17
G21

(2MM FLAT HOLES)
M5
M9
T11
(DIAMOND OR SPIRAL)
S20000 M3
G54
M8
G0 X-21.353 Y21.11
G43 Z15 H1
Z2
G1 Z0.1 F100
G3 X-22.647 Y22.89 Z-0.15 I-0.647 J0.89 F1000
X-21.353 Y21.11 Z-0.4 I0.647 J-0.89
X-22.647 Y22.89 Z-0.65 I-0.647 J0.89
X-21.353 Y21.11 Z-0.9 I0.647 J-0.89
X-22.647 Y22.89 Z-1.15 I-0.647 J0.89
X-21.353 Y21.11 Z-1.4 I0.647 J-0.89
X-22.647 Y22.89 Z-1.65 I-0.647 J0.89
X-21.353 Y21.11 Z-1.9 I0.647 J-0.89
X-22.647 Y22.89 Z-2.15 I-0.647 J0.89
X-21.353 Y21.11 Z-2.4 I0.647 J-0.89
X-22.647 Y22.89 Z-2.65 I-0.647 J0.89
X-21.353 Y21.11 Z-2.9 I0.647 J-0.89
X-22.647 Y22.89 Z-3.15 I-0.647 J0.89
X-21.353 Y21.11 Z-3.4 I0.647 J-0.89
X-22.647 Y22.89 Z-3.65 I-0.647 J0.89
X-21.353 Y21.11 Z-3.9 I0.647 J-0.89
X-22.647 Y22.89 Z-4.15 I-0.647 J0.89
X-21.353 Y21.11 Z-4.4 I0.647 J-0.89
X-22 Y23.1 Z-4.6 I-0.647 J0.89
Y20.9 I0 J-1.1
Y23.1 I0 J1.1
G0 Z5
X-21.92 Y28.41
Z2
G1 Z0.1 F100
G3 X-22.08 Y28.29 Z0.073 I-0.08 J-0.06 F1000
X-21.92 Y28.41 Z0.045 I0.08 J0.06
X-22.08 Y28.29 Z0.018 I-0.08 J-0.06
X-21.92 Y28.41 Z-0.01 I0.08 J0.06
X-22.08 Y28.29 Z-0.037 I-0.08 J-0.06
X-21.92 Y28.41 Z-0.065 I0.08 J0.06
X-22.08 Y28.29 Z-0.092 I-0.08 J-0.06
X-21.92 Y28.41 Z-0.12 I0.08 J0.06
X-22.08 Y28.29 Z-0.147 I-0.08 J-0.06
X-21.92 Y28.41 Z-0.175 I0.08 J0.06
X-22.08 Y28.29 Z-0.202 I-0.08 J-0.06
X-21.92 Y28.41 Z-0.23 I0.08 J0.06
X-22.08 Y28.29 Z-0.257 I-0.08 J-0.06
X-21.92 Y28.41 Z-0.285 I0.08 J0.06
X-22.08 Y28.29 Z-0.312 I-0.08 J-0.06
X-21.92 Y28.41 Z-0.34 I0.08 J0.06
X-22.08 Y28.29 Z-0.367 I-0.08 J-0.06
X-21.92 Y28.41 Z-0.395 I0.08 J0.06
X-22.08 Y28.29 Z-0.422 I-0.08 J-0.06
X-21.92 Y28.41 Z-0.45 I0.08 J0.06
X-22.08 Y28.29 Z-0.477 I-0.08 J-0.06
X-21.92 Y28.41 Z-0.505 I0.08 J0.06
X-22.08 Y28.29 Z-0.532 I-0.08 J-0.06
X-21.92 Y28.41 Z-0.56 I0.08 J0.06
X-22.08 Y28.29 Z-0.587 I-0.08 J-0.06
X-21.92 Y28.41 Z-0.615 I0.08 J0.06
X-22.08 Y28.29 Z-0.642 I-0.08 J-0.06
X-21.92 Y28.41 Z-0.67 I0.08 J0.06
X-22.08 Y28.29 Z-0.697 I-0.08 J-0.06
X-21.92 Y28.41 Z-0.725 I0.08 J0.06
X-22.08 Y28.29 Z-0.752 I-0.08 J-0.06
X-21.92 Y28.41 Z-0.78 I0.08 J0.06
X-22.08 Y28.29 Z-0.807 I-0.08 J-0.06
X-21.92 Y28.41 Z-0.835 I0.08 J0.06
X-22.08 Y28.29 Z-0.862 I-0.08 J-0.06
X-21.92 Y28.41 Z-0.889 I0.08 J0.06
X-22.08 Y28.29 Z-0.917 I-0.08 J-0.06
X-21.92 Y28.41 Z-0.944 I0.08 J0.06
X-22.08 Y28.29 Z-0.972 I-0.08 J-0.06
X-21.92 Y28.41 Z-0.999 I0.08 J0.06
X-22.08 Y28.29 Z-1.027 I-0.08 J-0.06
X-21.92 Y28.41 Z-1.054 I0.08 J0.06
X-22.08 Y28.29 Z-1.082 I-0.08 J-0.06
X-21.92 Y28.41 Z-1.109 I0.08 J0.06
X-22.08 Y28.29 Z-1.137 I-0.08 J-0.06
X-21.92 Y28.41 Z-1.164 I0.08 J0.06
X-22.08 Y28.29 Z-1.192 I-0.08 J-0.06
X-21.92 Y28.41 Z-1.219 I0.08 J0.06
X-22.08 Y28.29 Z-1.247 I-0.08 J-0.06
X-21.92 Y28.41 Z-1.274 I0.08 J0.06
X-22.08 Y28.29 Z-1.302 I-0.08 J-0.06
X-21.92 Y28.41 Z-1.329 I0.08 J0.06
X-22.08 Y28.29 Z-1.357 I-0.08 J-0.06
X-21.92 Y28.41 Z-1.384 I0.08 J0.06
X-22.08 Y28.29 Z-1.412 I-0.08 J-0.06
X-21.92 Y28.41 Z-1.439 I0.08 J0.06
X-22.08 Y28.29 Z-1.467 I-0.08 J-0.06
X-21.92 Y28.41 Z-1.494 I0.08 J0.06
X-22.08 Y28.29 Z-1.522 I-0.08 J-0.06
X-21.92 Y28.41 Z-1.549 I0.08 J0.06
X-22.08 Y28.29 Z-1.577 I-0.08 J-0.06
X-21.92 Y28.41 Z-1.604 I0.08 J0.06
X-22.08 Y28.29 Z-1.632 I-0.08 J-0.06
X-21.92 Y28.41 Z-1.659 I0.08 J0.06
X-22.08 Y28.29 Z-1.687 I-0.08 J-0.06
X-21.92 Y28.41 Z-1.714 I0.08 J0.06
X-22.08 Y28.29 Z-1.742 I-0.08 J-0.06
X-21.92 Y28.41 Z-1.769 I0.08 J0.06
X-22.08 Y28.29 Z-1.796 I-0.08 J-0.06
X-21.92 Y28.41 Z-1.824 I0.08 J0.06
X-22.08 Y28.29 Z-1.851 I-0.08 J-0.06
X-21.92 Y28.41 Z-1.879 I0.08 J0.06
X-22.08 Y28.29 Z-1.906 I-0.08 J-0.06
X-21.92 Y28.41 Z-1.934 I0.08 J0.06
X-22.08 Y28.29 Z-1.961 I-0.08 J-0.06
X-21.92 Y28.41 Z-1.989 I0.08 J0.06
X-22.08 Y28.29 Z-2.016 I-0.08 J-0.06
X-21.92 Y28.41 Z-2.044 I0.08 J0.06
X-22.08 Y28.29 Z-2.071 I-0.08 J-0.06
X-21.92 Y28.41 Z-2.099 I0.08 J0.06
X-22.08 Y28.29 Z-2.126 I-0.08 J-0.06
X-21.92 Y28.41 Z-2.154 I0.08 J0.06
X-22.08 Y28.29 Z-2.181 I-0.08 J-0.06
X-21.92 Y28.41 Z-2.209 I0.08 J0.06
X-22.08 Y28.29 Z-2.236 I-0.08 J-0.06
X-21.92 Y28.41 Z-2.264 I0.08 J0.06
X-22.08 Y28.29 Z-2.291 I-0.08 J-0.06
X-21.92 Y28.41 Z-2.319 I0.08 J0.06
X-22.08 Y28.29 Z-2.346 I-0.08 J-0.06
X-21.92 Y28.41 Z-2.374 I0.08 J0.06
X-22.08 Y28.29 Z-2.401 I-0.08 J-0.06
X-21.92 Y28.41 Z-2.429 I0.08 J0.06
X-22.08 Y28.29 Z-2.456 I-0.08 J-0.06
X-21.92 Y28.41 Z-2.484 I0.08 J0.06
X-22.08 Y28.29 Z-2.511 I-0.08 J-0.06
X-21.92 Y28.41 Z-2.539 I0.08 J0.06
X-22.08 Y28.29 Z-2.566 I-0.08 J-0.06
X-21.92 Y28.41 Z-2.594 I0.08 J0.06
X-22.08 Y28.29 Z-2.621 I-0.08 J-0.06
X-21.92 Y28.41 Z-2.649 I0.08 J0.06
X-22.08 Y28.29 Z-2.676 I-0.08 J-0.06
X-21.92 Y28.41 Z-2.704 I0.08 J0.06
X-22.08 Y28.29 Z-2.731 I-0.08 J-0.06
X-21.92 Y28.41 Z-2.758 I0.08 J0.06
X-22.08 Y28.29 Z-2.786 I-0.08 J-0.06
X-21.92 Y28.41 Z-2.813 I0.08 J0.06
X-22.08 Y28.29 Z-2.841 I-0.08 J-0.06
X-21.92 Y28.41 Z-2.868 I0.08 J0.06
X-22.08 Y28.29 Z-2.896 I-0.08 J-0.06
X-21.92 Y28.41 Z-2.923 I0.08 J0.06
X-22.08 Y28.29 Z-2.951 I-0.08 J-0.06
X-21.92 Y28.41 Z-2.978 I0.08 J0.06
X-22.08 Y28.29 Z-3.006 I-0.08 J-0.06
X-21.92 Y28.41 Z-3.033 I0.08 J0.06
X-22.08 Y28.29 Z-3.061 I-0.08 J-0.06
X-21.92 Y28.41 Z-3.088 I0.08 J0.06
X-22.08 Y28.29 Z-3.116 I-0.08 J-0.06
X-21.92 Y28.41 Z-3.143 I0.08 J0.06
X-22.08 Y28.29 Z-3.171 I-0.08 J-0.06
X-21.92 Y28.41 Z-3.198 I0.08 J0.06
X-22.08 Y28.29 Z-3.226 I-0.08 J-0.06
X-21.92 Y28.41 Z-3.253 I0.08 J0.06
X-22.08 Y28.29 Z-3.281 I-0.08 J-0.06
X-21.92 Y28.41 Z-3.308 I0.08 J0.06
X-22.08 Y28.29 Z-3.336 I-0.08 J-0.06
X-21.92 Y28.41 Z-3.363 I0.08 J0.06
X-22.08 Y28.29 Z-3.391 I-0.08 J-0.06
X-21.92 Y28.41 Z-3.418 I0.08 J0.06
X-22.08 Y28.29 Z-3.446 I-0.08 J-0.06
X-21.92 Y28.41 Z-3.473 I0.08 J0.06
X-22.08 Y28.29 Z-3.501 I-0.08 J-0.06
X-21.92 Y28.41 Z-3.528 I0.08 J0.06
X-22.08 Y28.29 Z-3.556 I-0.08 J-0.06
X-21.92 Y28.41 Z-3.583 I0.08 J0.06
X-22.08 Y28.29 Z-3.611 I-0.08 J-0.06
X-21.92 Y28.41 Z-3.638 I0.08 J0.06
X-22.08 Y28.29 Z-3.665 I-0.08 J-0.06
X-21.92 Y28.41 Z-3.693 I0.08 J0.06
X-22.08 Y28.29 Z-3.72 I-0.08 J-0.06
X-21.92 Y28.41 Z-3.748 I0.08 J0.06
X-22.08 Y28.29 Z-3.775 I-0.08 J-0.06
X-21.92 Y28.41 Z-3.803 I0.08 J0.06
X-22.08 Y28.29 Z-3.83 I-0.08 J-0.06
X-21.92 Y28.41 Z-3.858 I0.08 J0.06
X-22.08 Y28.29 Z-3.885 I-0.08 J-0.06
X-21.92 Y28.41 Z-3.913 I0.08 J0.06
X-22.08 Y28.29 Z-3.94 I-0.08 J-0.06
X-21.92 Y28.41 Z-3.968 I0.08 J0.06
X-22.08 Y28.29 Z-3.995 I-0.08 J-0.06
X-21.92 Y28.41 Z-4.023 I0.08 J0.06
X-22.08 Y28.29 Z-4.05 I-0.08 J-0.06
X-21.92 Y28.41 Z-4.078 I0.08 J0.06
X-22.08 Y28.29 Z-4.105 I-0.08 J-0.06
X-21.92 Y28.41 Z-4.133 I0.08 J0.06
X-22.08 Y28.29 Z-4.16 I-0.08 J-0.06
X-21.92 Y28.41 Z-4.188 I0.08 J0.06
X-22.08 Y28.29 Z-4.215 I-0.08 J-0.06
X-21.92 Y28.41 Z-4.243 I0.08 J0.06
X-22.08 Y28.29 Z-4.27 I-0.08 J-0.06
X-21.92 Y28.41 Z-4.298 I0.08 J0.06
X-22.08 Y28.29 Z-4.325 I-0.08 J-0.06
X-21.92 Y28.41 Z-4.353 I0.08 J0.06
X-22.08 Y28.29 Z-4.38 I-0.08 J-0.06
X-21.92 Y28.41 Z-4.408 I0.08 J0.06
X-22.08 Y28.29 Z-4.435 I-0.08 J-0.06
X-21.92 Y28.41 Z-4.463 I0.08 J0.06
X-22.08 Y28.29 Z-4.49 I-0.08 J-0.06
X-21.92 Y28.41 Z-4.518 I0.08 J0.06
X-22.08 Y28.29 Z-4.545 I-0.08 J-0.06
X-21.92 Y28.41 Z-4.573 I0.08 J0.06
X-22.06 Y28.43 Z-4.586 I-0.08 J-0.06
X-22.08 Y28.29 Z-4.6 I0.06 J-0.08
X-21.92 Y28.41 I0.08 J0.06
X-22.08 Y28.29 I-0.08 J-0.06
G0 Z5
X-28.35 Y21.9
Z2
G1 Z0.1 F100
G3 Y22.1 Z0.073 I0 J0.1 F1000
Y21.9 Z0.045 I0 J-0.1
Y22.1 Z0.018 I0 J0.1
Y21.9 Z-0.01 I0 J-0.1
Y22.1 Z-0.037 I0 J0.1
Y21.9 Z-0.065 I0 J-0.1
Y22.1 Z-0.092 I0 J0.1
Y21.9 Z-0.12 I0 J-0.1
Y22.1 Z-0.147 I0 J0.1
Y21.9 Z-0.175 I0 J-0.1
Y22.1 Z-0.202 I0 J0.1
Y21.9 Z-0.23 I0 J-0.1
Y22.1 Z-0.257 I0 J0.1
Y21.9 Z-0.285 I0 J-0.1
Y22.1 Z-0.312 I0 J0.1
Y21.9 Z-0.34 I0 J-0.1
Y22.1 Z-0.367 I0 J0.1
Y21.9 Z-0.395 I0 J-0.1
Y22.1 Z-0.422 I0 J0.1
Y21.9 Z-0.45 I0 J-0.1
Y22.1 Z-0.477 I0 J0.1
Y21.9 Z-0.505 I0 J-0.1
Y22.1 Z-0.532 I0 J0.1
Y21.9 Z-0.56 I0 J-0.1
Y22.1 Z-0.587 I0 J0.1
Y21.9 Z-0.615 I0 J-0.1
Y22.1 Z-0.642 I0 J0.1
Y21.9 Z-0.67 I0 J-0.1
Y22.1 Z-0.697 I0 J0.1
Y21.9 Z-0.725 I0 J-0.1
Y22.1 Z-0.752 I0 J0.1
Y21.9 Z-0.78 I0 J-0.1
Y22.1 Z-0.807 I0 J0.1
Y21.9 Z-0.835 I0 J-0.1
Y22.1 Z-0.862 I0 J0.1
Y21.9 Z-0.889 I0 J-0.1
Y22.1 Z-0.917 I0 J0.1
Y21.9 Z-0.944 I0 J-0.1
Y22.1 Z-0.972 I0 J0.1
Y21.9 Z-0.999 I0 J-0.1
Y22.1 Z-1.027 I0 J0.1
Y21.9 Z-1.054 I0 J-0.1
Y22.1 Z-1.082 I0 J0.1
Y21.9 Z-1.109 I0 J-0.1
Y22.1 Z-1.137 I0 J0.1
Y21.9 Z-1.164 I0 J-0.1
Y22.1 Z-1.192 I0 J0.1
Y21.9 Z-1.219 I0 J-0.1
Y22.1 Z-1.247 I0 J0.1
Y21.9 Z-1.274 I0 J-0.1
Y22.1 Z-1.302 I0 J0.1
Y21.9 Z-1.329 I0 J-0.1
Y22.1 Z-1.357 I0 J0.1
Y21.9 Z-1.384 I0 J-0.1
Y22.1 Z-1.412 I0 J0.1
Y21.9 Z-1.439 I0 J-0.1
Y22.1 Z-1.467 I0 J0.1
Y21.9 Z-1.494 I0 J-0.1
Y22.1 Z-1.522 I0 J0.1
Y21.9 Z-1.549 I0 J-0.1
Y22.1 Z-1.577 I0 J0.1
Y21.9 Z-1.604 I0 J-0.1
Y22.1 Z-1.632 I0 J0.1
Y21.9 Z-1.659 I0 J-0.1
Y22.1 Z-1.687 I0 J0.1
Y21.9 Z-1.714 I0 J-0.1
Y22.1 Z-1.742 I0 J0.1
Y21.9 Z-1.769 I0 J-0.1
Y22.1 Z-1.796 I0 J0.1
Y21.9 Z-1.824 I0 J-0.1
Y22.1 Z-1.851 I0 J0.1
Y21.9 Z-1.879 I0 J-0.1
Y22.1 Z-1.906 I0 J0.1
Y21.9 Z-1.934 I0 J-0.1
Y22.1 Z-1.961 I0 J0.1
Y21.9 Z-1.989 I0 J-0.1
Y22.1 Z-2.016 I0 J0.1
Y21.9 Z-2.044 I0 J-0.1
Y22.1 Z-2.071 I0 J0.1
Y21.9 Z-2.099 I0 J-0.1
Y22.1 Z-2.126 I0 J0.1
Y21.9 Z-2.154 I0 J-0.1
Y22.1 Z-2.181 I0 J0.1
Y21.9 Z-2.209 I0 J-0.1
Y22.1 Z-2.236 I0 J0.1
Y21.9 Z-2.264 I0 J-0.1
Y22.1 Z-2.291 I0 J0.1
Y21.9 Z-2.319 I0 J-0.1
Y22.1 Z-2.346 I0 J0.1
Y21.9 Z-2.374 I0 J-0.1
Y22.1 Z-2.401 I0 J0.1
Y21.9 Z-2.429 I0 J-0.1
Y22.1 Z-2.456 I0 J0.1
Y21.9 Z-2.484 I0 J-0.1
Y22.1 Z-2.511 I0 J0.1
Y21.9 Z-2.539 I0 J-0.1
Y22.1 Z-2.566 I0 J0.1
Y21.9 Z-2.594 I0 J-0.1
Y22.1 Z-2.621 I0 J0.1
Y21.9 Z-2.649 I0 J-0.1
Y22.1 Z-2.676 I0 J0.1
Y21.9 Z-2.704 I0 J-0.1
Y22.1 Z-2.731 I0 J0.1
Y21.9 Z-2.758 I0 J-0.1
Y22.1 Z-2.786 I0 J0.1
Y21.9 Z-2.813 I0 J-0.1
Y22.1 Z-2.841 I0 J0.1
Y21.9 Z-2.868 I0 J-0.1
Y22.1 Z-2.896 I0 J0.1
Y21.9 Z-2.923 I0 J-0.1
Y22.1 Z-2.951 I0 J0.1
Y21.9 Z-2.978 I0 J-0.1
Y22.1 Z-3.006 I0 J0.1
Y21.9 Z-3.033 I0 J-0.1
Y22.1 Z-3.061 I0 J0.1
Y21.9 Z-3.088 I0 J-0.1
Y22.1 Z-3.116 I0 J0.1
Y21.9 Z-3.143 I0 J-0.1
Y22.1 Z-3.171 I0 J0.1
Y21.9 Z-3.198 I0 J-0.1
Y22.1 Z-3.226 I0 J0.1
Y21.9 Z-3.253 I0 J-0.1
Y22.1 Z-3.281 I0 J0.1
Y21.9 Z-3.308 I0 J-0.1
Y22.1 Z-3.336 I0 J0.1
Y21.9 Z-3.363 I0 J-0.1
Y22.1 Z-3.391 I0 J0.1
Y21.9 Z-3.418 I0 J-0.1
Y22.1 Z-3.446 I0 J0.1
Y21.9 Z-3.473 I0 J-0.1
Y22.1 Z-3.501 I0 J0.1
Y21.9 Z-3.528 I0 J-0.1
Y22.1 Z-3.556 I0 J0.1
Y21.9 Z-3.583 I0 J-0.1
Y22.1 Z-3.611 I0 J0.1
Y21.9 Z-3.638 I0 J-0.1
Y22.1 Z-3.665 I0 J0.1
Y21.9 Z-3.693 I0 J-0.1
Y22.1 Z-3.72 I0 J0.1
Y21.9 Z-3.748 I0 J-0.1
Y22.1 Z-3.775 I0 J0.1
Y21.9 Z-3.803 I0 J-0.1
Y22.1 Z-3.83 I0 J0.1
Y21.9 Z-3.858 I0 J-0.1
Y22.1 Z-3.885 I0 J0.1
Y21.9 Z-3.913 I0 J-0.1
Y22.1 Z-3.94 I0 J0.1
Y21.9 Z-3.968 I0 J-0.1
Y22.1 Z-3.995 I0 J0.1
Y21.9 Z-4.023 I0 J-0.1
Y22.1 Z-4.05 I0 J0.1
Y21.9 Z-4.078 I0 J-0.1
Y22.1 Z-4.105 I0 J0.1
Y21.9 Z-4.133 I0 J-0.1
Y22.1 Z-4.16 I0 J0.1
Y21.9 Z-4.188 I0 J-0.1
Y22.1 Z-4.215 I0 J0.1
Y21.9 Z-4.243 I0 J-0.1
Y22.1 Z-4.27 I0 J0.1
Y21.9 Z-4.298 I0 J-0.1
Y22.1 Z-4.325 I0 J0.1
Y21.9 Z-4.353 I0 J-0.1
Y22.1 Z-4.38 I0 J0.1
Y21.9 Z-4.408 I0 J-0.1
Y22.1 Z-4.435 I0 J0.1
Y21.9 Z-4.463 I0 J-0.1
Y22.1 Z-4.49 I0 J0.1
Y21.9 Z-4.518 I0 J-0.1
Y22.1 Z-4.545 I0 J0.1
Y21.9 Z-4.573 I0 J-0.1
X-28.25 Y22 Z-4.586 I0 J0.1
X-28.35 Y22.1 Z-4.6 I-0.1 J0
Y21.9 I0 J-0.1
Y22.1 I0 J0.1
G0 Z5
X-22 Y15.55
Z2
G1 Z0.1 F100
G3 Y15.75 Z0.073 I0 J0.1 F1000
Y15.55 Z0.045 I0 J-0.1
Y15.75 Z0.018 I0 J0.1
Y15.55 Z-0.01 I0 J-0.1
Y15.75 Z-0.037 I0 J0.1
Y15.55 Z-0.065 I0 J-0.1
Y15.75 Z-0.092 I0 J0.1
Y15.55 Z-0.12 I0 J-0.1
Y15.75 Z-0.147 I0 J0.1
Y15.55 Z-0.175 I0 J-0.1
Y15.75 Z-0.202 I0 J0.1
Y15.55 Z-0.23 I0 J-0.1
Y15.75 Z-0.257 I0 J0.1
Y15.55 Z-0.285 I0 J-0.1
Y15.75 Z-0.312 I0 J0.1
Y15.55 Z-0.34 I0 J-0.1
Y15.75 Z-0.367 I0 J0.1
Y15.55 Z-0.395 I0 J-0.1
Y15.75 Z-0.422 I0 J0.1
Y15.55 Z-0.45 I0 J-0.1
Y15.75 Z-0.477 I0 J0.1
Y15.55 Z-0.505 I0 J-0.1
Y15.75 Z-0.532 I0 J0.1
Y15.55 Z-0.56 I0 J-0.1
Y15.75 Z-0.587 I0 J0.1
Y15.55 Z-0.615 I0 J-0.1
Y15.75 Z-0.642 I0 J0.1
Y15.55 Z-0.67 I0 J-0.1
Y15.75 Z-0.697 I0 J0.1
Y15.55 Z-0.725 I0 J-0.1
Y15.75 Z-0.752 I0 J0.1
Y15.55 Z-0.78 I0 J-0.1
Y15.75 Z-0.807 I0 J0.1
Y15.55 Z-0.835 I0 J-0.1
Y15.75 Z-0.862 I0 J0.1
Y15.55 Z-0.889 I0 J-0.1
Y15.75 Z-0.917 I0 J0.1
Y15.55 Z-0.944 I0 J-0.1
Y15.75 Z-0.972 I0 J0.1
Y15.55 Z-0.999 I0 J-0.1
Y15.75 Z-1.027 I0 J0.1
Y15.55 Z-1.054 I0 J-0.1
Y15.75 Z-1.082 I0 J0.1
Y15.55 Z-1.109 I0 J-0.1
Y15.75 Z-1.137 I0 J0.1
Y15.55 Z-1.164 I0 J-0.1
Y15.75 Z-1.192 I0 J0.1
Y15.55 Z-1.219 I0 J-0.1
Y15.75 Z-1.247 I0 J0.1
Y15.55 Z-1.274 I0 J-0.1
Y15.75 Z-1.302 I0 J0.1
Y15.55 Z-1.329 I0 J-0.1
Y15.75 Z-1.357 I0 J0.1
Y15.55 Z-1.384 I0 J-0.1
Y15.75 Z-1.412 I0 J0.1
Y15.55 Z-1.439 I0 J-0.1
Y15.75 Z-1.467 I0 J0.1
Y15.55 Z-1.494 I0 J-0.1
Y15.75 Z-1.522 I0 J0.1
Y15.55 Z-1.549 I0 J-0.1
Y15.75 Z-1.577 I0 J0.1
Y15.55 Z-1.604 I0 J-0.1
Y15.75 Z-1.632 I0 J0.1
Y15.55 Z-1.659 I0 J-0.1
Y15.75 Z-1.687 I0 J0.1
Y15.55 Z-1.714 I0 J-0.1
Y15.75 Z-1.742 I0 J0.1
Y15.55 Z-1.769 I0 J-0.1
Y15.75 Z-1.796 I0 J0.1
Y15.55 Z-1.824 I0 J-0.1
Y15.75 Z-1.851 I0 J0.1
Y15.55 Z-1.879 I0 J-0.1
Y15.75 Z-1.906 I0 J0.1
Y15.55 Z-1.934 I0 J-0.1
Y15.75 Z-1.961 I0 J0.1
Y15.55 Z-1.989 I0 J-0.1
Y15.75 Z-2.016 I0 J0.1
Y15.55 Z-2.044 I0 J-0.1
Y15.75 Z-2.071 I0 J0.1
Y15.55 Z-2.099 I0 J-0.1
Y15.75 Z-2.126 I0 J0.1
Y15.55 Z-2.154 I0 J-0.1
Y15.75 Z-2.181 I0 J0.1
Y15.55 Z-2.209 I0 J-0.1
Y15.75 Z-2.236 I0 J0.1
Y15.55 Z-2.264 I0 J-0.1
Y15.75 Z-2.291 I0 J0.1
Y15.55 Z-2.319 I0 J-0.1
Y15.75 Z-2.346 I0 J0.1
Y15.55 Z-2.374 I0 J-0.1
Y15.75 Z-2.401 I0 J0.1
Y15.55 Z-2.429 I0 J-0.1
Y15.75 Z-2.456 I0 J0.1
Y15.55 Z-2.484 I0 J-0.1
Y15.75 Z-2.511 I0 J0.1
Y15.55 Z-2.539 I0 J-0.1
Y15.75 Z-2.566 I0 J0.1
Y15.55 Z-2.594 I0 J-0.1
Y15.75 Z-2.621 I0 J0.1
Y15.55 Z-2.649 I0 J-0.1
Y15.75 Z-2.676 I0 J0.1
Y15.55 Z-2.704 I0 J-0.1
Y15.75 Z-2.731 I0 J0.1
Y15.55 Z-2.758 I0 J-0.1
Y15.75 Z-2.786 I0 J0.1
Y15.55 Z-2.813 I0 J-0.1
Y15.75 Z-2.841 I0 J0.1
Y15.55 Z-2.868 I0 J-0.1
Y15.75 Z-2.896 I0 J0.1
Y15.55 Z-2.923 I0 J-0.1
Y15.75 Z-2.951 I0 J0.1
Y15.55 Z-2.978 I0 J-0.1
Y15.75 Z-3.006 I0 J0.1
Y15.55 Z-3.033 I0 J-0.1
Y15.75 Z-3.061 I0 J0.1
Y15.55 Z-3.088 I0 J-0.1
Y15.75 Z-3.116 I0 J0.1
Y15.55 Z-3.143 I0 J-0.1
Y15.75 Z-3.171 I0 J0.1
Y15.55 Z-3.198 I0 J-0.1
Y15.75 Z-3.226 I0 J0.1
Y15.55 Z-3.253 I0 J-0.1
Y15.75 Z-3.281 I0 J0.1
Y15.55 Z-3.308 I0 J-0.1
Y15.75 Z-3.336 I0 J0.1
Y15.55 Z-3.363 I0 J-0.1
Y15.75 Z-3.391 I0 J0.1
Y15.55 Z-3.418 I0 J-0.1
Y15.75 Z-3.446 I0 J0.1
Y15.55 Z-3.473 I0 J-0.1
Y15.75 Z-3.501 I0 J0.1
Y15.55 Z-3.528 I0 J-0.1
Y15.75 Z-3.556 I0 J0.1
Y15.55 Z-3.583 I0 J-0.1
Y15.75 Z-3.611 I0 J0.1
Y15.55 Z-3.638 I0 J-0.1
Y15.75 Z-3.665 I0 J0.1
Y15.55 Z-3.693 I0 J-0.1
Y15.75 Z-3.72 I0 J0.1
Y15.55 Z-3.748 I0 J-0.1
Y15.75 Z-3.775 I0 J0.1
Y15.55 Z-3.803 I0 J-0.1
Y15.75 Z-3.83 I0 J0.1
Y15.55 Z-3.858 I0 J-0.1
Y15.75 Z-3.885 I0 J0.1
Y15.55 Z-3.913 I0 J-0.1
Y15.75 Z-3.94 I0 J0.1
Y15.55 Z-3.968 I0 J-0.1
Y15.75 Z-3.995 I0 J0.1
Y15.55 Z-4.023 I0 J-0.1
Y15.75 Z-4.05 I0 J0.1
Y15.55 Z-4.078 I0 J-0.1
Y15.75 Z-4.105 I0 J0.1
Y15.55 Z-4.133 I0 J-0.1
Y15.75 Z-4.16 I0 J0.1
Y15.55 Z-4.188 I0 J-0.1
Y15.75 Z-4.215 I0 J0.1
Y15.55 Z-4.243 I0 J-0.1
Y15.75 Z-4.27 I0 J0.1
Y15.55 Z-4.298 I0 J-0.1
Y15.75 Z-4.325 I0 J0.1
Y15.55 Z-4.353 I0 J-0.1
Y15.75 Z-4.38 I0 J0.1
Y15.55 Z-4.408 I0 J-0.1
Y15.75 Z-4.435 I0 J0.1
Y15.55 Z-4.463 I0 J-0.1
Y15.75 Z-4.49 I0 J0.1
Y15.55 Z-4.518 I0 J-0.1
Y15.75 Z-4.545 I0 J0.1
Y15.55 Z-4.573 I0 J-0.1
X-21.9 Y15.65 Z-4.586 I0 J0.1
X-22 Y15.75 Z-4.6 I-0.1 J0
Y15.55 I0 J-0.1
Y15.75 I0 J0.1
G0 Z5
X-15.65 Y21.9
Z2
G1 Z0.1 F100
G3 Y22.1 Z0.073 I0 J0.1 F1000
Y21.9 Z0.045 I0 J-0.1
Y22.1 Z0.018 I0 J0.1
Y21.9 Z-0.01 I0 J-0.1
Y22.1 Z-0.037 I0 J0.1
Y21.9 Z-0.065 I0 J-0.1
Y22.1 Z-0.092 I0 J0.1
Y21.9 Z-0.12 I0 J-0.1
Y22.1 Z-0.147 I0 J0.1
Y21.9 Z-0.175 I0 J-0.1
Y22.1 Z-0.202 I0 J0.1
Y21.9 Z-0.23 I0 J-0.1
Y22.1 Z-0.257 I0 J0.1
Y21.9 Z-0.285 I0 J-0.1
Y22.1 Z-0.312 I0 J0.1
Y21.9 Z-0.34 I0 J-0.1
Y22.1 Z-0.367 I0 J0.1
Y21.9 Z-0.395 I0 J-0.1
Y22.1 Z-0.422 I0 J0.1
Y21.9 Z-0.45 I0 J-0.1
Y22.1 Z-0.477 I0 J0.1
Y21.9 Z-0.505 I0 J-0.1
Y22.1 Z-0.532 I0 J0.1
Y21.9 Z-0.56 I0 J-0.1
Y22.1 Z-0.587 I0 J0.1
Y21.9 Z-0.615 I0 J-0.1
Y22.1 Z-0.642 I0 J0.1
Y21.9 Z-0.67 I0 J-0.1
Y22.1 Z-0.697 I0 J0.1
Y21.9 Z-0.725 I0 J-0.1
Y22.1 Z-0.752 I0 J0.1
Y21.9 Z-0.78 I0 J-0.1
Y22.1 Z-0.807 I0 J0.1
Y21.9 Z-0.835 I0 J-0.1
Y22.1 Z-0.862 I0 J0.1
Y21.9 Z-0.889 I0 J-0.1
Y22.1 Z-0.917 I0 J0.1
Y21.9 Z-0.944 I0 J-0.1
Y22.1 Z-0.972 I0 J0.1
Y21.9 Z-0.999 I0 J-0.1
Y22.1 Z-1.027 I0 J0.1
Y21.9 Z-1.054 I0 J-0.1
Y22.1 Z-1.082 I0 J0.1
Y21.9 Z-1.109 I0 J-0.1
Y22.1 Z-1.137 I0 J0.1
Y21.9 Z-1.164 I0 J-0.1
Y22.1 Z-1.192 I0 J0.1
Y21.9 Z-1.219 I0 J-0.1
Y22.1 Z-1.247 I0 J0.1
Y21.9 Z-1.274 I0 J-0.1
Y22.1 Z-1.302 I0 J0.1
Y21.9 Z-1.329 I0 J-0.1
Y22.1 Z-1.357 I0 J0.1
Y21.9 Z-1.384 I0 J-0.1
Y22.1 Z-1.412 I0 J0.1
Y21.9 Z-1.439 I0 J-0.1
Y22.1 Z-1.467 I0 J0.1
Y21.9 Z-1.494 I0 J-0.1
Y22.1 Z-1.522 I0 J0.1
Y21.9 Z-1.549 I0 J-0.1
Y22.1 Z-1.577 I0 J0.1
Y21.9 Z-1.604 I0 J-0.1
Y22.1 Z-1.632 I0 J0.1
Y21.9 Z-1.659 I0 J-0.1
Y22.1 Z-1.687 I0 J0.1
Y21.9 Z-1.714 I0 J-0.1
Y22.1 Z-1.742 I0 J0.1
Y21.9 Z-1.769 I0 J-0.1
Y22.1 Z-1.796 I0 J0.1
Y21.9 Z-1.824 I0 J-0.1
Y22.1 Z-1.851 I0 J0.1
Y21.9 Z-1.879 I0 J-0.1
Y22.1 Z-1.906 I0 J0.1
Y21.9 Z-1.934 I0 J-0.1
Y22.1 Z-1.961 I0 J0.1
Y21.9 Z-1.989 I0 J-0.1
Y22.1 Z-2.016 I0 J0.1
Y21.9 Z-2.044 I0 J-0.1
Y22.1 Z-2.071 I0 J0.1
Y21.9 Z-2.099 I0 J-0.1
Y22.1 Z-2.126 I0 J0.1
Y21.9 Z-2.154 I0 J-0.1
Y22.1 Z-2.181 I0 J0.1
Y21.9 Z-2.209 I0 J-0.1
Y22.1 Z-2.236 I0 J0.1
Y21.9 Z-2.264 I0 J-0.1
Y22.1 Z-2.291 I0 J0.1
Y21.9 Z-2.319 I0 J-0.1
Y22.1 Z-2.346 I0 J0.1
Y21.9 Z-2.374 I0 J-0.1
Y22.1 Z-2.401 I0 J0.1
Y21.9 Z-2.429 I0 J-0.1
Y22.1 Z-2.456 I0 J0.1
Y21.9 Z-2.484 I0 J-0.1
Y22.1 Z-2.511 I0 J0.1
Y21.9 Z-2.539 I0 J-0.1
Y22.1 Z-2.566 I0 J0.1
Y21.9 Z-2.594 I0 J-0.1
Y22.1 Z-2.621 I0 J0.1
Y21.9 Z-2.649 I0 J-0.1
Y22.1 Z-2.676 I0 J0.1
Y21.9 Z-2.704 I0 J-0.1
Y22.1 Z-2.731 I0 J0.1
Y21.9 Z-2.758 I0 J-0.1
Y22.1 Z-2.786 I0 J0.1
Y21.9 Z-2.813 I0 J-0.1
Y22.1 Z-2.841 I0 J0.1
Y21.9 Z-2.868 I0 J-0.1
Y22.1 Z-2.896 I0 J0.1
Y21.9 Z-2.923 I0 J-0.1
Y22.1 Z-2.951 I0 J0.1
Y21.9 Z-2.978 I0 J-0.1
Y22.1 Z-3.006 I0 J0.1
Y21.9 Z-3.033 I0 J-0.1
Y22.1 Z-3.061 I0 J0.1
Y21.9 Z-3.088 I0 J-0.1
Y22.1 Z-3.116 I0 J0.1
Y21.9 Z-3.143 I0 J-0.1
Y22.1 Z-3.171 I0 J0.1
Y21.9 Z-3.198 I0 J-0.1
Y22.1 Z-3.226 I0 J0.1
Y21.9 Z-3.253 I0 J-0.1
Y22.1 Z-3.281 I0 J0.1
Y21.9 Z-3.308 I0 J-0.1
Y22.1 Z-3.336 I0 J0.1
Y21.9 Z-3.363 I0 J-0.1
Y22.1 Z-3.391 I0 J0.1
Y21.9 Z-3.418 I0 J-0.1
Y22.1 Z-3.446 I0 J0.1
Y21.9 Z-3.473 I0 J-0.1
Y22.1 Z-3.501 I0 J0.1
Y21.9 Z-3.528 I0 J-0.1
Y22.1 Z-3.556 I0 J0.1
Y21.9 Z-3.583 I0 J-0.1
Y22.1 Z-3.611 I0 J0.1
Y21.9 Z-3.638 I0 J-0.1
Y22.1 Z-3.665 I0 J0.1
Y21.9 Z-3.693 I0 J-0.1
Y22.1 Z-3.72 I0 J0.1
Y21.9 Z-3.748 I0 J-0.1
Y22.1 Z-3.775 I0 J0.1
Y21.9 Z-3.803 I0 J-0.1
Y22.1 Z-3.83 I0 J0.1
Y21.9 Z-3.858 I0 J-0.1
Y22.1 Z-3.885 I0 J0.1
Y21.9 Z-3.913 I0 J-0.1
Y22.1 Z-3.94 I0 J0.1
Y21.9 Z-3.968 I0 J-0.1
Y22.1 Z-3.995 I0 J0.1
Y21.9 Z-4.023 I0 J-0.1
Y22.1 Z-4.05 I0 J0.1
Y21.9 Z-4.078 I0 J-0.1
Y22.1 Z-4.105 I0 J0.1
Y21.9 Z-4.133 I0 J-0.1
Y22.1 Z-4.16 I0 J0.1
Y21.9 Z-4.188 I0 J-0.1
Y22.1 Z-4.215 I0 J0.1
Y21.9 Z-4.243 I0 J-0.1
Y22.1 Z-4.27 I0 J0.1
Y21.9 Z-4.298 I0 J-0.1
Y22.1 Z-4.325 I0 J0.1
Y21.9 Z-4.353 I0 J-0.1
Y22.1 Z-4.38 I0 J0.1
Y21.9 Z-4.408 I0 J-0.1
Y22.1 Z-4.435 I0 J0.1
Y21.9 Z-4.463 I0 J-0.1
Y22.1 Z-4.49 I0 J0.1
Y21.9 Z-4.518 I0 J-0.1
Y22.1 Z-4.545 I0 J0.1
Y21.9 Z-4.573 I0 J-0.1
X-15.55 Y22 Z-4.586 I0 J0.1
X-15.65 Y22.1 Z-4.6 I-0.1 J0
Y21.9 I0 J-0.1
Y22.1 I0 J0.1
G0 Z5
X-6.798 Y30.656
Z2
G1 Z0.1 F100
G3 X-8.276 Y30.044 Z-0.12 I-0.739 J-0.306 F1000
X-6.798 Y30.656 Z-0.34 I0.739 J0.306
X-8.276 Y30.044 Z-0.56 I-0.739 J-0.306
X-6.798 Y30.656 Z-0.78 I0.739 J0.306
X-8.276 Y30.044 Z-0.999 I-0.739 J-0.306
X-6.798 Y30.656 Z-1.219 I0.739 J0.306
X-8.276 Y30.044 Z-1.439 I-0.739 J-0.306
X-6.798 Y30.656 Z-1.659 I0.739 J0.306
X-8.276 Y30.044 Z-1.879 I-0.739 J-0.306
X-6.798 Y30.656 Z-2.099 I0.739 J0.306
X-8.276 Y30.044 Z-2.319 I-0.739 J-0.306
X-6.798 Y30.656 Z-2.539 I0.739 J0.306
X-8.276 Y30.044 Z-2.758 I-0.739 J-0.306
X-6.798 Y30.656 Z-2.978 I0.739 J0.306
X-8.276 Y30.044 Z-3.198 I-0.739 J-0.306
X-6.798 Y30.656 Z-3.418 I0.739 J0.306
X-8.276 Y30.044 Z-3.638 I-0.739 J-0.306
X-6.798 Y30.656 Z-3.858 I0.739 J0.306
X-8.276 Y30.044 Z-4.078 I-0.739 J-0.306
X-6.798 Y30.656 Z-4.298 I0.739 J0.306
X-8.276 Y30.044 Z-4.518 I-0.739 J-0.306
X-7.537 Y29.55 Z-4.6 I0.739 J0.306
Y31.15 I0 J0.8
Y29.55 I0 J-0.8
G0 Z5
X-7.736 Y12.875
Z2
G1 Z0.1 F100
G3 X-7.339 Y14.425 Z-0.12 I0.199 J0.775 F1000
X-7.736 Y12.875 Z-0.34 I-0.199 J-0.775
X-7.339 Y14.425 Z-0.56 I0.199 J0.775
X-7.736 Y12.875 Z-0.78 I-0.199 J-0.775
X-7.339 Y14.425 Z-0.999 I0.199 J0.775
X-7.736 Y12.875 Z-1.219 I-0.199 J-0.775
X-7.339 Y14.425 Z-1.439 I0.199 J0.775
X-7.736 Y12.875 Z-1.659 I-0.199 J-0.775
X-7.339 Y14.425 Z-1.879 I0.199 J0.775
X-7.736 Y12.875 Z-2.099 I-0.199 J-0.775
X-7.339 Y14.425 Z-2.319 I0.199 J0.775
X-7.736 Y12.875 Z-2.539 I-0.199 J-0.775
X-7.339 Y14.425 Z-2.758 I0.199 J0.775
X-7.736 Y12.875 Z-2.978 I-0.199 J-0.775
X-7.339 Y14.425 Z-3.198 I0.199 J0.775
X-7.736 Y12.875 Z-3.418 I-0.199 J-0.775
X-7.339 Y14.425 Z-3.638 I0.199 J0.775
X-7.736 Y12.875 Z-3.858 I-0.199 J-0.775
X-7.339 Y14.425 Z-4.078 I0.199 J0.775
X-7.736 Y12.875 Z-4.298 I-0.199 J-0.775
X-7.339 Y14.425 Z-4.518 I0.199 J0.775
X-8.177 Y14.13 Z-4.6 I-0.199 J-0.775
X-6.897 Y13.17 I0.64 J-0.48
X-8.177 Y14.13 I-0.64 J0.48
G0 Z5
X-21.261 Y5.606
Z2
G1 Z0.1 F100
G3 X-22.739 Y4.994 Z-0.12 I-0.739 J-0.306 F1000
X-21.261 Y5.606 Z-0.34 I0.739 J0.306
X-22.739 Y4.994 Z-0.56 I-0.739 J-0.306
X-21.261 Y5.606 Z-0.78 I0.739 J0.306
X-22.739 Y4.994 Z-0.999 I-0.739 J-0.306
X-21.261 Y5.606 Z-1.219 I0.739 J0.306
X-22.739 Y4.994 Z-1.439 I-0.739 J-0.306
X-21.261 Y5.606 Z-1.659 I0.739 J0.306
X-22.739 Y4.994 Z-1.879 I-0.739 J-0.306
X-21.261 Y5.606 Z-2.099 I0.739 J0.306
X-22.739 Y4.994 Z-2.319 I-0.739 J-0.306
X-21.261 Y5.606 Z-2.539 I0.739 J0.306
X-22.739 Y4.994 Z-2.758 I-0.739 J-0.306
X-21.261 Y5.606 Z-2.978 I0.739 J0.306
X-22.739 Y4.994 Z-3.198 I-0.739 J-0.306
X-21.261 Y5.606 Z-3.418 I0.739 J0.306
X-22.739 Y4.994 Z-3.638 I-0.739 J-0.306
X-21.261 Y5.606 Z-3.858 I0.739 J0.306
X-22.739 Y4.994 Z-4.078 I-0.739 J-0.306
X-21.261 Y5.606 Z-4.298 I0.739 J0.306
X-22.739 Y4.994 Z-4.518 I-0.739 J-0.306
X-22 Y4.5 Z-4.6 I0.739 J0.306
Y6.1 I0 J0.8
Y4.5 I0 J-0.8
G0 Z5
X-37.151 Y14.058
Z2
G1 Z0.1 F100
G3 X-35.774 Y13.242 Z-0.12 I0.688 J-0.408 F1000
X-37.151 Y14.058 Z-0.34 I-0.688 J0.408
X-35.774 Y13.242 Z-0.56 I0.688 J-0.408
X-37.151 Y14.058 Z-0.78 I-0.688 J0.408
X-35.774 Y13.242 Z-0.999 I0.688 J-0.408
X-37.151 Y14.058 Z-1.219 I-0.688 J0.408
X-35.774 Y13.242 Z-1.439 I0.688 J-0.408
X-37.151 Y14.058 Z-1.659 I-0.688 J0.408
X-35.774 Y13.242 Z-1.879 I0.688 J-0.408
X-37.151 Y14.058 Z-2.099 I-0.688 J0.408
X-35.774 Y13.242 Z-2.319 I0.688 J-0.408
X-37.151 Y14.058 Z-2.539 I-0.688 J0.408
X-35.774 Y13.242 Z-2.758 I0.688 J-0.408
X-37.151 Y14.058 Z-2.978 I-0.688 J0.408
X-35.774 Y13.242 Z-3.198 I0.688 J-0.408
X-37.151 Y14.058 Z-3.418 I-0.688 J0.408
X-35.774 Y13.242 Z-3.638 I0.688 J-0.408
X-37.151 Y14.058 Z-3.858 I-0.688 J0.408
X-35.774 Y13.242 Z-4.078 I0.688 J-0.408
X-37.151 Y14.058 Z-4.298 I-0.688 J0.408
X-35.774 Y13.242 Z-4.518 I0.688 J-0.408
X-35.823 Y14.13 Z-4.6 I-0.688 J0.408
X-37.103 Y13.17 I-0.64 J-0.48
X-35.823 Y14.13 I0.64 J0.48
G0 Z5
X-36.661 Y29.575
Z2
G1 Z0.1 F100
G3 X-36.264 Y31.125 Z-0.12 I0.199 J0.775 F1000
X-36.661 Y29.575 Z-0.34 I-0.199 J-0.775
X-36.264 Y31.125 Z-0.56 I0.199 J0.775
X-36.661 Y29.575 Z-0.78 I-0.199 J-0.775
X-36.264 Y31.125 Z-0.999 I0.199 J0.775
X-36.661 Y29.575 Z-1.219 I-0.199 J-0.775
X-36.264 Y31.125 Z-1.439 I0.199 J0.775
X-36.661 Y29.575 Z-1.659 I-0.199 J-0.775
X-36.264 Y31.125 Z-1.879 I0.199 J0.775
X-36.661 Y29.575 Z-2.099 I-0.199 J-0.775
X-36.264 Y31.125 Z-2.319 I0.199 J0.775
X-36.661 Y29.575 Z-2.539 I-0.199 J-0.775
X-36.264 Y31.125 Z-2.758 I0.199 J0.775
X-36.661 Y29.575 Z-2.978 I-0.199 J-0.775
X-36.264 Y31.125 Z-3.198 I0.199 J0.775
X-36.661 Y29.575 Z-3.418 I-0.199 J-0.775
X-36.264 Y31.125 Z-3.638 I0.199 J0.775
X-36.661 Y29.575 Z-3.858 I-0.199 J-0.775
X-36.264 Y31.125 Z-4.078 I0.199 J0.775
X-36.661 Y29.575 Z-4.298 I-0.199 J-0.775
X-36.264 Y31.125 Z-4.518 I0.199 J0.775
X-37.103 Y30.83 Z-4.6 I-0.199 J-0.775
X-35.823 Y29.87 I0.64 J-0.48
X-37.103 Y30.83 I-0.64 J0.48
G0 Z5
X-21.261 Y39.006
Z2
G1 Z0.1 F100
G3 X-22.739 Y38.394 Z-0.12 I-0.739 J-0.306 F1000
X-21.261 Y39.006 Z-0.34 I0.739 J0.306
X-22.739 Y38.394 Z-0.56 I-0.739 J-0.306
X-21.261 Y39.006 Z-0.78 I0.739 J0.306
X-22.739 Y38.394 Z-0.999 I-0.739 J-0.306
X-21.261 Y39.006 Z-1.219 I0.739 J0.306
X-22.739 Y38.394 Z-1.439 I-0.739 J-0.306
X-21.261 Y39.006 Z-1.659 I0.739 J0.306
X-22.739 Y38.394 Z-1.879 I-0.739 J-0.306
X-21.261 Y39.006 Z-2.099 I0.739 J0.306
X-22.739 Y38.394 Z-2.319 I-0.739 J-0.306
X-21.261 Y39.006 Z-2.539 I0.739 J0.306
X-22.739 Y38.394 Z-2.758 I-0.739 J-0.306
X-21.261 Y39.006 Z-2.978 I0.739 J0.306
X-22.739 Y38.394 Z-3.198 I-0.739 J-0.306
X-21.261 Y39.006 Z-3.418 I0.739 J0.306
X-22.739 Y38.394 Z-3.638 I-0.739 J-0.306
X-21.261 Y39.006 Z-3.858 I0.739 J0.306
X-22.739 Y38.394 Z-4.078 I-0.739 J-0.306
X-21.261 Y39.006 Z-4.298 I0.739 J0.306
X-22.739 Y38.394 Z-4.518 I-0.739 J-0.306
X-22 Y37.9 Z-4.6 I0.739 J0.306
Y39.5 I0 J0.8
Y37.9 I0 J-0.8
G0 Z15

M9
M30
