(2MM FLAT HOLES)
(T11  D=2 CR=0 - ZMIN=-4.6 - FLAT END MILL)
G90 G94 G91.1 G40 G49 G17
G21

(2MM FLAT HOLES)
M5
M9
T11
(DIAMOND OR SPIRAL)
S20000 M3
G54
M8
G0 X-21.353 Y21.11
G43 Z15 H1
Z2
G1 Z0.1 F100
G3 X-22.647 Y22.89 Z-0.15 I-0.647 J0.89 F1000
X-21.353 Y21.11 Z-0.4 I0.647 J-0.89
X-22.647 Y22.89 Z-0.65 I-0.647 J0.89
X-21.353 Y21.11 Z-0.9 I0.647 J-0.89
X-22.647 Y22.89 Z-1.15 I-0.647 J0.89
X-21.353 Y21.11 Z-1.4 I0.647 J-0.89
X-22.647 Y22.89 Z-1.65 I-0.647 J0.89
X-21.353 Y21.11 Z-1.9 I0.647 J-0.89
X-22.647 Y22.89 Z-2.15 I-0.647 J0.89
X-21.353 Y21.11 Z-2.4 I0.647 J-0.89
X-22.647 Y22.89 Z-2.65 I-0.647 J0.89
X-21.353 Y21.11 Z-2.9 I0.647 J-0.89
X-22.647 Y22.89 Z-3.15 I-0.647 J0.89
X-21.353 Y21.11 Z-3.4 I0.647 J-0.89
X-22.647 Y22.89 Z-3.65 I-0.647 J0.89
X-21.353 Y21.11 Z-3.9 I0.647 J-0.89
X-22.647 Y22.89 Z-4.15 I-0.647 J0.89
X-21.353 Y21.11 Z-4.4 I0.647 J-0.89
X-22 Y23.1 Z-4.6 I-0.647 J0.89
Y20.9 I0 J-1.1
Y23.1 I0 J1.1
G0 Z5
X-22.36 Y27.87
Z2
G1 Z0.1 F100
G3 X-21.64 Y28.83 Z-0.065 I0.36 J0.48 F1000
X-22.36 Y27.87 Z-0.23 I-0.36 J-0.48
X-21.64 Y28.83 Z-0.395 I0.36 J0.48
X-22.36 Y27.87 Z-0.56 I-0.36 J-0.48
X-21.64 Y28.83 Z-0.725 I0.36 J0.48
X-22.36 Y27.87 Z-0.889 I-0.36 J-0.48
X-21.64 Y28.83 Z-1.054 I0.36 J0.48
X-22.36 Y27.87 Z-1.219 I-0.36 J-0.48
X-21.64 Y28.83 Z-1.384 I0.36 J0.48
X-22.36 Y27.87 Z-1.549 I-0.36 J-0.48
X-21.64 Y28.83 Z-1.714 I0.36 J0.48
X-22.36 Y27.87 Z-1.879 I-0.36 J-0.48
X-21.64 Y28.83 Z-2.044 I0.36 J0.48
X-22.36 Y27.87 Z-2.209 I-0.36 J-0.48
X-21.64 Y28.83 Z-2.374 I0.36 J0.48
X-22.36 Y27.87 Z-2.539 I-0.36 J-0.48
X-21.64 Y28.83 Z-2.704 I0.36 J0.48
X-22.36 Y27.87 Z-2.868 I-0.36 J-0.48
X-21.64 Y28.83 Z-3.033 I0.36 J0.48
X-22.36 Y27.87 Z-3.198 I-0.36 J-0.48
X-21.64 Y28.83 Z-3.363 I0.36 J0.48
X-22.36 Y27.87 Z-3.528 I-0.36 J-0.48
X-21.64 Y28.83 Z-3.693 I0.36 J0.48
X-22.36 Y27.87 Z-3.858 I-0.36 J-0.48
X-21.64 Y28.83 Z-4.023 I0.36 J0.48
X-22.36 Y27.87 Z-4.188 I-0.36 J-0.48
X-21.64 Y28.83 Z-4.353 I0.36 J0.48
X-22.36 Y27.87 Z-4.518 I-0.36 J-0.48
X-21.52 Y27.99 Z-4.6 I0.36 J0.48
X-22.48 Y28.71 I-0.48 J0.36
X-21.52 Y27.99 I0.48 J-0.36
G0 Z5
X-15.05 Y22
Z2
G1 Z0.1 F100
G3 X-16.25 Z-0.065 I-0.6 J0 F1000
X-15.05 Z-0.23 I0.6 J0
X-16.25 Z-0.395 I-0.6 J0
X-15.05 Z-0.56 I0.6 J0
X-16.25 Z-0.725 I-0.6 J0
X-15.05 Z-0.889 I0.6 J0
X-16.25 Z-1.054 I-0.6 J0
X-15.05 Z-1.219 I0.6 J0
X-16.25 Z-1.384 I-0.6 J0
X-15.05 Z-1.549 I0.6 J0
X-16.25 Z-1.714 I-0.6 J0
X-15.05 Z-1.879 I0.6 J0
X-16.25 Z-2.044 I-0.6 J0
X-15.05 Z-2.209 I0.6 J0
X-16.25 Z-2.374 I-0.6 J0
X-15.05 Z-2.539 I0.6 J0
X-16.25 Z-2.704 I-0.6 J0
X-15.05 Z-2.868 I0.6 J0
X-16.25 Z-3.033 I-0.6 J0
X-15.05 Z-3.198 I0.6 J0
X-16.25 Z-3.363 I-0.6 J0
X-15.05 Z-3.528 I0.6 J0
X-16.25 Z-3.693 I-0.6 J0
X-15.05 Z-3.858 I0.6 J0
X-16.25 Z-4.023 I-0.6 J0
X-15.05 Z-4.188 I0.6 J0
X-16.25 Z-4.353 I-0.6 J0
X-15.05 Z-4.518 I0.6 J0
X-15.65 Y22.6 Z-4.6 I-0.6 J0
Y21.4 I0 J-0.6
Y22.6 I0 J0.6
G0 Z5
X-21.4 Y15.65
Z2
G1 Z0.1 F100
G3 X-22.6 Z-0.065 I-0.6 J0 F1000
X-21.4 Z-0.23 I0.6 J0
X-22.6 Z-0.395 I-0.6 J0
X-21.4 Z-0.56 I0.6 J0
X-22.6 Z-0.725 I-0.6 J0
X-21.4 Z-0.889 I0.6 J0
X-22.6 Z-1.054 I-0.6 J0
X-21.4 Z-1.219 I0.6 J0
X-22.6 Z-1.384 I-0.6 J0
X-21.4 Z-1.549 I0.6 J0
X-22.6 Z-1.714 I-0.6 J0
X-21.4 Z-1.879 I0.6 J0
X-22.6 Z-2.044 I-0.6 J0
X-21.4 Z-2.209 I0.6 J0
X-22.6 Z-2.374 I-0.6 J0
X-21.4 Z-2.539 I0.6 J0
X-22.6 Z-2.704 I-0.6 J0
X-21.4 Z-2.868 I0.6 J0
X-22.6 Z-3.033 I-0.6 J0
X-21.4 Z-3.198 I0.6 J0
X-22.6 Z-3.363 I-0.6 J0
X-21.4 Z-3.528 I0.6 J0
X-22.6 Z-3.693 I-0.6 J0
X-21.4 Z-3.858 I0.6 J0
X-22.6 Z-4.023 I-0.6 J0
X-21.4 Z-4.188 I0.6 J0
X-22.6 Z-4.353 I-0.6 J0
X-21.4 Z-4.518 I0.6 J0
X-22 Y16.25 Z-4.6 I-0.6 J0
Y15.05 I0 J-0.6
Y16.25 I0 J0.6
G0 Z5
X-27.75 Y22
Z2
G1 Z0.1 F100
G3 X-28.95 Z-0.065 I-0.6 J0 F1000
X-27.75 Z-0.23 I0.6 J0
X-28.95 Z-0.395 I-0.6 J0
X-27.75 Z-0.56 I0.6 J0
X-28.95 Z-0.725 I-0.6 J0
X-27.75 Z-0.889 I0.6 J0
X-28.95 Z-1.054 I-0.6 J0
X-27.75 Z-1.219 I0.6 J0
X-28.95 Z-1.384 I-0.6 J0
X-27.75 Z-1.549 I0.6 J0
X-28.95 Z-1.714 I-0.6 J0
X-27.75 Z-1.879 I0.6 J0
X-28.95 Z-2.044 I-0.6 J0
X-27.75 Z-2.209 I0.6 J0
X-28.95 Z-2.374 I-0.6 J0
X-27.75 Z-2.539 I0.6 J0
X-28.95 Z-2.704 I-0.6 J0
X-27.75 Z-2.868 I0.6 J0
X-28.95 Z-3.033 I-0.6 J0
X-27.75 Z-3.198 I0.6 J0
X-28.95 Z-3.363 I-0.6 J0
X-27.75 Z-3.528 I0.6 J0
X-28.95 Z-3.693 I-0.6 J0
X-27.75 Z-3.858 I0.6 J0
X-28.95 Z-4.023 I-0.6 J0
X-27.75 Z-4.188 I0.6 J0
X-28.95 Z-4.353 I-0.6 J0
X-27.75 Z-4.518 I0.6 J0
X-28.35 Y22.6 Z-4.6 I-0.6 J0
Y21.4 I0 J-0.6
Y22.6 I0 J0.6
G0 Z5
X-36.661 Y29.575
Z2
G1 Z0.1 F100
G3 X-36.264 Y31.125 Z-0.12 I0.199 J0.775 F1000
X-36.661 Y29.575 Z-0.34 I-0.199 J-0.775
X-36.264 Y31.125 Z-0.56 I0.199 J0.775
X-36.661 Y29.575 Z-0.78 I-0.199 J-0.775
X-36.264 Y31.125 Z-0.999 I0.199 J0.775
X-36.661 Y29.575 Z-1.219 I-0.199 J-0.775
X-36.264 Y31.125 Z-1.439 I0.199 J0.775
X-36.661 Y29.575 Z-1.659 I-0.199 J-0.775
X-36.264 Y31.125 Z-1.879 I0.199 J0.775
X-36.661 Y29.575 Z-2.099 I-0.199 J-0.775
X-36.264 Y31.125 Z-2.319 I0.199 J0.775
X-36.661 Y29.575 Z-2.539 I-0.199 J-0.775
X-36.264 Y31.125 Z-2.758 I0.199 J0.775
X-36.661 Y29.575 Z-2.978 I-0.199 J-0.775
X-36.264 Y31.125 Z-3.198 I0.199 J0.775
X-36.661 Y29.575 Z-3.418 I-0.199 J-0.775
X-36.264 Y31.125 Z-3.638 I0.199 J0.775
X-36.661 Y29.575 Z-3.858 I-0.199 J-0.775
X-36.264 Y31.125 Z-4.078 I0.199 J0.775
X-36.661 Y29.575 Z-4.298 I-0.199 J-0.775
X-36.264 Y31.125 Z-4.518 I0.199 J0.775
X-37.103 Y30.83 Z-4.6 I-0.199 J-0.775
X-35.823 Y29.87 I0.64 J-0.48
X-37.103 Y30.83 I-0.64 J0.48
G0 Z5
X-21.261 Y39.006
Z2
G1 Z0.1 F100
G3 X-22.739 Y38.394 Z-0.12 I-0.739 J-0.306 F1000
X-21.261 Y39.006 Z-0.34 I0.739 J0.306
X-22.739 Y38.394 Z-0.56 I-0.739 J-0.306
X-21.261 Y39.006 Z-0.78 I0.739 J0.306
X-22.739 Y38.394 Z-0.999 I-0.739 J-0.306
X-21.261 Y39.006 Z-1.219 I0.739 J0.306
X-22.739 Y38.394 Z-1.439 I-0.739 J-0.306
X-21.261 Y39.006 Z-1.659 I0.739 J0.306
X-22.739 Y38.394 Z-1.879 I-0.739 J-0.306
X-21.261 Y39.006 Z-2.099 I0.739 J0.306
X-22.739 Y38.394 Z-2.319 I-0.739 J-0.306
X-21.261 Y39.006 Z-2.539 I0.739 J0.306
X-22.739 Y38.394 Z-2.758 I-0.739 J-0.306
X-21.261 Y39.006 Z-2.978 I0.739 J0.306
X-22.739 Y38.394 Z-3.198 I-0.739 J-0.306
X-21.261 Y39.006 Z-3.418 I0.739 J0.306
X-22.739 Y38.394 Z-3.638 I-0.739 J-0.306
X-21.261 Y39.006 Z-3.858 I0.739 J0.306
X-22.739 Y38.394 Z-4.078 I-0.739 J-0.306
X-21.261 Y39.006 Z-4.298 I0.739 J0.306
X-22.739 Y38.394 Z-4.518 I-0.739 J-0.306
X-22 Y37.9 Z-4.6 I0.739 J0.306
Y39.5 I0 J0.8
Y37.9 I0 J-0.8
G0 Z5
X-6.798 Y30.656
Z2
G1 Z0.1 F100
G3 X-8.276 Y30.044 Z-0.12 I-0.739 J-0.306 F1000
X-6.798 Y30.656 Z-0.34 I0.739 J0.306
X-8.276 Y30.044 Z-0.56 I-0.739 J-0.306
X-6.798 Y30.656 Z-0.78 I0.739 J0.306
X-8.276 Y30.044 Z-0.999 I-0.739 J-0.306
X-6.798 Y30.656 Z-1.219 I0.739 J0.306
X-8.276 Y30.044 Z-1.439 I-0.739 J-0.306
X-6.798 Y30.656 Z-1.659 I0.739 J0.306
X-8.276 Y30.044 Z-1.879 I-0.739 J-0.306
X-6.798 Y30.656 Z-2.099 I0.739 J0.306
X-8.276 Y30.044 Z-2.319 I-0.739 J-0.306
X-6.798 Y30.656 Z-2.539 I0.739 J0.306
X-8.276 Y30.044 Z-2.758 I-0.739 J-0.306
X-6.798 Y30.656 Z-2.978 I0.739 J0.306
X-8.276 Y30.044 Z-3.198 I-0.739 J-0.306
X-6.798 Y30.656 Z-3.418 I0.739 J0.306
X-8.276 Y30.044 Z-3.638 I-0.739 J-0.306
X-6.798 Y30.656 Z-3.858 I0.739 J0.306
X-8.276 Y30.044 Z-4.078 I-0.739 J-0.306
X-6.798 Y30.656 Z-4.298 I0.739 J0.306
X-8.276 Y30.044 Z-4.518 I-0.739 J-0.306
X-7.537 Y29.55 Z-4.6 I0.739 J0.306
Y31.15 I0 J0.8
Y29.55 I0 J-0.8
G0 Z5
X-6.798 Y13.956
Z2
G1 Z0.1 F100
G3 X-8.276 Y13.344 Z-0.12 I-0.739 J-0.306 F1000
X-6.798 Y13.956 Z-0.34 I0.739 J0.306
X-8.276 Y13.344 Z-0.56 I-0.739 J-0.306
X-6.798 Y13.956 Z-0.78 I0.739 J0.306
X-8.276 Y13.344 Z-0.999 I-0.739 J-0.306
X-6.798 Y13.956 Z-1.219 I0.739 J0.306
X-8.276 Y13.344 Z-1.439 I-0.739 J-0.306
X-6.798 Y13.956 Z-1.659 I0.739 J0.306
X-8.276 Y13.344 Z-1.879 I-0.739 J-0.306
X-6.798 Y13.956 Z-2.099 I0.739 J0.306
X-8.276 Y13.344 Z-2.319 I-0.739 J-0.306
X-6.798 Y13.956 Z-2.539 I0.739 J0.306
X-8.276 Y13.344 Z-2.758 I-0.739 J-0.306
X-6.798 Y13.956 Z-2.978 I0.739 J0.306
X-8.276 Y13.344 Z-3.198 I-0.739 J-0.306
X-6.798 Y13.956 Z-3.418 I0.739 J0.306
X-8.276 Y13.344 Z-3.638 I-0.739 J-0.306
X-6.798 Y13.956 Z-3.858 I0.739 J0.306
X-8.276 Y13.344 Z-4.078 I-0.739 J-0.306
X-6.798 Y13.956 Z-4.298 I0.739 J0.306
X-8.276 Y13.344 Z-4.518 I-0.739 J-0.306
X-7.537 Y12.85 Z-4.6 I0.739 J0.306
Y14.45 I0 J0.8
Y12.85 I0 J-0.8
G0 Z5
X-21.261 Y5.606
Z2
G1 Z0.1 F100
G3 X-22.739 Y4.994 Z-0.12 I-0.739 J-0.306 F1000
X-21.261 Y5.606 Z-0.34 I0.739 J0.306
X-22.739 Y4.994 Z-0.56 I-0.739 J-0.306
X-21.261 Y5.606 Z-0.78 I0.739 J0.306
X-22.739 Y4.994 Z-0.999 I-0.739 J-0.306
X-21.261 Y5.606 Z-1.219 I0.739 J0.306
X-22.739 Y4.994 Z-1.439 I-0.739 J-0.306
X-21.261 Y5.606 Z-1.659 I0.739 J0.306
X-22.739 Y4.994 Z-1.879 I-0.739 J-0.306
X-21.261 Y5.606 Z-2.099 I0.739 J0.306
X-22.739 Y4.994 Z-2.319 I-0.739 J-0.306
X-21.261 Y5.606 Z-2.539 I0.739 J0.306
X-22.739 Y4.994 Z-2.758 I-0.739 J-0.306
X-21.261 Y5.606 Z-2.978 I0.739 J0.306
X-22.739 Y4.994 Z-3.198 I-0.739 J-0.306
X-21.261 Y5.606 Z-3.418 I0.739 J0.306
X-22.739 Y4.994 Z-3.638 I-0.739 J-0.306
X-21.261 Y5.606 Z-3.858 I0.739 J0.306
X-22.739 Y4.994 Z-4.078 I-0.739 J-0.306
X-21.261 Y5.606 Z-4.298 I0.739 J0.306
X-22.739 Y4.994 Z-4.518 I-0.739 J-0.306
X-22 Y4.5 Z-4.6 I0.739 J0.306
Y6.1 I0 J0.8
Y4.5 I0 J-0.8
G0 Z5
X-36.661 Y12.875
Z2
G1 Z0.1 F100
G3 X-36.264 Y14.425 Z-0.12 I0.199 J0.775 F1000
X-36.661 Y12.875 Z-0.34 I-0.199 J-0.775
X-36.264 Y14.425 Z-0.56 I0.199 J0.775
X-36.661 Y12.875 Z-0.78 I-0.199 J-0.775
X-36.264 Y14.425 Z-0.999 I0.199 J0.775
X-36.661 Y12.875 Z-1.219 I-0.199 J-0.775
X-36.264 Y14.425 Z-1.439 I0.199 J0.775
X-36.661 Y12.875 Z-1.659 I-0.199 J-0.775
X-36.264 Y14.425 Z-1.879 I0.199 J0.775
X-36.661 Y12.875 Z-2.099 I-0.199 J-0.775
X-36.264 Y14.425 Z-2.319 I0.199 J0.775
X-36.661 Y12.875 Z-2.539 I-0.199 J-0.775
X-36.264 Y14.425 Z-2.758 I0.199 J0.775
X-36.661 Y12.875 Z-2.978 I-0.199 J-0.775
X-36.264 Y14.425 Z-3.198 I0.199 J0.775
X-36.661 Y12.875 Z-3.418 I-0.199 J-0.775
X-36.264 Y14.425 Z-3.638 I0.199 J0.775
X-36.661 Y12.875 Z-3.858 I-0.199 J-0.775
X-36.264 Y14.425 Z-4.078 I0.199 J0.775
X-36.661 Y12.875 Z-4.298 I-0.199 J-0.775
X-36.264 Y14.425 Z-4.518 I0.199 J0.775
X-37.103 Y14.13 Z-4.6 I-0.199 J-0.775
X-35.823 Y13.17 I0.64 J-0.48
X-37.103 Y14.13 I-0.64 J0.48
G0 Z15

M9
M30
