(2MM FLAT HOLES)
(T28  D=6 CR=0 TAPER=45DEG - ZMIN=-3.3 - CHAMFER MILL)
G90 G94 G91.1 G40 G49 G17
G21

(6MM CHAMFER HOLE CHAMFERS)
M5
M9
T28
(4 FLUTE FISH)
S20000 M3
G54
M8
G0 X-28.35 Y22
G43 Z15 H26
Z5
Z2
G1 Z-0.1 F20
G0 Z0.02
G1 Z-0.2 F20
G0 Z-0.08
G1 Z-0.3 F20
G0 Z-0.18
G1 Z-0.4 F20
G0 Z-0.28
G1 Z-0.5 F20
G0 Z-0.38
G1 Z-0.6 F20
G0 Z-0.48
G1 Z-0.7 F20
G0 Z-0.58
G1 Z-0.8 F20
G0 Z-0.68
G1 Z-0.9 F20
G0 Z-0.78
G1 Z-1 F20
G0 Z-0.88
G1 Z-1.1 F20
G0 Z-0.98
G1 Z-1.2 F20
G0 Z-1.08
G1 Z-1.3 F20
G0 Z-1.18
G1 Z-1.4 F20
G0 Z-1.28
G1 Z-1.5 F20
G0 Z-1.38
G1 Z-1.6 F20
G0 Z-1.48
G1 Z-1.7 F20
G0 Z-1.58
G1 Z-1.8 F20
G0 Z-1.68
G1 Z-1.9 F20
G0 Z-1.78
G1 Z-2 F20
G0 Z-1.88
G1 Z-2.1 F20
G0 Z-1.98
G1 Z-2.2 F20
G0 Z-2.08
G1 Z-2.3 F20
G0 Z-2.18
G1 Z-2.4 F20
G0 Z-2.28
G1 Z-2.5 F20
G0 Z-2.38
G1 Z-2.6 F20
G0 Z-2.48
G1 Z-2.7 F20
G0 Z-2.58
G1 Z-2.8 F20
G0 Z-2.68
G1 Z-2.9 F20
G0 Z-2.78
G1 Z-3 F20
G0 Z-2.88
G1 Z-3.1 F20
G0 Z-2.98
G1 Z-3.2 F20
G0 Z-3.08
G1 Z-3.3 F20
G4 P2
G0 Z5
X-22 Y28.35
Z2
G1 Z-0.1 F20
G0 Z0.02
G1 Z-0.2 F20
G0 Z-0.08
G1 Z-0.3 F20
G0 Z-0.18
G1 Z-0.4 F20
G0 Z-0.28
G1 Z-0.5 F20
G0 Z-0.38
G1 Z-0.6 F20
G0 Z-0.48
G1 Z-0.7 F20
G0 Z-0.58
G1 Z-0.8 F20
G0 Z-0.68
G1 Z-0.9 F20
G0 Z-0.78
G1 Z-1 F20
G0 Z-0.88
G1 Z-1.1 F20
G0 Z-0.98
G1 Z-1.2 F20
G0 Z-1.08
G1 Z-1.3 F20
G0 Z-1.18
G1 Z-1.4 F20
G0 Z-1.28
G1 Z-1.5 F20
G0 Z-1.38
G1 Z-1.6 F20
G0 Z-1.48
G1 Z-1.7 F20
G0 Z-1.58
G1 Z-1.8 F20
G0 Z-1.68
G1 Z-1.9 F20
G0 Z-1.78
G1 Z-2 F20
G0 Z-1.88
G1 Z-2.1 F20
G0 Z-1.98
G1 Z-2.2 F20
G0 Z-2.08
G1 Z-2.3 F20
G0 Z-2.18
G1 Z-2.4 F20
G0 Z-2.28
G1 Z-2.5 F20
G0 Z-2.38
G1 Z-2.6 F20
G0 Z-2.48
G1 Z-2.7 F20
G0 Z-2.58
G1 Z-2.8 F20
G0 Z-2.68
G1 Z-2.9 F20
G0 Z-2.78
G1 Z-3 F20
G0 Z-2.88
G1 Z-3.1 F20
G0 Z-2.98
G1 Z-3.2 F20
G0 Z-3.08
G1 Z-3.3 F20
G4 P2
G0 Z5
X-15.65 Y22
Z2
G1 Z-0.1 F20
G0 Z0.02
G1 Z-0.2 F20
G0 Z-0.08
G1 Z-0.3 F20
G0 Z-0.18
G1 Z-0.4 F20
G0 Z-0.28
G1 Z-0.5 F20
G0 Z-0.38
G1 Z-0.6 F20
G0 Z-0.48
G1 Z-0.7 F20
G0 Z-0.58
G1 Z-0.8 F20
G0 Z-0.68
G1 Z-0.9 F20
G0 Z-0.78
G1 Z-1 F20
G0 Z-0.88
G1 Z-1.1 F20
G0 Z-0.98
G1 Z-1.2 F20
G0 Z-1.08
G1 Z-1.3 F20
G0 Z-1.18
G1 Z-1.4 F20
G0 Z-1.28
G1 Z-1.5 F20
G0 Z-1.38
G1 Z-1.6 F20
G0 Z-1.48
G1 Z-1.7 F20
G0 Z-1.58
G1 Z-1.8 F20
G0 Z-1.68
G1 Z-1.9 F20
G0 Z-1.78
G1 Z-2 F20
G0 Z-1.88
G1 Z-2.1 F20
G0 Z-1.98
G1 Z-2.2 F20
G0 Z-2.08
G1 Z-2.3 F20
G0 Z-2.18
G1 Z-2.4 F20
G0 Z-2.28
G1 Z-2.5 F20
G0 Z-2.38
G1 Z-2.6 F20
G0 Z-2.48
G1 Z-2.7 F20
G0 Z-2.58
G1 Z-2.8 F20
G0 Z-2.68
G1 Z-2.9 F20
G0 Z-2.78
G1 Z-3 F20
G0 Z-2.88
G1 Z-3.1 F20
G0 Z-2.98
G1 Z-3.2 F20
G0 Z-3.08
G1 Z-3.3 F20
G4 P2
G0 Z5
X-22 Y15.65
Z2
G1 Z-0.1 F20
G0 Z0.02
G1 Z-0.2 F20
G0 Z-0.08
G1 Z-0.3 F20
G0 Z-0.18
G1 Z-0.4 F20
G0 Z-0.28
G1 Z-0.5 F20
G0 Z-0.38
G1 Z-0.6 F20
G0 Z-0.48
G1 Z-0.7 F20
G0 Z-0.58
G1 Z-0.8 F20
G0 Z-0.68
G1 Z-0.9 F20
G0 Z-0.78
G1 Z-1 F20
G0 Z-0.88
G1 Z-1.1 F20
G0 Z-0.98
G1 Z-1.2 F20
G0 Z-1.08
G1 Z-1.3 F20
G0 Z-1.18
G1 Z-1.4 F20
G0 Z-1.28
G1 Z-1.5 F20
G0 Z-1.38
G1 Z-1.6 F20
G0 Z-1.48
G1 Z-1.7 F20
G0 Z-1.58
G1 Z-1.8 F20
G0 Z-1.68
G1 Z-1.9 F20
G0 Z-1.78
G1 Z-2 F20
G0 Z-1.88
G1 Z-2.1 F20
G0 Z-1.98
G1 Z-2.2 F20
G0 Z-2.08
G1 Z-2.3 F20
G0 Z-2.18
G1 Z-2.4 F20
G0 Z-2.28
G1 Z-2.5 F20
G0 Z-2.38
G1 Z-2.6 F20
G0 Z-2.48
G1 Z-2.7 F20
G0 Z-2.58
G1 Z-2.8 F20
G0 Z-2.68
G1 Z-2.9 F20
G0 Z-2.78
G1 Z-3 F20
G0 Z-2.88
G1 Z-3.1 F20
G0 Z-2.98
G1 Z-3.2 F20
G0 Z-3.08
G1 Z-3.3 F20
G4 P2
G0 Z5
Z15

M9
M30
