(2MM FLAT HOLES)
(T11  D=2 CR=0 - ZMIN=-4.6 - FLAT END MILL)
G90 G94 G91.1 G40 G49 G17
G21

(2MM FLAT INSIDE)
M5
M9
T11
(DIAMOND OR SPIRAL)
S20000 M3
G54
M8
G0 X-12.413 Y18.197
G43 Z15 H1
Z2
G1 Z0.1 F100
X-9.539 Y16.538 Z0.066 F1000
G2 X-3.764 Y13.788 Z-0.014 I2.132 J-2.963
G3 Y30.212 Z-0.186 I-18.236 J8.212
G2 X-9.539 Y27.462 Z-0.266 I-3.644 J0.213
G1 X-12.947 Y25.494 Z-0.306
X-13.342 Y25.267 Z-0.311
G2 Y18.733 Z-0.389 I-2.308 J-3.267
G1 X-12.947 Y18.506 Z-0.394
X-9.539 Y16.538 Z-0.434
G2 X-3.764 Y13.788 Z-0.514 I2.132 J-2.963
G3 Y30.212 Z-0.686 I-18.236 J8.212
G2 X-9.539 Y27.462 Z-0.766 I-3.644 J0.213
G1 X-12.947 Y25.494 Z-0.806
X-13.342 Y25.267 Z-0.811
G2 Y18.733 Z-0.889 I-2.308 J-3.267
G1 X-12.947 Y18.506 Z-0.894
X-9.539 Y16.538 Z-0.934
G2 X-3.764 Y13.788 Z-1.014 I2.132 J-2.963
G3 Y30.212 Z-1.186 I-18.236 J8.212
G2 X-9.539 Y27.462 Z-1.266 I-3.644 J0.213
G1 X-12.947 Y25.494 Z-1.306
X-13.342 Y25.267 Z-1.311
G2 Y18.733 Z-1.389 I-2.308 J-3.267
G1 X-12.947 Y18.506 Z-1.394
X-9.539 Y16.538 Z-1.434
G2 X-3.764 Y13.788 Z-1.514 I2.132 J-2.963
G3 Y30.212 Z-1.686 I-18.236 J8.212
G2 X-9.539 Y27.462 Z-1.766 I-3.644 J0.213
G1 X-12.947 Y25.494 Z-1.806
X-13.342 Y25.267 Z-1.811
G2 Y18.733 Z-1.889 I-2.308 J-3.267
G1 X-12.947 Y18.506 Z-1.894
X-9.539 Y16.538 Z-1.934
G2 X-3.764 Y13.788 Z-2.014 I2.132 J-2.963
G3 Y30.212 Z-2.186 I-18.236 J8.212
G2 X-9.539 Y27.462 Z-2.266 I-3.644 J0.213
G1 X-12.947 Y25.494 Z-2.306
X-13.342 Y25.267 Z-2.311
G2 Y18.733 Z-2.389 I-2.308 J-3.267
G1 X-12.947 Y18.506 Z-2.394
X-9.539 Y16.538 Z-2.434
G2 X-3.764 Y13.788 Z-2.514 I2.132 J-2.963
G3 Y30.212 Z-2.686 I-18.236 J8.212
G2 X-9.539 Y27.462 Z-2.766 I-3.644 J0.213
G1 X-12.947 Y25.494 Z-2.806
X-13.342 Y25.267 Z-2.811
G2 Y18.733 Z-2.889 I-2.308 J-3.267
G1 X-12.947 Y18.506 Z-2.894
X-9.539 Y16.538 Z-2.934
G2 X-3.764 Y13.788 Z-3.014 I2.132 J-2.963
G3 Y30.212 Z-3.186 I-18.236 J8.212
G2 X-9.539 Y27.462 Z-3.266 I-3.644 J0.213
G1 X-12.947 Y25.494 Z-3.306
X-13.342 Y25.267 Z-3.311
G2 Y18.733 Z-3.389 I-2.308 J-3.267
G1 X-12.947 Y18.506 Z-3.394
X-9.539 Y16.538 Z-3.434
G2 X-3.764 Y13.788 Z-3.514 I2.132 J-2.963
G3 Y30.212 Z-3.686 I-18.236 J8.212
G2 X-9.539 Y27.462 Z-3.766 I-3.644 J0.213
G1 X-12.947 Y25.494 Z-3.806
X-13.342 Y25.267 Z-3.811
G2 Y18.733 Z-3.889 I-2.308 J-3.267
G1 X-12.947 Y18.506 Z-3.894
X-9.539 Y16.538 Z-3.934
G2 X-3.764 Y13.788 Z-4.014 I2.132 J-2.963
G3 Y30.212 Z-4.186 I-18.236 J8.212
G2 X-9.539 Y27.462 Z-4.266 I-3.644 J0.213
G1 X-12.947 Y25.494 Z-4.306
X-13.342 Y25.267 Z-4.311
G2 Y18.733 Z-4.389 I-2.308 J-3.267
G1 X-12.947 Y18.506 Z-4.394
X-9.539 Y16.538 Z-4.434
G2 X-3.764 Y13.788 Z-4.514 I2.132 J-2.963
G3 X-2 Y22 Z-4.6 I-18.236 J8.212
X-3.764 Y30.212 I-20 J0
G2 X-9.539 Y27.462 I-3.644 J0.213
G1 X-12.947 Y25.494
X-13.342 Y25.267
G2 Y18.733 I-2.308 J-3.267
G1 X-12.947 Y18.506
X-9.539 Y16.538
G2 X-3.764 Y13.788 I2.132 J-2.963
G3 X-2 Y22 I-18.236 J8.212
G0 Z15

M9
M30
