(2MM FLAT HOLES)
(T11  D=2 CR=0 - ZMIN=-4.6 - FLAT END MILL)
G90 G94 G91.1 G40 G49 G17
G21

(2MM FLAT INSIDE)
M5
M9
T11
(DIAMOND OR SPIRAL)
S20000 M3
G54
M8
G0 X-23.5 Y8.715
G43 Z15 H1
Z2
G1 Z0.1 F100
Y11.942 Z0.069 F1000
G2 X-25.508 Y17.571 Z0.003 I1.5 J3.708
X-25.967 Y17.977 Z-0.003 I3.509 J4.428
G1 X-29.553 Y15.907 Z-0.043
X-32.961 Y13.94 Z-0.081
G2 X-38.23 Y10.313 Z-0.157 I-3.632 J-0.365
G3 X-24.006 Y2.101 Z-0.322 I16.23 J11.687
G2 X-23.5 Y8.478 Z-0.398 I2.006 J3.049
G1 Y11.942 Z-0.431
G2 X-25.508 Y17.571 Z-0.497 I1.5 J3.708
X-25.967 Y17.977 Z-0.503 I3.509 J4.428
G1 X-29.553 Y15.907 Z-0.543
X-32.961 Y13.94 Z-0.581
G2 X-38.23 Y10.313 Z-0.657 I-3.632 J-0.365
G3 X-24.006 Y2.101 Z-0.822 I16.23 J11.687
G2 X-23.5 Y8.478 Z-0.898 I2.006 J3.049
G1 Y11.942 Z-0.931
G2 X-25.508 Y17.571 Z-0.997 I1.5 J3.708
X-25.967 Y17.977 Z-1.003 I3.509 J4.428
G1 X-29.553 Y15.907 Z-1.043
X-32.961 Y13.94 Z-1.081
G2 X-38.23 Y10.313 Z-1.157 I-3.632 J-0.365
G3 X-24.006 Y2.101 Z-1.322 I16.23 J11.687
G2 X-23.5 Y8.478 Z-1.398 I2.006 J3.049
G1 Y11.942 Z-1.431
G2 X-25.508 Y17.571 Z-1.497 I1.5 J3.708
X-25.967 Y17.977 Z-1.503 I3.509 J4.428
G1 X-29.553 Y15.907 Z-1.543
X-32.961 Y13.94 Z-1.581
G2 X-38.23 Y10.313 Z-1.657 I-3.632 J-0.365
G3 X-24.006 Y2.101 Z-1.822 I16.23 J11.687
G2 X-23.5 Y8.478 Z-1.898 I2.006 J3.049
G1 Y11.942 Z-1.931
G2 X-25.508 Y17.571 Z-1.997 I1.5 J3.708
X-25.967 Y17.977 Z-2.003 I3.509 J4.428
G1 X-29.553 Y15.907 Z-2.043
X-32.961 Y13.94 Z-2.081
G2 X-38.23 Y10.313 Z-2.157 I-3.632 J-0.365
G3 X-24.006 Y2.101 Z-2.322 I16.23 J11.687
G2 X-23.5 Y8.478 Z-2.398 I2.006 J3.049
G1 Y11.942 Z-2.431
G2 X-25.508 Y17.571 Z-2.497 I1.5 J3.708
X-25.967 Y17.977 Z-2.503 I3.509 J4.428
G1 X-29.553 Y15.907 Z-2.543
X-32.961 Y13.94 Z-2.581
G2 X-38.23 Y10.313 Z-2.657 I-3.632 J-0.365
G3 X-24.006 Y2.101 Z-2.822 I16.23 J11.687
G2 X-23.5 Y8.478 Z-2.898 I2.006 J3.049
G1 Y11.942 Z-2.931
G2 X-25.508 Y17.571 Z-2.997 I1.5 J3.708
X-25.967 Y17.977 Z-3.003 I3.509 J4.428
G1 X-29.553 Y15.907 Z-3.043
X-32.961 Y13.94 Z-3.081
G2 X-38.23 Y10.313 Z-3.157 I-3.632 J-0.365
G3 X-24.006 Y2.101 Z-3.322 I16.23 J11.687
G2 X-23.5 Y8.478 Z-3.398 I2.006 J3.049
G1 Y11.942 Z-3.431
G2 X-25.508 Y17.571 Z-3.497 I1.5 J3.708
X-25.967 Y17.977 Z-3.503 I3.509 J4.428
G1 X-29.553 Y15.907 Z-3.543
X-32.961 Y13.94 Z-3.581
G2 X-38.23 Y10.313 Z-3.657 I-3.632 J-0.365
G3 X-24.006 Y2.101 Z-3.822 I16.23 J11.687
G2 X-23.5 Y8.478 Z-3.898 I2.006 J3.049
G1 Y11.942 Z-3.931
G2 X-25.508 Y17.571 Z-3.997 I1.5 J3.708
X-25.967 Y17.977 Z-4.003 I3.509 J4.428
G1 X-29.553 Y15.907 Z-4.043
X-32.961 Y13.94 Z-4.081
G2 X-38.23 Y10.313 Z-4.157 I-3.632 J-0.365
G3 X-24.006 Y2.101 Z-4.322 I16.23 J11.687
G2 X-23.5 Y8.478 Z-4.398 I2.006 J3.049
G1 Y11.942 Z-4.431
G2 X-25.508 Y17.571 Z-4.497 I1.5 J3.708
X-25.967 Y17.977 Z-4.503 I3.509 J4.428
G1 X-29.553 Y15.907 Z-4.543
X-32.961 Y13.94 Z-4.581
G2 X-33.262 Y12.082 Z-4.6 I-3.632 J-0.365
X-38.23 Y10.313 I-3.331 J1.493
G3 X-24.006 Y2.101 I16.23 J11.687
G2 X-23.5 Y8.478 I2.006 J3.049
G1 Y11.942
G2 X-25.508 Y17.571 I1.5 J3.708
X-25.967 Y17.977 I3.509 J4.428
G1 X-29.553 Y15.907
X-32.961 Y13.94
G2 X-33.262 Y12.082 I-3.632 J-0.365
G0 Z15

M9
M30
