(2MM FLAT HOLES)
(T11  D=2 CR=0 - ZMIN=-4.6 - FLAT END MILL)
G90 G94 G91.1 G40 G49 G17
G21

(2MM FLAT INSIDE)
M5
M9
T11
(DIAMOND OR SPIRAL)
S20000 M3
G54
M8
G0 X-36.661 Y8.397
G43 Z15 H1
Z2
G1 Z0.1 F100
G3 X-24.059 Y2.106 Z-0.04 I14.661 J13.603 F1000
G2 X-23.5 Y8.791 Z-0.119 I2.059 J3.194
G1 Y11.942 Z-0.15
G2 X-25.508 Y17.571 Z-0.215 I1.5 J3.708
X-25.967 Y17.977 Z-0.221 I3.509 J4.428
G1 X-29.553 Y15.907 Z-0.262
X-32.689 Y14.097 Z-0.297
G2 X-38.199 Y10.27 Z-0.376 I-3.774 J-0.447
G3 X-24.059 Y2.106 Z-0.54 I16.199 J11.73
G2 X-23.5 Y8.791 Z-0.619 I2.059 J3.194
G1 Y11.942 Z-0.65
G2 X-25.508 Y17.571 Z-0.715 I1.5 J3.708
X-25.967 Y17.977 Z-0.721 I3.509 J4.428
G1 X-29.553 Y15.907 Z-0.762
X-32.689 Y14.097 Z-0.797
G2 X-38.199 Y10.27 Z-0.876 I-3.774 J-0.447
G3 X-24.059 Y2.106 Z-1.04 I16.199 J11.73
G2 X-23.5 Y8.791 Z-1.119 I2.059 J3.194
G1 Y11.942 Z-1.15
G2 X-25.508 Y17.571 Z-1.215 I1.5 J3.708
X-25.967 Y17.977 Z-1.221 I3.509 J4.428
G1 X-29.553 Y15.907 Z-1.262
X-32.689 Y14.097 Z-1.297
G2 X-38.199 Y10.27 Z-1.376 I-3.774 J-0.447
G3 X-24.059 Y2.106 Z-1.54 I16.199 J11.73
G2 X-23.5 Y8.791 Z-1.619 I2.059 J3.194
G1 Y11.942 Z-1.65
G2 X-25.508 Y17.571 Z-1.715 I1.5 J3.708
X-25.967 Y17.977 Z-1.721 I3.509 J4.428
G1 X-29.553 Y15.907 Z-1.762
X-32.689 Y14.097 Z-1.797
G2 X-38.199 Y10.27 Z-1.876 I-3.774 J-0.447
G3 X-24.059 Y2.106 Z-2.04 I16.199 J11.73
G2 X-23.5 Y8.791 Z-2.119 I2.059 J3.194
G1 Y11.942 Z-2.15
G2 X-25.508 Y17.571 Z-2.215 I1.5 J3.708
X-25.967 Y17.977 Z-2.221 I3.509 J4.428
G1 X-29.553 Y15.907 Z-2.262
X-32.689 Y14.097 Z-2.297
G2 X-38.199 Y10.27 Z-2.376 I-3.774 J-0.447
G3 X-24.059 Y2.106 Z-2.54 I16.199 J11.73
G2 X-23.5 Y8.791 Z-2.619 I2.059 J3.194
G1 Y11.942 Z-2.65
G2 X-25.508 Y17.571 Z-2.715 I1.5 J3.708
X-25.967 Y17.977 Z-2.721 I3.509 J4.428
G1 X-29.553 Y15.907 Z-2.762
X-32.689 Y14.097 Z-2.797
G2 X-38.199 Y10.27 Z-2.876 I-3.774 J-0.447
G3 X-24.059 Y2.106 Z-3.04 I16.199 J11.73
G2 X-23.5 Y8.791 Z-3.119 I2.059 J3.194
G1 Y11.942 Z-3.15
G2 X-25.508 Y17.571 Z-3.215 I1.5 J3.708
X-25.967 Y17.977 Z-3.221 I3.509 J4.428
G1 X-29.553 Y15.907 Z-3.262
X-32.689 Y14.097 Z-3.297
G2 X-38.199 Y10.27 Z-3.376 I-3.774 J-0.447
G3 X-24.059 Y2.106 Z-3.54 I16.199 J11.73
G2 X-23.5 Y8.791 Z-3.619 I2.059 J3.194
G1 Y11.942 Z-3.65
G2 X-25.508 Y17.571 Z-3.715 I1.5 J3.708
X-25.967 Y17.977 Z-3.721 I3.509 J4.428
G1 X-29.553 Y15.907 Z-3.762
X-32.689 Y14.097 Z-3.797
G2 X-38.199 Y10.27 Z-3.876 I-3.774 J-0.447
G3 X-24.059 Y2.106 Z-4.04 I16.199 J11.73
G2 X-23.5 Y8.791 Z-4.119 I2.059 J3.194
G1 Y11.942 Z-4.15
G2 X-25.508 Y17.571 Z-4.215 I1.5 J3.708
X-25.967 Y17.977 Z-4.221 I3.509 J4.428
G1 X-29.553 Y15.907 Z-4.262
X-32.689 Y14.097 Z-4.297
G2 X-38.199 Y10.27 Z-4.376 I-3.774 J-0.447
G3 X-24.059 Y2.106 Z-4.54 I16.199 J11.73
G2 X-25.051 Y7.565 Z-4.6 I2.059 J3.194
X-23.5 Y8.791 I3.051 J-2.265
G1 Y11.942
G2 X-25.508 Y17.571 I1.5 J3.708
X-25.967 Y17.977 I3.509 J4.428
G1 X-29.553 Y15.907
X-32.689 Y14.097
G2 X-38.199 Y10.27 I-3.774 J-0.447
G3 X-24.059 Y2.106 I16.199 J11.73
G2 X-25.051 Y7.565 I2.059 J3.194
G0 Z5
X-17.55 Y2.501
Z2
G1 Z0.1 F100
G3 X-5.801 Y10.27 Z-0.04 I-4.45 J19.499 F1000
G2 X-11.311 Y14.097 Z-0.119 I-1.736 J3.38
G1 X-14.447 Y15.907 Z-0.155
X-18.032 Y17.977 Z-0.195
G2 X-18.492 Y17.571 Z-0.201 I-3.967 J4.023
X-20.5 Y11.942 Z-0.266 I-3.508 J-1.921
G1 Y8.791 Z-0.297
G2 X-19.941 Y2.106 Z-0.376 I-1.5 J-3.491
G3 X-5.801 Y10.27 Z-0.54 I-2.059 J19.894
G2 X-11.311 Y14.097 Z-0.619 I-1.736 J3.38
G1 X-14.447 Y15.907 Z-0.655
X-18.032 Y17.977 Z-0.695
G2 X-18.492 Y17.571 Z-0.701 I-3.967 J4.023
X-20.5 Y11.942 Z-0.766 I-3.508 J-1.921
G1 Y8.791 Z-0.797
G2 X-19.941 Y2.106 Z-0.876 I-1.5 J-3.491
G3 X-5.801 Y10.27 Z-1.04 I-2.059 J19.894
G2 X-11.311 Y14.097 Z-1.119 I-1.736 J3.38
G1 X-14.447 Y15.907 Z-1.155
X-18.032 Y17.977 Z-1.195
G2 X-18.492 Y17.571 Z-1.201 I-3.967 J4.023
X-20.5 Y11.942 Z-1.266 I-3.508 J-1.921
G1 Y8.791 Z-1.297
G2 X-19.941 Y2.106 Z-1.376 I-1.5 J-3.491
G3 X-5.801 Y10.27 Z-1.54 I-2.059 J19.894
G2 X-11.311 Y14.097 Z-1.619 I-1.736 J3.38
G1 X-14.447 Y15.907 Z-1.655
X-18.032 Y17.977 Z-1.695
G2 X-18.492 Y17.571 Z-1.701 I-3.967 J4.023
X-20.5 Y11.942 Z-1.766 I-3.508 J-1.921
G1 Y8.791 Z-1.797
G2 X-19.941 Y2.106 Z-1.876 I-1.5 J-3.491
G3 X-5.801 Y10.27 Z-2.04 I-2.059 J19.894
G2 X-11.311 Y14.097 Z-2.119 I-1.736 J3.38
G1 X-14.447 Y15.907 Z-2.155
X-18.032 Y17.977 Z-2.195
G2 X-18.492 Y17.571 Z-2.201 I-3.967 J4.023
X-20.5 Y11.942 Z-2.266 I-3.508 J-1.921
G1 Y8.791 Z-2.297
G2 X-19.941 Y2.106 Z-2.376 I-1.5 J-3.491
G3 X-5.801 Y10.27 Z-2.54 I-2.059 J19.894
G2 X-11.311 Y14.097 Z-2.619 I-1.736 J3.38
G1 X-14.447 Y15.907 Z-2.655
X-18.032 Y17.977 Z-2.695
G2 X-18.492 Y17.571 Z-2.701 I-3.967 J4.023
X-20.5 Y11.942 Z-2.766 I-3.508 J-1.921
G1 Y8.791 Z-2.797
G2 X-19.941 Y2.106 Z-2.876 I-1.5 J-3.491
G3 X-5.801 Y10.27 Z-3.04 I-2.059 J19.894
G2 X-11.311 Y14.097 Z-3.119 I-1.736 J3.38
G1 X-14.447 Y15.907 Z-3.155
X-18.032 Y17.977 Z-3.195
G2 X-18.492 Y17.571 Z-3.201 I-3.967 J4.023
X-20.5 Y11.942 Z-3.266 I-3.508 J-1.921
G1 Y8.791 Z-3.297
G2 X-19.941 Y2.106 Z-3.376 I-1.5 J-3.491
G3 X-5.801 Y10.27 Z-3.54 I-2.059 J19.894
G2 X-11.311 Y14.097 Z-3.619 I-1.736 J3.38
G1 X-14.447 Y15.907 Z-3.655
X-18.032 Y17.977 Z-3.695
G2 X-18.492 Y17.571 Z-3.701 I-3.967 J4.023
X-20.5 Y11.942 Z-3.766 I-3.508 J-1.921
G1 Y8.791 Z-3.797
G2 X-19.941 Y2.106 Z-3.876 I-1.5 J-3.491
G3 X-5.801 Y10.27 Z-4.04 I-2.059 J19.894
G2 X-11.311 Y14.097 Z-4.119 I-1.736 J3.38
G1 X-14.447 Y15.907 Z-4.155
X-18.032 Y17.977 Z-4.195
G2 X-18.492 Y17.571 Z-4.201 I-3.967 J4.023
X-20.5 Y11.942 Z-4.266 I-3.508 J-1.921
G1 Y8.791 Z-4.297
G2 X-19.941 Y2.106 Z-4.376 I-1.5 J-3.491
G3 X-5.801 Y10.27 Z-4.54 I-2.059 J19.894
G2 X-11.025 Y12.14 Z-4.6 I-1.736 J3.38
X-11.311 Y14.097 I3.487 J1.51
G1 X-14.447 Y15.907
X-18.032 Y17.977
G2 X-18.492 Y17.571 I-3.967 J4.023
X-20.5 Y11.942 I-3.508 J-1.921
G1 Y8.791
G2 X-19.941 Y2.106 I-1.5 J-3.491
G3 X-5.801 Y10.27 I-2.059 J19.894
G2 X-11.025 Y12.14 I-1.736 J3.38
G0 Z5
X-12.404 Y18.192
Z2
G1 Z0.1 F100
X-9.811 Y16.695 Z0.069 F1000
G2 X-3.742 Y13.836 Z-0.014 I2.274 J-3.045
G3 Y30.164 Z-0.186 I-18.258 J8.164
G2 X-9.811 Y27.305 Z-0.269 I-3.795 J0.186
G1 X-12.947 Y25.494 Z-0.306
X-13.342 Y25.267 Z-0.311
G2 Y18.733 Z-0.389 I-2.308 J-3.267
G1 X-12.947 Y18.506 Z-0.394
X-9.811 Y16.695 Z-0.431
G2 X-3.742 Y13.836 Z-0.514 I2.274 J-3.045
G3 Y30.164 Z-0.686 I-18.258 J8.164
G2 X-9.811 Y27.305 Z-0.769 I-3.795 J0.186
G1 X-12.947 Y25.494 Z-0.806
X-13.342 Y25.267 Z-0.811
G2 Y18.733 Z-0.889 I-2.308 J-3.267
G1 X-12.947 Y18.506 Z-0.894
X-9.811 Y16.695 Z-0.931
G2 X-3.742 Y13.836 Z-1.014 I2.274 J-3.045
G3 Y30.164 Z-1.186 I-18.258 J8.164
G2 X-9.811 Y27.305 Z-1.269 I-3.795 J0.186
G1 X-12.947 Y25.494 Z-1.306
X-13.342 Y25.267 Z-1.311
G2 Y18.733 Z-1.389 I-2.308 J-3.267
G1 X-12.947 Y18.506 Z-1.394
X-9.811 Y16.695 Z-1.431
G2 X-3.742 Y13.836 Z-1.514 I2.274 J-3.045
G3 Y30.164 Z-1.686 I-18.258 J8.164
G2 X-9.811 Y27.305 Z-1.769 I-3.795 J0.186
G1 X-12.947 Y25.494 Z-1.806
X-13.342 Y25.267 Z-1.811
G2 Y18.733 Z-1.889 I-2.308 J-3.267
G1 X-12.947 Y18.506 Z-1.894
X-9.811 Y16.695 Z-1.931
G2 X-3.742 Y13.836 Z-2.014 I2.274 J-3.045
G3 Y30.164 Z-2.186 I-18.258 J8.164
G2 X-9.811 Y27.305 Z-2.269 I-3.795 J0.186
G1 X-12.947 Y25.494 Z-2.306
X-13.342 Y25.267 Z-2.311
G2 Y18.733 Z-2.389 I-2.308 J-3.267
G1 X-12.947 Y18.506 Z-2.394
X-9.811 Y16.695 Z-2.431
G2 X-3.742 Y13.836 Z-2.514 I2.274 J-3.045
G3 Y30.164 Z-2.686 I-18.258 J8.164
G2 X-9.811 Y27.305 Z-2.769 I-3.795 J0.186
G1 X-12.947 Y25.494 Z-2.806
X-13.342 Y25.267 Z-2.811
G2 Y18.733 Z-2.889 I-2.308 J-3.267
G1 X-12.947 Y18.506 Z-2.894
X-9.811 Y16.695 Z-2.931
G2 X-3.742 Y13.836 Z-3.014 I2.274 J-3.045
G3 Y30.164 Z-3.186 I-18.258 J8.164
G2 X-9.811 Y27.305 Z-3.269 I-3.795 J0.186
G1 X-12.947 Y25.494 Z-3.306
X-13.342 Y25.267 Z-3.311
G2 Y18.733 Z-3.389 I-2.308 J-3.267
G1 X-12.947 Y18.506 Z-3.394
X-9.811 Y16.695 Z-3.431
G2 X-3.742 Y13.836 Z-3.514 I2.274 J-3.045
G3 Y30.164 Z-3.686 I-18.258 J8.164
G2 X-9.811 Y27.305 Z-3.769 I-3.795 J0.186
G1 X-12.947 Y25.494 Z-3.806
X-13.342 Y25.267 Z-3.811
G2 Y18.733 Z-3.889 I-2.308 J-3.267
G1 X-12.947 Y18.506 Z-3.894
X-9.811 Y16.695 Z-3.931
G2 X-3.742 Y13.836 Z-4.014 I2.274 J-3.045
G3 Y30.164 Z-4.186 I-18.258 J8.164
G2 X-9.811 Y27.305 Z-4.269 I-3.795 J0.186
G1 X-12.947 Y25.494 Z-4.306
X-13.342 Y25.267 Z-4.311
G2 Y18.733 Z-4.389 I-2.308 J-3.267
G1 X-12.947 Y18.506 Z-4.394
X-9.811 Y16.695 Z-4.431
G2 X-3.742 Y13.836 Z-4.514 I2.274 J-3.045
G3 X-2 Y22 Z-4.6 I-18.258 J8.164
X-3.742 Y30.164 I-20 J0
G2 X-9.811 Y27.305 I-3.795 J0.186
G1 X-12.947 Y25.494
X-13.342 Y25.267
G2 Y18.733 I-2.308 J-3.267
G1 X-12.947 Y18.506
X-9.811 Y16.695
G2 X-3.742 Y13.836 I2.274 J-3.045
G3 X-2 Y22 I-18.258 J8.164
G0 Z5
X-7.339 Y35.603
Z2
G1 Z0.1 F100
G3 X-19.941 Y41.894 Z-0.04 I-14.661 J-13.603 F1000
G2 X-20.5 Y35.209 Z-0.119 I-2.059 J-3.194
G1 Y32.058 Z-0.15
G2 X-18.492 Y26.429 Z-0.215 I-1.5 J-3.708
X-18.033 Y26.023 Z-0.221 I-3.509 J-4.428
G1 X-14.447 Y28.093 Z-0.262
X-11.311 Y29.903 Z-0.297
G2 X-5.801 Y33.73 Z-0.376 I3.774 J0.447
G3 X-19.941 Y41.894 Z-0.54 I-16.199 J-11.73
G2 X-20.5 Y35.209 Z-0.619 I-2.059 J-3.194
G1 Y32.058 Z-0.65
G2 X-18.492 Y26.429 Z-0.715 I-1.5 J-3.708
X-18.033 Y26.023 Z-0.721 I-3.509 J-4.428
G1 X-14.447 Y28.093 Z-0.762
X-11.311 Y29.903 Z-0.797
G2 X-5.801 Y33.73 Z-0.876 I3.774 J0.447
G3 X-19.941 Y41.894 Z-1.04 I-16.199 J-11.73
G2 X-20.5 Y35.209 Z-1.119 I-2.059 J-3.194
G1 Y32.058 Z-1.15
G2 X-18.492 Y26.429 Z-1.215 I-1.5 J-3.708
X-18.033 Y26.023 Z-1.221 I-3.509 J-4.428
G1 X-14.447 Y28.093 Z-1.262
X-11.311 Y29.903 Z-1.297
G2 X-5.801 Y33.73 Z-1.376 I3.774 J0.447
G3 X-19.941 Y41.894 Z-1.54 I-16.199 J-11.73
G2 X-20.5 Y35.209 Z-1.619 I-2.059 J-3.194
G1 Y32.058 Z-1.65
G2 X-18.492 Y26.429 Z-1.715 I-1.5 J-3.708
X-18.033 Y26.023 Z-1.721 I-3.509 J-4.428
G1 X-14.447 Y28.093 Z-1.762
X-11.311 Y29.903 Z-1.797
G2 X-5.801 Y33.73 Z-1.876 I3.774 J0.447
G3 X-19.941 Y41.894 Z-2.04 I-16.199 J-11.73
G2 X-20.5 Y35.209 Z-2.119 I-2.059 J-3.194
G1 Y32.058 Z-2.15
G2 X-18.492 Y26.429 Z-2.215 I-1.5 J-3.708
X-18.033 Y26.023 Z-2.221 I-3.509 J-4.428
G1 X-14.447 Y28.093 Z-2.262
X-11.311 Y29.903 Z-2.297
G2 X-5.801 Y33.73 Z-2.376 I3.774 J0.447
G3 X-19.941 Y41.894 Z-2.54 I-16.199 J-11.73
G2 X-20.5 Y35.209 Z-2.619 I-2.059 J-3.194
G1 Y32.058 Z-2.65
G2 X-18.492 Y26.429 Z-2.715 I-1.5 J-3.708
X-18.033 Y26.023 Z-2.721 I-3.509 J-4.428
G1 X-14.447 Y28.093 Z-2.762
X-11.311 Y29.903 Z-2.797
G2 X-5.801 Y33.73 Z-2.876 I3.774 J0.447
G3 X-19.941 Y41.894 Z-3.04 I-16.199 J-11.73
G2 X-20.5 Y35.209 Z-3.119 I-2.059 J-3.194
G1 Y32.058 Z-3.15
G2 X-18.492 Y26.429 Z-3.215 I-1.5 J-3.708
X-18.033 Y26.023 Z-3.221 I-3.509 J-4.428
G1 X-14.447 Y28.093 Z-3.262
X-11.311 Y29.903 Z-3.297
G2 X-5.801 Y33.73 Z-3.376 I3.774 J0.447
G3 X-19.941 Y41.894 Z-3.54 I-16.199 J-11.73
G2 X-20.5 Y35.209 Z-3.619 I-2.059 J-3.194
G1 Y32.058 Z-3.65
G2 X-18.492 Y26.429 Z-3.715 I-1.5 J-3.708
X-18.033 Y26.023 Z-3.721 I-3.509 J-4.428
G1 X-14.447 Y28.093 Z-3.762
X-11.311 Y29.903 Z-3.797
G2 X-5.801 Y33.73 Z-3.876 I3.774 J0.447
G3 X-19.941 Y41.894 Z-4.04 I-16.199 J-11.73
G2 X-20.5 Y35.209 Z-4.119 I-2.059 J-3.194
G1 Y32.058 Z-4.15
G2 X-18.492 Y26.429 Z-4.215 I-1.5 J-3.708
X-18.033 Y26.023 Z-4.221 I-3.509 J-4.428
G1 X-14.447 Y28.093 Z-4.262
X-11.311 Y29.903 Z-4.297
G2 X-5.801 Y33.73 Z-4.376 I3.774 J0.447
G3 X-19.941 Y41.894 Z-4.54 I-16.199 J-11.73
G2 X-18.949 Y36.435 Z-4.6 I-2.059 J-3.194
X-20.5 Y35.209 I-3.051 J2.265
G1 Y32.058
G2 X-18.492 Y26.429 I-1.5 J-3.708
X-18.033 Y26.023 I-3.509 J-4.428
G1 X-14.447 Y28.093
X-11.311 Y29.903
G2 X-5.801 Y33.73 I3.774 J0.447
G3 X-19.941 Y41.894 I-16.199 J-11.73
G2 X-18.949 Y36.435 I-2.059 J-3.194
G0 Z5
X-26.45 Y41.499
Z2
G1 Z0.1 F100
G3 X-38.199 Y33.73 Z-0.04 I4.45 J-19.499 F1000
G2 X-32.689 Y29.903 Z-0.119 I1.736 J-3.38
G1 X-29.553 Y28.093 Z-0.155
X-25.968 Y26.023 Z-0.195
G2 X-25.508 Y26.429 Z-0.201 I3.967 J-4.023
X-23.5 Y32.058 Z-0.266 I3.508 J1.921
G1 Y35.209 Z-0.297
G2 X-24.059 Y41.894 Z-0.376 I1.5 J3.491
G3 X-38.199 Y33.73 Z-0.54 I2.059 J-19.894
G2 X-32.689 Y29.903 Z-0.619 I1.736 J-3.38
G1 X-29.553 Y28.093 Z-0.655
X-25.968 Y26.023 Z-0.695
G2 X-25.508 Y26.429 Z-0.701 I3.967 J-4.023
X-23.5 Y32.058 Z-0.766 I3.508 J1.921
G1 Y35.209 Z-0.797
G2 X-24.059 Y41.894 Z-0.876 I1.5 J3.491
G3 X-38.199 Y33.73 Z-1.04 I2.059 J-19.894
G2 X-32.689 Y29.903 Z-1.119 I1.736 J-3.38
G1 X-29.553 Y28.093 Z-1.155
X-25.968 Y26.023 Z-1.195
G2 X-25.508 Y26.429 Z-1.201 I3.967 J-4.023
X-23.5 Y32.058 Z-1.266 I3.508 J1.921
G1 Y35.209 Z-1.297
G2 X-24.059 Y41.894 Z-1.376 I1.5 J3.491
G3 X-38.199 Y33.73 Z-1.54 I2.059 J-19.894
G2 X-32.689 Y29.903 Z-1.619 I1.736 J-3.38
G1 X-29.553 Y28.093 Z-1.655
X-25.968 Y26.023 Z-1.695
G2 X-25.508 Y26.429 Z-1.701 I3.967 J-4.023
X-23.5 Y32.058 Z-1.766 I3.508 J1.921
G1 Y35.209 Z-1.797
G2 X-24.059 Y41.894 Z-1.876 I1.5 J3.491
G3 X-38.199 Y33.73 Z-2.04 I2.059 J-19.894
G2 X-32.689 Y29.903 Z-2.119 I1.736 J-3.38
G1 X-29.553 Y28.093 Z-2.155
X-25.968 Y26.023 Z-2.195
G2 X-25.508 Y26.429 Z-2.201 I3.967 J-4.023
X-23.5 Y32.058 Z-2.266 I3.508 J1.921
G1 Y35.209 Z-2.297
G2 X-24.059 Y41.894 Z-2.376 I1.5 J3.491
G3 X-38.199 Y33.73 Z-2.54 I2.059 J-19.894
G2 X-32.689 Y29.903 Z-2.619 I1.736 J-3.38
G1 X-29.553 Y28.093 Z-2.655
X-25.968 Y26.023 Z-2.695
G2 X-25.508 Y26.429 Z-2.701 I3.967 J-4.023
X-23.5 Y32.058 Z-2.766 I3.508 J1.921
G1 Y35.209 Z-2.797
G2 X-24.059 Y41.894 Z-2.876 I1.5 J3.491
G3 X-38.199 Y33.73 Z-3.04 I2.059 J-19.894
G2 X-32.689 Y29.903 Z-3.119 I1.736 J-3.38
G1 X-29.553 Y28.093 Z-3.155
X-25.968 Y26.023 Z-3.195
G2 X-25.508 Y26.429 Z-3.201 I3.967 J-4.023
X-23.5 Y32.058 Z-3.266 I3.508 J1.921
G1 Y35.209 Z-3.297
G2 X-24.059 Y41.894 Z-3.376 I1.5 J3.491
G3 X-38.199 Y33.73 Z-3.54 I2.059 J-19.894
G2 X-32.689 Y29.903 Z-3.619 I1.736 J-3.38
G1 X-29.553 Y28.093 Z-3.655
X-25.968 Y26.023 Z-3.695
G2 X-25.508 Y26.429 Z-3.701 I3.967 J-4.023
X-23.5 Y32.058 Z-3.766 I3.508 J1.921
G1 Y35.209 Z-3.797
G2 X-24.059 Y41.894 Z-3.876 I1.5 J3.491
G3 X-38.199 Y33.73 Z-4.04 I2.059 J-19.894
G2 X-32.689 Y29.903 Z-4.119 I1.736 J-3.38
G1 X-29.553 Y28.093 Z-4.155
X-25.968 Y26.023 Z-4.195
G2 X-25.508 Y26.429 Z-4.201 I3.967 J-4.023
X-23.5 Y32.058 Z-4.266 I3.508 J1.921
G1 Y35.209 Z-4.297
G2 X-24.059 Y41.894 Z-4.376 I1.5 J3.491
G3 X-38.199 Y33.73 Z-4.54 I2.059 J-19.894
G2 X-32.975 Y31.86 Z-4.6 I1.736 J-3.38
X-32.689 Y29.903 I-3.487 J-1.51
G1 X-29.553 Y28.093
X-25.968 Y26.023
G2 X-25.508 Y26.429 I3.967 J-4.023
X-23.5 Y32.058 I3.508 J1.921
G1 Y35.209
G2 X-24.059 Y41.894 I1.5 J3.491
G3 X-38.199 Y33.73 I2.059 J-19.894
G2 X-32.975 Y31.86 I1.736 J-3.38
G0 Z5
X-31.596 Y25.808
Z2
G1 Z0.1 F100
X-34.189 Y27.305 Z0.069 F1000
G2 X-40.258 Y30.164 Z-0.014 I-2.274 J3.045
G3 X-42 Y22 Z-0.1 I18.258 J-8.164
X-40.258 Y13.836 Z-0.186 I20 J0
G2 X-34.189 Y16.695 Z-0.269 I3.795 J-0.186
G1 X-31.053 Y18.506 Z-0.306
X-30.658 Y18.733 Z-0.311
G2 Y25.267 Z-0.389 I2.308 J3.267
G1 X-31.053 Y25.494 Z-0.394
X-34.189 Y27.305 Z-0.431
G2 X-40.258 Y30.164 Z-0.514 I-2.274 J3.045
G3 X-42 Y22 Z-0.6 I18.258 J-8.164
X-40.258 Y13.836 Z-0.686 I20 J0
G2 X-34.189 Y16.695 Z-0.769 I3.795 J-0.186
G1 X-31.053 Y18.506 Z-0.806
X-30.658 Y18.733 Z-0.811
G2 Y25.267 Z-0.889 I2.308 J3.267
G1 X-31.053 Y25.494 Z-0.894
X-34.189 Y27.305 Z-0.931
G2 X-40.258 Y30.164 Z-1.014 I-2.274 J3.045
G3 X-42 Y22 Z-1.1 I18.258 J-8.164
X-40.258 Y13.836 Z-1.186 I20 J0
G2 X-34.189 Y16.695 Z-1.269 I3.795 J-0.186
G1 X-31.053 Y18.506 Z-1.306
X-30.658 Y18.733 Z-1.311
G2 Y25.267 Z-1.389 I2.308 J3.267
G1 X-31.053 Y25.494 Z-1.394
X-34.189 Y27.305 Z-1.431
G2 X-40.258 Y30.164 Z-1.514 I-2.274 J3.045
G3 X-42 Y22 Z-1.6 I18.258 J-8.164
X-40.258 Y13.836 Z-1.686 I20 J0
G2 X-34.189 Y16.695 Z-1.769 I3.795 J-0.186
G1 X-31.053 Y18.506 Z-1.806
X-30.658 Y18.733 Z-1.811
G2 Y25.267 Z-1.889 I2.308 J3.267
G1 X-31.053 Y25.494 Z-1.894
X-34.189 Y27.305 Z-1.931
G2 X-40.258 Y30.164 Z-2.014 I-2.274 J3.045
G3 X-42 Y22 Z-2.1 I18.258 J-8.164
X-40.258 Y13.836 Z-2.186 I20 J0
G2 X-34.189 Y16.695 Z-2.269 I3.795 J-0.186
G1 X-31.053 Y18.506 Z-2.306
X-30.658 Y18.733 Z-2.311
G2 Y25.267 Z-2.389 I2.308 J3.267
G1 X-31.053 Y25.494 Z-2.394
X-34.189 Y27.305 Z-2.431
G2 X-40.258 Y30.164 Z-2.514 I-2.274 J3.045
G3 X-42 Y22 Z-2.6 I18.258 J-8.164
X-40.258 Y13.836 Z-2.686 I20 J0
G2 X-34.189 Y16.695 Z-2.769 I3.795 J-0.186
G1 X-31.053 Y18.506 Z-2.806
X-30.658 Y18.733 Z-2.811
G2 Y25.267 Z-2.889 I2.308 J3.267
G1 X-31.053 Y25.494 Z-2.894
X-34.189 Y27.305 Z-2.931
G2 X-40.258 Y30.164 Z-3.014 I-2.274 J3.045
G3 X-42 Y22 Z-3.1 I18.258 J-8.164
X-40.258 Y13.836 Z-3.186 I20 J0
G2 X-34.189 Y16.695 Z-3.269 I3.795 J-0.186
G1 X-31.053 Y18.506 Z-3.306
X-30.658 Y18.733 Z-3.311
G2 Y25.267 Z-3.389 I2.308 J3.267
G1 X-31.053 Y25.494 Z-3.394
X-34.189 Y27.305 Z-3.431
G2 X-40.258 Y30.164 Z-3.514 I-2.274 J3.045
G3 X-42 Y22 Z-3.6 I18.258 J-8.164
X-40.258 Y13.836 Z-3.686 I20 J0
G2 X-34.189 Y16.695 Z-3.769 I3.795 J-0.186
G1 X-31.053 Y18.506 Z-3.806
X-30.658 Y18.733 Z-3.811
G2 Y25.267 Z-3.889 I2.308 J3.267
G1 X-31.053 Y25.494 Z-3.894
X-34.189 Y27.305 Z-3.931
G2 X-40.258 Y30.164 Z-4.014 I-2.274 J3.045
G3 X-42 Y22 Z-4.1 I18.258 J-8.164
X-40.258 Y13.836 Z-4.186 I20 J0
G2 X-34.189 Y16.695 Z-4.269 I3.795 J-0.186
G1 X-31.053 Y18.506 Z-4.306
X-30.658 Y18.733 Z-4.311
G2 Y25.267 Z-4.389 I2.308 J3.267
G1 X-31.053 Y25.494 Z-4.394
X-34.189 Y27.305 Z-4.431
G2 X-40.258 Y30.164 Z-4.514 I-2.274 J3.045
G3 X-42 Y22 Z-4.6 I18.258 J-8.164
X-40.258 Y13.836 I20 J0
G2 X-34.189 Y16.695 I3.795 J-0.186
G1 X-31.053 Y18.506
X-30.658 Y18.733
G2 Y25.267 I2.308 J3.267
G1 X-31.053 Y25.494
X-34.189 Y27.305
G2 X-40.258 Y30.164 I-2.274 J3.045
G3 X-42 Y22 I18.258 J-8.164
G0 Z15

(2MM FLAT POCKET CONTOURS)
M8
G0 X-41.994 Y21.509
Z15
Z2
G1 Z0.1 F100
G2 X-38.154 Y33.792 Z0.048 I19.994 J0.491 F1000
X-5.846 Y10.208 Z-0.202 I16.154 J-11.792
X-38.154 Y33.792 Z-0.452 I-16.154 J11.792
X-5.846 Y10.208 Z-0.702 I16.154 J-11.792
X-38.154 Y33.792 Z-0.952 I-16.154 J11.792
X-5.846 Y10.208 Z-1.202 I16.154 J-11.792
X-38.154 Y33.792 Z-1.452 I-16.154 J11.792
X-28.645 Y40.864 Z-1.5 I16.154 J-11.792
X-15.355 Y3.136 I6.645 J-18.864
X-28.645 Y40.864 I-6.645 J18.864
G0 Z5
X-1.942 Y29.017
Z2
G1 Z0.1 F100
G3 X-42.058 Y14.983 Z-0.15 I-20.058 J-7.017 F1000
X-1.942 Y29.017 Z-0.4 I20.058 J7.017
X-42.058 Y14.983 Z-0.65 I-20.058 J-7.017
X-1.942 Y29.017 Z-0.9 I20.058 J7.017
X-42.058 Y14.983 Z-1.15 I-20.058 J-7.017
X-1.942 Y29.017 Z-1.4 I20.058 J7.017
X-22.475 Y43.245 Z-1.5 I-20.058 J-7.017
X-21.525 Y0.755 I0.475 J-21.245
X-22.475 Y43.245 I-0.475 J21.245
G0 Z15

(2MM FLAT OUTSIDE)
M8
G0 X-35.519 Y3.393
Z15
Z2
G1 Z0.1 F100
G2 X-35.8 Y3.6 Z0.099 I13.519 J18.607 F1000
X-8.2 Y40.4 Z-0.151 I13.8 J18.4
X-35.8 Y3.6 Z-0.401 I-13.8 J-18.4
X-8.2 Y40.4 Z-0.651 I13.8 J18.4
X-35.8 Y3.6 Z-0.901 I-13.8 J-18.4
X-8.2 Y40.4 Z-1.151 I13.8 J18.4
X-35.8 Y3.6 Z-1.401 I-13.8 J-18.4
X-8.2 Y40.4 Z-1.651 I13.8 J18.4
X-35.8 Y3.6 Z-1.901 I-13.8 J-18.4
X-8.2 Y40.4 Z-2.151 I13.8 J18.4
X-35.8 Y3.6 Z-2.401 I-13.8 J-18.4
X-8.2 Y40.4 Z-2.651 I13.8 J18.4
X-35.8 Y3.6 Z-2.901 I-13.8 J-18.4
X-8.2 Y40.4 Z-3.151 I13.8 J18.4
X-35.8 Y3.6 Z-3.401 I-13.8 J-18.4
X-8.2 Y40.4 Z-3.651 I13.8 J18.4
X-35.8 Y3.6 Z-3.901 I-13.8 J-18.4
X-8.2 Y40.4 Z-4.151 I13.8 J18.4
X-35.8 Y3.6 Z-4.401 I-13.8 J-18.4
X-22 Y45 Z-4.6 I13.8 J18.4
Y-1 I0 J-23
Y45 I0 J23
G0 Z15

M9
M30
