(2MM FLAT HOLES)
(T11  D=2 CR=0 - ZMIN=-4.6 - FLAT END MILL)
G90 G94 G91.1 G40 G49 G17
G21

(2MM FLAT INSIDE)
M5
M9
T11
(DIAMOND OR SPIRAL)
S20000 M3
G54
M8
G0 X-37.639 Y33.922
G43 Z15 H1
Z2
G1 Z0.1 F100
G2 X-32.961 Y30.06 Z0.03 I1.046 J-3.497 F1000
G1 X-29.553 Y28.093 Z-0.008
X-25.968 Y26.023 Z-0.048
G2 X-25.508 Y26.429 Z-0.054 I3.967 J-4.023
X-23.5 Y32.058 Z-0.12 I3.508 J1.921
G1 Y35.522 Z-0.153
G2 X-24.006 Y41.899 Z-0.229 I1.5 J3.328
G3 X-38.23 Y33.687 Z-0.394 I2.006 J-19.899
G2 X-32.961 Y30.06 Z-0.47 I1.637 J-3.262
G1 X-29.553 Y28.093 Z-0.508
X-25.968 Y26.023 Z-0.548
G2 X-25.508 Y26.429 Z-0.554 I3.967 J-4.023
X-23.5 Y32.058 Z-0.62 I3.508 J1.921
G1 Y35.522 Z-0.653
G2 X-24.006 Y41.899 Z-0.729 I1.5 J3.328
G3 X-38.23 Y33.687 Z-0.894 I2.006 J-19.899
G2 X-32.961 Y30.06 Z-0.97 I1.637 J-3.262
G1 X-29.553 Y28.093 Z-1.008
X-25.968 Y26.023 Z-1.048
G2 X-25.508 Y26.429 Z-1.054 I3.967 J-4.023
X-23.5 Y32.058 Z-1.12 I3.508 J1.921
G1 Y35.522 Z-1.153
G2 X-24.006 Y41.899 Z-1.229 I1.5 J3.328
G3 X-38.23 Y33.687 Z-1.394 I2.006 J-19.899
G2 X-32.961 Y30.06 Z-1.47 I1.637 J-3.262
G1 X-29.553 Y28.093 Z-1.508
X-25.968 Y26.023 Z-1.548
G2 X-25.508 Y26.429 Z-1.554 I3.967 J-4.023
X-23.5 Y32.058 Z-1.62 I3.508 J1.921
G1 Y35.522 Z-1.653
G2 X-24.006 Y41.899 Z-1.729 I1.5 J3.328
G3 X-38.23 Y33.687 Z-1.894 I2.006 J-19.899
G2 X-32.961 Y30.06 Z-1.97 I1.637 J-3.262
G1 X-29.553 Y28.093 Z-2.008
X-25.968 Y26.023 Z-2.048
G2 X-25.508 Y26.429 Z-2.054 I3.967 J-4.023
X-23.5 Y32.058 Z-2.12 I3.508 J1.921
G1 Y35.522 Z-2.153
G2 X-24.006 Y41.899 Z-2.229 I1.5 J3.328
G3 X-38.23 Y33.687 Z-2.394 I2.006 J-19.899
G2 X-32.961 Y30.06 Z-2.47 I1.637 J-3.262
G1 X-29.553 Y28.093 Z-2.508
X-25.968 Y26.023 Z-2.548
G2 X-25.508 Y26.429 Z-2.554 I3.967 J-4.023
X-23.5 Y32.058 Z-2.62 I3.508 J1.921
G1 Y35.522 Z-2.653
G2 X-24.006 Y41.899 Z-2.729 I1.5 J3.328
G3 X-38.23 Y33.687 Z-2.894 I2.006 J-19.899
G2 X-32.961 Y30.06 Z-2.97 I1.637 J-3.262
G1 X-29.553 Y28.093 Z-3.008
X-25.968 Y26.023 Z-3.048
G2 X-25.508 Y26.429 Z-3.054 I3.967 J-4.023
X-23.5 Y32.058 Z-3.12 I3.508 J1.921
G1 Y35.522 Z-3.153
G2 X-24.006 Y41.899 Z-3.229 I1.5 J3.328
G3 X-38.23 Y33.687 Z-3.394 I2.006 J-19.899
G2 X-32.961 Y30.06 Z-3.47 I1.637 J-3.262
G1 X-29.553 Y28.093 Z-3.508
X-25.968 Y26.023 Z-3.548
G2 X-25.508 Y26.429 Z-3.554 I3.967 J-4.023
X-23.5 Y32.058 Z-3.62 I3.508 J1.921
G1 Y35.522 Z-3.653
G2 X-24.006 Y41.899 Z-3.729 I1.5 J3.328
G3 X-38.23 Y33.687 Z-3.894 I2.006 J-19.899
G2 X-32.961 Y30.06 Z-3.97 I1.637 J-3.262
G1 X-29.553 Y28.093 Z-4.008
X-25.968 Y26.023 Z-4.048
G2 X-25.508 Y26.429 Z-4.054 I3.967 J-4.023
X-23.5 Y32.058 Z-4.12 I3.508 J1.921
G1 Y35.522 Z-4.153
G2 X-24.006 Y41.899 Z-4.229 I1.5 J3.328
G3 X-38.23 Y33.687 Z-4.394 I2.006 J-19.899
G2 X-32.961 Y30.06 Z-4.47 I1.637 J-3.262
G1 X-29.553 Y28.093 Z-4.508
X-25.968 Y26.023 Z-4.548
G2 X-25.508 Y26.429 Z-4.554 I3.967 J-4.023
X-25.113 Y30.862 Z-4.6 I3.508 J1.921
X-23.5 Y32.058 I3.113 J-2.512
G1 Y35.522
G2 X-24.006 Y41.899 I1.5 J3.328
G3 X-38.23 Y33.687 I2.006 J-19.899
G2 X-32.961 Y30.06 I1.637 J-3.262
G1 X-29.553 Y28.093
X-25.968 Y26.023
G2 X-25.508 Y26.429 I3.967 J-4.023
X-25.113 Y30.862 I3.508 J1.921
G0 Z15

M9
M30
