(2MM FLAT HOLES)
(T11  D=2 CR=0 - ZMIN=-4.6 - FLAT END MILL)
G90 G94 G91.1 G40 G49 G17
G21

(2MM FLAT INSIDE)
M5
M9
T11
(DIAMOND OR SPIRAL)
S20000 M3
G54
M8
G0 X-6.361 Y10.078
G43 Z15 H1
Z2
G1 Z0.1 F100
G2 X-11.039 Y13.94 Z0.03 I-1.046 J3.497 F1000
G1 X-14.447 Y15.907 Z-0.008
X-18.032 Y17.977 Z-0.048
G2 X-18.492 Y17.571 Z-0.054 I-3.967 J4.023
X-20.5 Y11.942 Z-0.12 I-3.508 J-1.921
G1 Y8.478 Z-0.153
G2 X-19.994 Y2.101 Z-0.229 I-1.5 J-3.328
G3 X-5.77 Y10.313 Z-0.394 I-2.006 J19.899
G2 X-11.039 Y13.94 Z-0.47 I-1.637 J3.262
G1 X-14.447 Y15.907 Z-0.508
X-18.032 Y17.977 Z-0.548
G2 X-18.492 Y17.571 Z-0.554 I-3.967 J4.023
X-20.5 Y11.942 Z-0.62 I-3.508 J-1.921
G1 Y8.478 Z-0.653
G2 X-19.994 Y2.101 Z-0.729 I-1.5 J-3.328
G3 X-5.77 Y10.313 Z-0.894 I-2.006 J19.899
G2 X-11.039 Y13.94 Z-0.97 I-1.637 J3.262
G1 X-14.447 Y15.907 Z-1.008
X-18.032 Y17.977 Z-1.048
G2 X-18.492 Y17.571 Z-1.054 I-3.967 J4.023
X-20.5 Y11.942 Z-1.12 I-3.508 J-1.921
G1 Y8.478 Z-1.153
G2 X-19.994 Y2.101 Z-1.229 I-1.5 J-3.328
G3 X-5.77 Y10.313 Z-1.394 I-2.006 J19.899
G2 X-11.039 Y13.94 Z-1.47 I-1.637 J3.262
G1 X-14.447 Y15.907 Z-1.508
X-18.032 Y17.977 Z-1.548
G2 X-18.492 Y17.571 Z-1.554 I-3.967 J4.023
X-20.5 Y11.942 Z-1.62 I-3.508 J-1.921
G1 Y8.478 Z-1.653
G2 X-19.994 Y2.101 Z-1.729 I-1.5 J-3.328
G3 X-5.77 Y10.313 Z-1.894 I-2.006 J19.899
G2 X-11.039 Y13.94 Z-1.97 I-1.637 J3.262
G1 X-14.447 Y15.907 Z-2.008
X-18.032 Y17.977 Z-2.048
G2 X-18.492 Y17.571 Z-2.054 I-3.967 J4.023
X-20.5 Y11.942 Z-2.12 I-3.508 J-1.921
G1 Y8.478 Z-2.153
G2 X-19.994 Y2.101 Z-2.229 I-1.5 J-3.328
G3 X-5.77 Y10.313 Z-2.394 I-2.006 J19.899
G2 X-11.039 Y13.94 Z-2.47 I-1.637 J3.262
G1 X-14.447 Y15.907 Z-2.508
X-18.032 Y17.977 Z-2.548
G2 X-18.492 Y17.571 Z-2.554 I-3.967 J4.023
X-20.5 Y11.942 Z-2.62 I-3.508 J-1.921
G1 Y8.478 Z-2.653
G2 X-19.994 Y2.101 Z-2.729 I-1.5 J-3.328
G3 X-5.77 Y10.313 Z-2.894 I-2.006 J19.899
G2 X-11.039 Y13.94 Z-2.97 I-1.637 J3.262
G1 X-14.447 Y15.907 Z-3.008
X-18.032 Y17.977 Z-3.048
G2 X-18.492 Y17.571 Z-3.054 I-3.967 J4.023
X-20.5 Y11.942 Z-3.12 I-3.508 J-1.921
G1 Y8.478 Z-3.153
G2 X-19.994 Y2.101 Z-3.229 I-1.5 J-3.328
G3 X-5.77 Y10.313 Z-3.394 I-2.006 J19.899
G2 X-11.039 Y13.94 Z-3.47 I-1.637 J3.262
G1 X-14.447 Y15.907 Z-3.508
X-18.032 Y17.977 Z-3.548
G2 X-18.492 Y17.571 Z-3.554 I-3.967 J4.023
X-20.5 Y11.942 Z-3.62 I-3.508 J-1.921
G1 Y8.478 Z-3.653
G2 X-19.994 Y2.101 Z-3.729 I-1.5 J-3.328
G3 X-5.77 Y10.313 Z-3.894 I-2.006 J19.899
G2 X-11.039 Y13.94 Z-3.97 I-1.637 J3.262
G1 X-14.447 Y15.907 Z-4.008
X-18.032 Y17.977 Z-4.048
G2 X-18.492 Y17.571 Z-4.054 I-3.967 J4.023
X-20.5 Y11.942 Z-4.12 I-3.508 J-1.921
G1 Y8.478 Z-4.153
G2 X-19.994 Y2.101 Z-4.229 I-1.5 J-3.328
G3 X-5.77 Y10.313 Z-4.394 I-2.006 J19.899
G2 X-11.039 Y13.94 Z-4.47 I-1.637 J3.262
G1 X-14.447 Y15.907 Z-4.508
X-18.032 Y17.977 Z-4.548
G2 X-18.492 Y17.571 Z-4.554 I-3.967 J4.023
X-18.887 Y13.138 Z-4.6 I-3.508 J-1.921
X-20.5 Y11.942 I-3.113 J2.512
G1 Y8.478
G2 X-19.994 Y2.101 I-1.5 J-3.328
G3 X-5.77 Y10.313 I-2.006 J19.899
G2 X-11.039 Y13.94 I-1.637 J3.262
G1 X-14.447 Y15.907
X-18.032 Y17.977
G2 X-18.492 Y17.571 I-3.967 J4.023
X-18.887 Y13.138 I-3.508 J-1.921
G0 Z15

M9
M30
