(2MM FLAT HOLES)
(T11  D=2 CR=0 - ZMIN=-1.3 - FLAT END MILL)
G90 G94 G91.1 G40 G49 G17
G21

(2MM FLAT POCKET CONTOURS)
M5
M9
T11
(DIAMOND OR SPIRAL)
S20000 M3
G54
M8
G0 X-33.472 Y38.383
G43 Z15 H1
Z5
G1 Z2 F100
Z0.1
G2 X-10.528 Y5.617 Z-0.15 I11.472 J-16.383 F1000
X-33.472 Y38.383 Z-0.4 I-11.472 J16.383
X-10.528 Y5.617 Z-0.65 I11.472 J-16.383
X-33.472 Y38.383 Z-0.9 I-11.472 J16.383
X-10.528 Y5.617 Z-1.15 I11.472 J-16.383
X-41.126 Y16.153 Z-1.3 I-11.472 J16.383
X-2.874 Y27.847 I19.126 J5.847
X-41.126 Y16.153 I-19.126 J-5.847
G0 Z5
X-22.366 Y1.003
G1 Z2 F100
Z0.1
G3 X-21.634 Y42.997 Z-0.15 I0.366 J20.997 F1000
X-22.366 Y1.003 Z-0.4 I-0.366 J-20.997
X-21.634 Y42.997 Z-0.65 I0.366 J20.997
X-22.366 Y1.003 Z-0.9 I-0.366 J-20.997
X-21.634 Y42.997 Z-1.15 I0.366 J20.997
X-42.082 Y15.86 Z-1.3 I-0.366 J-20.997
X-1.918 Y28.14 I20.082 J6.14
X-42.082 Y15.86 I-20.082 J-6.14
G0 Z15

M9
M30
