(MAGNET-BRACE)
(T11  D=2 CR=0 - ZMIN=-3.5 - FLAT END MILL)
G90 G94 G91.1 G40 G49 G17
G21

(MILL 2MM MAGNET POCKETS)
M5
M9
T11
(DIAMOND OR SPIRAL)
S16000 M3
G54
M8
G0 X5.093 Y5.557
G43 Z15 H1
Z2
G1 Z0.699 F120
G3 X5.099 Y5.58 Z0.604 I-0.918 J0.243 F60
X5.112 Y5.645 Z0.532 I-0.924 J0.22
X5.123 Y5.737 Z0.5 I-0.937 J0.155
X3.227 Y5.863 Z0.239 I-0.948 J0.063
X5.123 Y5.737 Z-0.022 I0.948 J-0.063
X3.227 Y5.863 Z-0.283 I-0.948 J0.063
X4.143 Y4.851 Z-0.417 I0.948 J-0.063
X5.125 Y5.8 Z-0.55 I0.032 J0.949
X3.75 I-0.688 J0
X5.15 I0.7 J0 F240
X1.85 I-1.65 J0
X5.15 I1.65 J0
X4.992 Y5.82 I-0.08 J0
G1 X4.919 Y5.535
G3 X5.072 Y5.488 I0.078 J-0.02
X3.278 Y6.112 Z-0.811 I-0.897 J0.312 F60
X5.072 Y5.488 Z-1.072 I0.897 J-0.312
X5.125 Y5.8 Z-1.1 I-0.897 J0.312
X3.75 I-0.688 J0
X5.15 I0.7 J0 F240
X1.85 I-1.65 J0
X5.15 I1.65 J0
X5.126 Y5.896 Z-1.073 I-0.2 J0 F480
X5.08 Y5.952 Z-1 I-0.176 J-0.096
X5.058 Y5.968 Z-0.9 I-0.13 J-0.152
G0 Z5
X5.093 Y75.557
Z2
G1 Z0.699 F120
G3 X5.099 Y75.58 Z0.604 I-0.918 J0.243 F60
X5.112 Y75.645 Z0.532 I-0.924 J0.22
X5.123 Y75.737 Z0.5 I-0.937 J0.155
X3.227 Y75.863 Z0.239 I-0.948 J0.063
X5.123 Y75.737 Z-0.022 I0.948 J-0.063
X3.227 Y75.863 Z-0.283 I-0.948 J0.063
X4.143 Y74.851 Z-0.417 I0.948 J-0.063
X5.125 Y75.8 Z-0.55 I0.032 J0.949
X3.75 I-0.688 J0
X5.15 I0.7 J0 F240
X1.85 I-1.65 J0
X5.15 I1.65 J0
X4.992 Y75.82 I-0.08 J0
G1 X4.919 Y75.535
G3 X5.072 Y75.488 I0.078 J-0.02
X3.278 Y76.112 Z-0.811 I-0.897 J0.312 F60
X5.072 Y75.488 Z-1.072 I0.897 J-0.312
X5.125 Y75.8 Z-1.1 I-0.897 J0.312
X3.75 I-0.688 J0
X5.15 I0.7 J0 F240
X1.85 I-1.65 J0
X5.15 I1.65 J0
X5.126 Y75.896 Z-1.073 I-0.2 J0 F480
X5.08 Y75.952 Z-1 I-0.176 J-0.096
X5.058 Y75.968 Z-0.9 I-0.13 J-0.152
G0 Z15

(MILL 2MM CONTOURS)
M8
G0 X2.2 Y-1.6
Z15
Z5
G1 Z2 F60
Z-0.625
Y-1.593 Z-0.677
Y-1.573 Z-0.725
Y-1.541 Z-0.766
Y-1.5 Z-0.798
Y-1.452 Z-0.818
Y-1.4 Z-0.825
Y-1.2 F120
G3 X2 Y-1 I-0.2 J0
G2 X1 Y0 I0 J1 F240
G1 Y2.058
G2 Y9.542 I2.5 J3.742
G1 Y72.058
G2 Y79.542 I2.5 J3.742
G1 Y81.6
G2 X2 Y82.6 I1 J0
G1 X5
G2 X6 Y81.6 I0 J-1
G1 Y79.542
G2 Y72.058 I-2.5 J-3.742
G1 Y9.542
G2 Y2.058 I-2.5 J-3.742
G1 Y0
G2 X5 Y-1 I-1 J0
G1 X2
G3 X1.8 Y-1.2 I0 J-0.2 F480
G1 Y-1.4
Y-1.452 Z-0.818
Y-1.5 Z-0.798
Y-1.541 Z-0.766
Y-1.573 Z-0.725
Y-1.593 Z-0.677
Y-1.6 Z-0.625
X2.2 F240
Z-1.45 F60
Y-1.593 Z-1.502
Y-1.573 Z-1.55
Y-1.541 Z-1.591
Y-1.5 Z-1.623
Y-1.452 Z-1.643
Y-1.4 Z-1.65
Y-1.2 F120
G3 X2 Y-1 I-0.2 J0
G2 X1 Y0 I0 J1 F240
G1 Y2.058
G2 Y9.542 I2.5 J3.742
G1 Y72.058
G2 Y79.542 I2.5 J3.742
G1 Y81.6
G2 X2 Y82.6 I1 J0
G1 X5
G2 X6 Y81.6 I0 J-1
G1 Y79.542
G2 Y72.058 I-2.5 J-3.742
G1 Y9.542
G2 Y2.058 I-2.5 J-3.742
G1 Y0
G2 X5 Y-1 I-1 J0
G1 X2
G3 X1.8 Y-1.2 I0 J-0.2 F480
G1 Y-1.4
Y-1.452 Z-1.643
Y-1.5 Z-1.623
Y-1.541 Z-1.591
Y-1.573 Z-1.55
Y-1.593 Z-1.502
Y-1.6 Z-1.45
X2.2 F240
Z-2.275 F60
Y-1.593 Z-2.327
Y-1.573 Z-2.375
Y-1.541 Z-2.416
Y-1.5 Z-2.448
Y-1.452 Z-2.468
Y-1.4 Z-2.475
Y-1.2 F120
G3 X2 Y-1 I-0.2 J0
G2 X1 Y0 I0 J1 F240
G1 Y2.058
G2 Y9.542 I2.5 J3.742
G1 Y72.058
G2 Y79.542 I2.5 J3.742
G1 Y81.6
G2 X2 Y82.6 I1 J0
G1 X5
G2 X6 Y81.6 I0 J-1
G1 Y79.542
G2 Y72.058 I-2.5 J-3.742
G1 Y9.542
G2 Y2.058 I-2.5 J-3.742
G1 Y0
G2 X5 Y-1 I-1 J0
G1 X2
G3 X1.8 Y-1.2 I0 J-0.2 F480
G1 Y-1.4
Y-1.452 Z-2.468
Y-1.5 Z-2.448
Y-1.541 Z-2.416
Y-1.573 Z-2.375
Y-1.593 Z-2.327
Y-1.6 Z-2.275
X2.2 F240
Z-2.788 F60
Y-1.593 Z-2.839
Y-1.573 Z-2.888
Y-1.541 Z-2.929
Y-1.5 Z-2.961
Y-1.452 Z-2.981
Y-1.4 Z-2.987
Y-1.2 F120
G3 X2 Y-1 I-0.2 J0
G2 X1 Y0 I0 J1 F240
G1 Y2.058
G2 Y9.542 I2.5 J3.742
G1 Y72.058
G2 Y79.542 I2.5 J3.742
G1 Y81.6
G2 X2 Y82.6 I1 J0
G1 X5
G2 X6 Y81.6 I0 J-1
G1 Y79.542
G2 Y72.058 I-2.5 J-3.742
G1 Y9.542
G2 Y2.058 I-2.5 J-3.742
G1 Y0
G2 X5 Y-1 I-1 J0
G1 X2
G3 X1.8 Y-1.2 I0 J-0.2 F480
G1 Y-1.4
Y-1.452 Z-2.981
Y-1.5 Z-2.961
Y-1.541 Z-2.929
Y-1.573 Z-2.888
Y-1.593 Z-2.839
Y-1.6 Z-2.788
X2.2 F240
Z-3.3 F60
Y-1.593 Z-3.352
Y-1.573 Z-3.4
Y-1.541 Z-3.441
Y-1.5 Z-3.473
Y-1.452 Z-3.493
Y-1.4 Z-3.5
Y-1.2 F120
G3 X2 Y-1 I-0.2 J0
G2 X1 Y0 I0 J1 F240
G1 Y2.058
G2 Y9.542 I2.5 J3.742
G1 Y72.058
G2 Y79.542 I2.5 J3.742
G1 Y81.6
G2 X2 Y82.6 I1 J0
G1 X5
G2 X6 Y81.6 I0 J-1
G1 Y79.542
G2 Y72.058 I-2.5 J-3.742
G1 Y9.542
G2 Y2.058 I-2.5 J-3.742
G1 Y0
G2 X5 Y-1 I-1 J0
G1 X2
G3 X1.8 Y-1.2 I0 J-0.2 F480
G1 Y-1.4
Y-1.452 Z-3.493
Y-1.5 Z-3.473
Y-1.541 Z-3.441
Y-1.573 Z-3.4
Y-1.593 Z-3.352
Y-1.6 Z-3.3
G0 Z15

M9
M30
