(T11  D=2 CR=0 - ZMIN=-4.5 - FLAT END MILL)
G90 G94 G91.1 G40 G49 G17
G21

(2MM FLAT HOLE TOP)
M5
M9
T11
(DIAMOND OR SPIRAL)
S20000 M3
G54
M8
G0 X-8.083 Y14.004
G43 Z15 H1
Z2
G1 Z0.1 F100
G3 X-6.992 Y13.296 Z0.029 I0.545 J-0.354 F1000
X-8.083 Y14.004 Z-0.043 I-0.545 J0.354
X-6.992 Y13.296 Z-0.114 I0.545 J-0.354
X-8.083 Y14.004 Z-0.185 I-0.545 J0.354
X-6.992 Y13.296 Z-0.257 I0.545 J-0.354
X-8.083 Y14.004 Z-0.328 I-0.545 J0.354
X-6.992 Y13.296 Z-0.399 I0.545 J-0.354
X-8.083 Y14.004 Z-0.47 I-0.545 J0.354
X-6.992 Y13.296 Z-0.542 I0.545 J-0.354
X-8.083 Y14.004 Z-0.613 I-0.545 J0.354
X-6.992 Y13.296 Z-0.684 I0.545 J-0.354
X-8.083 Y14.004 Z-0.756 I-0.545 J0.354
X-6.992 Y13.296 Z-0.827 I0.545 J-0.354
X-8.083 Y14.004 Z-0.898 I-0.545 J0.354
X-6.992 Y13.296 Z-0.97 I0.545 J-0.354
X-8.083 Y14.004 Z-1.041 I-0.545 J0.354
X-6.992 Y13.296 Z-1.112 I0.545 J-0.354
X-8.083 Y14.004 Z-1.184 I-0.545 J0.354
X-6.992 Y13.296 Z-1.255 I0.545 J-0.354
X-8.083 Y14.004 Z-1.326 I-0.545 J0.354
X-6.992 Y13.296 Z-1.397 I0.545 J-0.354
X-8.083 Y14.004 Z-1.469 I-0.545 J0.354
X-6.992 Y13.296 Z-1.54 I0.545 J-0.354
X-8.083 Y14.004 Z-1.611 I-0.545 J0.354
X-6.992 Y13.296 Z-1.683 I0.545 J-0.354
X-8.083 Y14.004 Z-1.754 I-0.545 J0.354
X-6.992 Y13.296 Z-1.825 I0.545 J-0.354
X-8.083 Y14.004 Z-1.897 I-0.545 J0.354
X-6.992 Y13.296 Z-1.968 I0.545 J-0.354
X-8.083 Y14.004 Z-2.039 I-0.545 J0.354
X-6.992 Y13.296 Z-2.111 I0.545 J-0.354
X-8.083 Y14.004 Z-2.182 I-0.545 J0.354
X-6.992 Y13.296 Z-2.253 I0.545 J-0.354
X-8.083 Y14.004 Z-2.325 I-0.545 J0.354
X-6.992 Y13.296 Z-2.396 I0.545 J-0.354
X-8.083 Y14.004 Z-2.467 I-0.545 J0.354
X-6.992 Y13.296 Z-2.538 I0.545 J-0.354
X-8.083 Y14.004 Z-2.61 I-0.545 J0.354
X-6.992 Y13.296 Z-2.681 I0.545 J-0.354
X-8.083 Y14.004 Z-2.752 I-0.545 J0.354
X-6.992 Y13.296 Z-2.824 I0.545 J-0.354
X-8.083 Y14.004 Z-2.895 I-0.545 J0.354
X-6.992 Y13.296 Z-2.966 I0.545 J-0.354
X-8.083 Y14.004 Z-3.038 I-0.545 J0.354
X-6.992 Y13.296 Z-3.109 I0.545 J-0.354
X-8.083 Y14.004 Z-3.18 I-0.545 J0.354
X-7.017 Y13.26 Z-3.25 I0.545 J-0.354
X-8.057 Y14.04 I-0.52 J0.39
X-7.017 Y13.26 I0.52 J-0.39
G0 Z5
X-21.508 Y5.724
Z2
G1 Z0.1 F100
G3 X-22.492 Y4.876 Z0.029 I-0.492 J-0.424 F1000
X-21.508 Y5.724 Z-0.043 I0.492 J0.424
X-22.492 Y4.876 Z-0.114 I-0.492 J-0.424
X-21.508 Y5.724 Z-0.185 I0.492 J0.424
X-22.492 Y4.876 Z-0.257 I-0.492 J-0.424
X-21.508 Y5.724 Z-0.328 I0.492 J0.424
X-22.492 Y4.876 Z-0.399 I-0.492 J-0.424
X-21.508 Y5.724 Z-0.47 I0.492 J0.424
X-22.492 Y4.876 Z-0.542 I-0.492 J-0.424
X-21.508 Y5.724 Z-0.613 I0.492 J0.424
X-22.492 Y4.876 Z-0.684 I-0.492 J-0.424
X-21.508 Y5.724 Z-0.756 I0.492 J0.424
X-22.492 Y4.876 Z-0.827 I-0.492 J-0.424
X-21.508 Y5.724 Z-0.898 I0.492 J0.424
X-22.492 Y4.876 Z-0.97 I-0.492 J-0.424
X-21.508 Y5.724 Z-1.041 I0.492 J0.424
X-22.492 Y4.876 Z-1.112 I-0.492 J-0.424
X-21.508 Y5.724 Z-1.184 I0.492 J0.424
X-22.492 Y4.876 Z-1.255 I-0.492 J-0.424
X-21.508 Y5.724 Z-1.326 I0.492 J0.424
X-22.492 Y4.876 Z-1.397 I-0.492 J-0.424
X-21.508 Y5.724 Z-1.469 I0.492 J0.424
X-22.492 Y4.876 Z-1.54 I-0.492 J-0.424
X-21.508 Y5.724 Z-1.611 I0.492 J0.424
X-22.492 Y4.876 Z-1.683 I-0.492 J-0.424
X-21.508 Y5.724 Z-1.754 I0.492 J0.424
X-22.492 Y4.876 Z-1.825 I-0.492 J-0.424
X-21.508 Y5.724 Z-1.897 I0.492 J0.424
X-22.492 Y4.876 Z-1.968 I-0.492 J-0.424
X-21.508 Y5.724 Z-2.039 I0.492 J0.424
X-22.492 Y4.876 Z-2.111 I-0.492 J-0.424
X-21.508 Y5.724 Z-2.182 I0.492 J0.424
X-22.492 Y4.876 Z-2.253 I-0.492 J-0.424
X-21.508 Y5.724 Z-2.325 I0.492 J0.424
X-22.492 Y4.876 Z-2.396 I-0.492 J-0.424
X-21.508 Y5.724 Z-2.467 I0.492 J0.424
X-22.492 Y4.876 Z-2.538 I-0.492 J-0.424
X-21.508 Y5.724 Z-2.61 I0.492 J0.424
X-22.492 Y4.876 Z-2.681 I-0.492 J-0.424
X-21.508 Y5.724 Z-2.752 I0.492 J0.424
X-22.492 Y4.876 Z-2.824 I-0.492 J-0.424
X-21.508 Y5.724 Z-2.895 I0.492 J0.424
X-22.492 Y4.876 Z-2.966 I-0.492 J-0.424
X-21.508 Y5.724 Z-3.038 I0.492 J0.424
X-22.492 Y4.876 Z-3.109 I-0.492 J-0.424
X-21.508 Y5.724 Z-3.18 I0.492 J0.424
X-22.52 Y4.91 Z-3.25 I-0.492 J-0.424
X-21.48 Y5.69 I0.52 J0.39
X-22.52 Y4.91 I-0.52 J-0.39
G0 Z5
X-37.008 Y14.004
Z2
G1 Z0.1 F100
G3 X-35.917 Y13.296 Z0.029 I0.545 J-0.354 F1000
X-37.008 Y14.004 Z-0.043 I-0.545 J0.354
X-35.917 Y13.296 Z-0.114 I0.545 J-0.354
X-37.008 Y14.004 Z-0.185 I-0.545 J0.354
X-35.917 Y13.296 Z-0.257 I0.545 J-0.354
X-37.008 Y14.004 Z-0.328 I-0.545 J0.354
X-35.917 Y13.296 Z-0.399 I0.545 J-0.354
X-37.008 Y14.004 Z-0.47 I-0.545 J0.354
X-35.917 Y13.296 Z-0.542 I0.545 J-0.354
X-37.008 Y14.004 Z-0.613 I-0.545 J0.354
X-35.917 Y13.296 Z-0.684 I0.545 J-0.354
X-37.008 Y14.004 Z-0.756 I-0.545 J0.354
X-35.917 Y13.296 Z-0.827 I0.545 J-0.354
X-37.008 Y14.004 Z-0.898 I-0.545 J0.354
X-35.917 Y13.296 Z-0.97 I0.545 J-0.354
X-37.008 Y14.004 Z-1.041 I-0.545 J0.354
X-35.917 Y13.296 Z-1.112 I0.545 J-0.354
X-37.008 Y14.004 Z-1.184 I-0.545 J0.354
X-35.917 Y13.296 Z-1.255 I0.545 J-0.354
X-37.008 Y14.004 Z-1.326 I-0.545 J0.354
X-35.917 Y13.296 Z-1.397 I0.545 J-0.354
X-37.008 Y14.004 Z-1.469 I-0.545 J0.354
X-35.917 Y13.296 Z-1.54 I0.545 J-0.354
X-37.008 Y14.004 Z-1.611 I-0.545 J0.354
X-35.917 Y13.296 Z-1.683 I0.545 J-0.354
X-37.008 Y14.004 Z-1.754 I-0.545 J0.354
X-35.917 Y13.296 Z-1.825 I0.545 J-0.354
X-37.008 Y14.004 Z-1.897 I-0.545 J0.354
X-35.917 Y13.296 Z-1.968 I0.545 J-0.354
X-37.008 Y14.004 Z-2.039 I-0.545 J0.354
X-35.917 Y13.296 Z-2.111 I0.545 J-0.354
X-37.008 Y14.004 Z-2.182 I-0.545 J0.354
X-35.917 Y13.296 Z-2.253 I0.545 J-0.354
X-37.008 Y14.004 Z-2.325 I-0.545 J0.354
X-35.917 Y13.296 Z-2.396 I0.545 J-0.354
X-37.008 Y14.004 Z-2.467 I-0.545 J0.354
X-35.917 Y13.296 Z-2.538 I0.545 J-0.354
X-37.008 Y14.004 Z-2.61 I-0.545 J0.354
X-35.917 Y13.296 Z-2.681 I0.545 J-0.354
X-37.008 Y14.004 Z-2.752 I-0.545 J0.354
X-35.917 Y13.296 Z-2.824 I0.545 J-0.354
X-37.008 Y14.004 Z-2.895 I-0.545 J0.354
X-35.917 Y13.296 Z-2.966 I0.545 J-0.354
X-37.008 Y14.004 Z-3.038 I-0.545 J0.354
X-35.917 Y13.296 Z-3.109 I0.545 J-0.354
X-37.008 Y14.004 Z-3.18 I-0.545 J0.354
X-35.943 Y13.26 Z-3.25 I0.545 J-0.354
X-36.983 Y14.04 I-0.52 J0.39
X-35.943 Y13.26 I0.52 J-0.39
G0 Z5
X-35.97 Y30.774
Z2
G1 Z0.1 F100
G3 X-36.955 Y29.926 Z0.029 I-0.492 J-0.424 F1000
X-35.97 Y30.774 Z-0.043 I0.492 J0.424
X-36.955 Y29.926 Z-0.114 I-0.492 J-0.424
X-35.97 Y30.774 Z-0.185 I0.492 J0.424
X-36.955 Y29.926 Z-0.257 I-0.492 J-0.424
X-35.97 Y30.774 Z-0.328 I0.492 J0.424
X-36.955 Y29.926 Z-0.399 I-0.492 J-0.424
X-35.97 Y30.774 Z-0.47 I0.492 J0.424
X-36.955 Y29.926 Z-0.542 I-0.492 J-0.424
X-35.97 Y30.774 Z-0.613 I0.492 J0.424
X-36.955 Y29.926 Z-0.684 I-0.492 J-0.424
X-35.97 Y30.774 Z-0.756 I0.492 J0.424
X-36.955 Y29.926 Z-0.827 I-0.492 J-0.424
X-35.97 Y30.774 Z-0.898 I0.492 J0.424
X-36.955 Y29.926 Z-0.97 I-0.492 J-0.424
X-35.97 Y30.774 Z-1.041 I0.492 J0.424
X-36.955 Y29.926 Z-1.112 I-0.492 J-0.424
X-35.97 Y30.774 Z-1.184 I0.492 J0.424
X-36.955 Y29.926 Z-1.255 I-0.492 J-0.424
X-35.97 Y30.774 Z-1.326 I0.492 J0.424
X-36.955 Y29.926 Z-1.397 I-0.492 J-0.424
X-35.97 Y30.774 Z-1.469 I0.492 J0.424
X-36.955 Y29.926 Z-1.54 I-0.492 J-0.424
X-35.97 Y30.774 Z-1.611 I0.492 J0.424
X-36.955 Y29.926 Z-1.683 I-0.492 J-0.424
X-35.97 Y30.774 Z-1.754 I0.492 J0.424
X-36.955 Y29.926 Z-1.825 I-0.492 J-0.424
X-35.97 Y30.774 Z-1.897 I0.492 J0.424
X-36.955 Y29.926 Z-1.968 I-0.492 J-0.424
X-35.97 Y30.774 Z-2.039 I0.492 J0.424
X-36.955 Y29.926 Z-2.111 I-0.492 J-0.424
X-35.97 Y30.774 Z-2.182 I0.492 J0.424
X-36.955 Y29.926 Z-2.253 I-0.492 J-0.424
X-35.97 Y30.774 Z-2.325 I0.492 J0.424
X-36.955 Y29.926 Z-2.396 I-0.492 J-0.424
X-35.97 Y30.774 Z-2.467 I0.492 J0.424
X-36.955 Y29.926 Z-2.538 I-0.492 J-0.424
X-35.97 Y30.774 Z-2.61 I0.492 J0.424
X-36.955 Y29.926 Z-2.681 I-0.492 J-0.424
X-35.97 Y30.774 Z-2.752 I0.492 J0.424
X-36.955 Y29.926 Z-2.824 I-0.492 J-0.424
X-35.97 Y30.774 Z-2.895 I0.492 J0.424
X-36.955 Y29.926 Z-2.966 I-0.492 J-0.424
X-35.97 Y30.774 Z-3.038 I0.492 J0.424
X-36.955 Y29.926 Z-3.109 I-0.492 J-0.424
X-35.97 Y30.774 Z-3.18 I0.492 J0.424
X-36.983 Y29.96 Z-3.25 I-0.492 J-0.424
X-35.943 Y30.74 I0.52 J0.39
X-36.983 Y29.96 I-0.52 J-0.39
G0 Z5
X-21.508 Y39.124
Z2
G1 Z0.1 F100
G3 X-22.492 Y38.276 Z0.029 I-0.492 J-0.424 F1000
X-21.508 Y39.124 Z-0.043 I0.492 J0.424
X-22.492 Y38.276 Z-0.114 I-0.492 J-0.424
X-21.508 Y39.124 Z-0.185 I0.492 J0.424
X-22.492 Y38.276 Z-0.257 I-0.492 J-0.424
X-21.508 Y39.124 Z-0.328 I0.492 J0.424
X-22.492 Y38.276 Z-0.399 I-0.492 J-0.424
X-21.508 Y39.124 Z-0.47 I0.492 J0.424
X-22.492 Y38.276 Z-0.542 I-0.492 J-0.424
X-21.508 Y39.124 Z-0.613 I0.492 J0.424
X-22.492 Y38.276 Z-0.684 I-0.492 J-0.424
X-21.508 Y39.124 Z-0.756 I0.492 J0.424
X-22.492 Y38.276 Z-0.827 I-0.492 J-0.424
X-21.508 Y39.124 Z-0.898 I0.492 J0.424
X-22.492 Y38.276 Z-0.97 I-0.492 J-0.424
X-21.508 Y39.124 Z-1.041 I0.492 J0.424
X-22.492 Y38.276 Z-1.112 I-0.492 J-0.424
X-21.508 Y39.124 Z-1.184 I0.492 J0.424
X-22.492 Y38.276 Z-1.255 I-0.492 J-0.424
X-21.508 Y39.124 Z-1.326 I0.492 J0.424
X-22.492 Y38.276 Z-1.397 I-0.492 J-0.424
X-21.508 Y39.124 Z-1.469 I0.492 J0.424
X-22.492 Y38.276 Z-1.54 I-0.492 J-0.424
X-21.508 Y39.124 Z-1.611 I0.492 J0.424
X-22.492 Y38.276 Z-1.683 I-0.492 J-0.424
X-21.508 Y39.124 Z-1.754 I0.492 J0.424
X-22.492 Y38.276 Z-1.825 I-0.492 J-0.424
X-21.508 Y39.124 Z-1.897 I0.492 J0.424
X-22.492 Y38.276 Z-1.968 I-0.492 J-0.424
X-21.508 Y39.124 Z-2.039 I0.492 J0.424
X-22.492 Y38.276 Z-2.111 I-0.492 J-0.424
X-21.508 Y39.124 Z-2.182 I0.492 J0.424
X-22.492 Y38.276 Z-2.253 I-0.492 J-0.424
X-21.508 Y39.124 Z-2.325 I0.492 J0.424
X-22.492 Y38.276 Z-2.396 I-0.492 J-0.424
X-21.508 Y39.124 Z-2.467 I0.492 J0.424
X-22.492 Y38.276 Z-2.538 I-0.492 J-0.424
X-21.508 Y39.124 Z-2.61 I0.492 J0.424
X-22.492 Y38.276 Z-2.681 I-0.492 J-0.424
X-21.508 Y39.124 Z-2.752 I0.492 J0.424
X-22.492 Y38.276 Z-2.824 I-0.492 J-0.424
X-21.508 Y39.124 Z-2.895 I0.492 J0.424
X-22.492 Y38.276 Z-2.966 I-0.492 J-0.424
X-21.508 Y39.124 Z-3.038 I0.492 J0.424
X-22.492 Y38.276 Z-3.109 I-0.492 J-0.424
X-21.508 Y39.124 Z-3.18 I0.492 J0.424
X-22.52 Y38.31 Z-3.25 I-0.492 J-0.424
X-21.48 Y39.09 I0.52 J0.39
X-22.52 Y38.31 I-0.52 J-0.39
G0 Z5
X-7.493 Y29.702
Z2
G1 Z0.1 F100
G3 X-7.582 Y30.998 Z0.029 I-0.044 J0.648 F1000
X-7.493 Y29.702 Z-0.043 I0.044 J-0.648
X-7.582 Y30.998 Z-0.114 I-0.044 J0.648
X-7.493 Y29.702 Z-0.185 I0.044 J-0.648
X-7.582 Y30.998 Z-0.257 I-0.044 J0.648
X-7.493 Y29.702 Z-0.328 I0.044 J-0.648
X-7.582 Y30.998 Z-0.399 I-0.044 J0.648
X-7.493 Y29.702 Z-0.47 I0.044 J-0.648
X-7.582 Y30.998 Z-0.542 I-0.044 J0.648
X-7.493 Y29.702 Z-0.613 I0.044 J-0.648
X-7.582 Y30.998 Z-0.684 I-0.044 J0.648
X-7.493 Y29.702 Z-0.756 I0.044 J-0.648
X-7.582 Y30.998 Z-0.827 I-0.044 J0.648
X-7.493 Y29.702 Z-0.898 I0.044 J-0.648
X-7.582 Y30.998 Z-0.97 I-0.044 J0.648
X-7.493 Y29.702 Z-1.041 I0.044 J-0.648
X-7.582 Y30.998 Z-1.112 I-0.044 J0.648
X-7.493 Y29.702 Z-1.184 I0.044 J-0.648
X-7.582 Y30.998 Z-1.255 I-0.044 J0.648
X-7.493 Y29.702 Z-1.326 I0.044 J-0.648
X-7.582 Y30.998 Z-1.397 I-0.044 J0.648
X-7.493 Y29.702 Z-1.469 I0.044 J-0.648
X-7.582 Y30.998 Z-1.54 I-0.044 J0.648
X-7.493 Y29.702 Z-1.611 I0.044 J-0.648
X-7.582 Y30.998 Z-1.683 I-0.044 J0.648
X-7.493 Y29.702 Z-1.754 I0.044 J-0.648
X-7.582 Y30.998 Z-1.825 I-0.044 J0.648
X-7.493 Y29.702 Z-1.897 I0.044 J-0.648
X-7.582 Y30.998 Z-1.968 I-0.044 J0.648
X-7.493 Y29.702 Z-2.039 I0.044 J-0.648
X-7.582 Y30.998 Z-2.111 I-0.044 J0.648
X-7.493 Y29.702 Z-2.182 I0.044 J-0.648
X-7.582 Y30.998 Z-2.253 I-0.044 J0.648
X-7.493 Y29.702 Z-2.325 I0.044 J-0.648
X-7.582 Y30.998 Z-2.396 I-0.044 J0.648
X-7.493 Y29.702 Z-2.467 I0.044 J-0.648
X-7.582 Y30.998 Z-2.538 I-0.044 J0.648
X-7.493 Y29.702 Z-2.61 I0.044 J-0.648
X-7.582 Y30.998 Z-2.681 I-0.044 J0.648
X-7.493 Y29.702 Z-2.752 I0.044 J-0.648
X-7.582 Y30.998 Z-2.824 I-0.044 J0.648
X-7.493 Y29.702 Z-2.895 I0.044 J-0.648
X-7.582 Y30.998 Z-2.966 I-0.044 J0.648
X-7.493 Y29.702 Z-3.038 I0.044 J-0.648
X-7.582 Y30.998 Z-3.109 I-0.044 J0.648
X-7.493 Y29.702 Z-3.18 I0.044 J-0.648
X-7.537 Y31 Z-3.25 I-0.044 J0.648
Y29.7 I0 J-0.65
Y31 I0 J0.65
G0 Z15

(2MM FLAT HOLE THROUGH)
M8
G0 X-36.623 Y13.458
Z15
Z1
G1 Z-1.25 F100
Z-3.15
G3 X-36.302 Y13.842 Z-3.177 I0.161 J0.192 F1000
X-36.623 Y13.458 Z-3.205 I-0.161 J-0.192
X-36.302 Y13.842 Z-3.232 I0.161 J0.192
X-36.623 Y13.458 Z-3.26 I-0.161 J-0.192
X-36.302 Y13.842 Z-3.287 I0.161 J0.192
X-36.623 Y13.458 Z-3.315 I-0.161 J-0.192
X-36.302 Y13.842 Z-3.342 I0.161 J0.192
X-36.623 Y13.458 Z-3.369 I-0.161 J-0.192
X-36.302 Y13.842 Z-3.397 I0.161 J0.192
X-36.623 Y13.458 Z-3.424 I-0.161 J-0.192
X-36.302 Y13.842 Z-3.452 I0.161 J0.192
X-36.623 Y13.458 Z-3.479 I-0.161 J-0.192
X-36.302 Y13.842 Z-3.507 I0.161 J0.192
X-36.623 Y13.458 Z-3.534 I-0.161 J-0.192
X-36.302 Y13.842 Z-3.561 I0.161 J0.192
X-36.623 Y13.458 Z-3.589 I-0.161 J-0.192
X-36.302 Y13.842 Z-3.616 I0.161 J0.192
X-36.623 Y13.458 Z-3.644 I-0.161 J-0.192
X-36.302 Y13.842 Z-3.671 I0.161 J0.192
X-36.623 Y13.458 Z-3.699 I-0.161 J-0.192
X-36.302 Y13.842 Z-3.726 I0.161 J0.192
X-36.623 Y13.458 Z-3.753 I-0.161 J-0.192
X-36.302 Y13.842 Z-3.781 I0.161 J0.192
X-36.623 Y13.458 Z-3.808 I-0.161 J-0.192
X-36.302 Y13.842 Z-3.836 I0.161 J0.192
X-36.623 Y13.458 Z-3.863 I-0.161 J-0.192
X-36.302 Y13.842 Z-3.891 I0.161 J0.192
X-36.623 Y13.458 Z-3.918 I-0.161 J-0.192
X-36.302 Y13.842 Z-3.945 I0.161 J0.192
X-36.623 Y13.458 Z-3.973 I-0.161 J-0.192
X-36.302 Y13.842 Z-4 I0.161 J0.192
X-36.623 Y13.458 Z-4.028 I-0.161 J-0.192
X-36.302 Y13.842 Z-4.055 I0.161 J0.192
X-36.623 Y13.458 Z-4.083 I-0.161 J-0.192
X-36.302 Y13.842 Z-4.11 I0.161 J0.192
X-36.623 Y13.458 Z-4.137 I-0.161 J-0.192
X-36.302 Y13.842 Z-4.165 I0.161 J0.192
X-36.623 Y13.458 Z-4.192 I-0.161 J-0.192
X-36.302 Y13.842 Z-4.22 I0.161 J0.192
X-36.623 Y13.458 Z-4.247 I-0.161 J-0.192
X-36.302 Y13.842 Z-4.274 I0.161 J0.192
X-36.623 Y13.458 Z-4.302 I-0.161 J-0.192
X-36.302 Y13.842 Z-4.329 I0.161 J0.192
X-36.623 Y13.458 Z-4.357 I-0.161 J-0.192
X-36.302 Y13.842 Z-4.384 I0.161 J0.192
X-36.623 Y13.458 Z-4.412 I-0.161 J-0.192
X-36.302 Y13.842 Z-4.439 I0.161 J0.192
X-36.623 Y13.458 Z-4.466 I-0.161 J-0.192
X-36.302 Y13.842 Z-4.494 I0.161 J0.192
X-36.463 Y13.9 Z-4.5 I-0.161 J-0.192
Y13.4 I0 J-0.25
Y13.9 I0 J0.25
G0 Z5
X-36.623 Y30.158
Z1
G1 Z-1.25 F100
Z-3.15
G3 X-36.302 Y30.542 Z-3.177 I0.161 J0.192 F1000
X-36.623 Y30.158 Z-3.205 I-0.161 J-0.192
X-36.302 Y30.542 Z-3.232 I0.161 J0.192
X-36.623 Y30.158 Z-3.26 I-0.161 J-0.192
X-36.302 Y30.542 Z-3.287 I0.161 J0.192
X-36.623 Y30.158 Z-3.315 I-0.161 J-0.192
X-36.302 Y30.542 Z-3.342 I0.161 J0.192
X-36.623 Y30.158 Z-3.369 I-0.161 J-0.192
X-36.302 Y30.542 Z-3.397 I0.161 J0.192
X-36.623 Y30.158 Z-3.424 I-0.161 J-0.192
X-36.302 Y30.542 Z-3.452 I0.161 J0.192
X-36.623 Y30.158 Z-3.479 I-0.161 J-0.192
X-36.302 Y30.542 Z-3.507 I0.161 J0.192
X-36.623 Y30.158 Z-3.534 I-0.161 J-0.192
X-36.302 Y30.542 Z-3.561 I0.161 J0.192
X-36.623 Y30.158 Z-3.589 I-0.161 J-0.192
X-36.302 Y30.542 Z-3.616 I0.161 J0.192
X-36.623 Y30.158 Z-3.644 I-0.161 J-0.192
X-36.302 Y30.542 Z-3.671 I0.161 J0.192
X-36.623 Y30.158 Z-3.699 I-0.161 J-0.192
X-36.302 Y30.542 Z-3.726 I0.161 J0.192
X-36.623 Y30.158 Z-3.753 I-0.161 J-0.192
X-36.302 Y30.542 Z-3.781 I0.161 J0.192
X-36.623 Y30.158 Z-3.808 I-0.161 J-0.192
X-36.302 Y30.542 Z-3.836 I0.161 J0.192
X-36.623 Y30.158 Z-3.863 I-0.161 J-0.192
X-36.302 Y30.542 Z-3.891 I0.161 J0.192
X-36.623 Y30.158 Z-3.918 I-0.161 J-0.192
X-36.302 Y30.542 Z-3.945 I0.161 J0.192
X-36.623 Y30.158 Z-3.973 I-0.161 J-0.192
X-36.302 Y30.542 Z-4 I0.161 J0.192
X-36.623 Y30.158 Z-4.028 I-0.161 J-0.192
X-36.302 Y30.542 Z-4.055 I0.161 J0.192
X-36.623 Y30.158 Z-4.083 I-0.161 J-0.192
X-36.302 Y30.542 Z-4.11 I0.161 J0.192
X-36.623 Y30.158 Z-4.137 I-0.161 J-0.192
X-36.302 Y30.542 Z-4.165 I0.161 J0.192
X-36.623 Y30.158 Z-4.192 I-0.161 J-0.192
X-36.302 Y30.542 Z-4.22 I0.161 J0.192
X-36.623 Y30.158 Z-4.247 I-0.161 J-0.192
X-36.302 Y30.542 Z-4.274 I0.161 J0.192
X-36.623 Y30.158 Z-4.302 I-0.161 J-0.192
X-36.302 Y30.542 Z-4.329 I0.161 J0.192
X-36.623 Y30.158 Z-4.357 I-0.161 J-0.192
X-36.302 Y30.542 Z-4.384 I0.161 J0.192
X-36.623 Y30.158 Z-4.412 I-0.161 J-0.192
X-36.302 Y30.542 Z-4.439 I0.161 J0.192
X-36.623 Y30.158 Z-4.466 I-0.161 J-0.192
X-36.302 Y30.542 Z-4.494 I0.161 J0.192
X-36.463 Y30.6 Z-4.5 I-0.161 J-0.192
Y30.1 I0 J-0.25
Y30.6 I0 J0.25
G0 Z5
X-21.75 Y38.686
Z1
G1 Z-1.25 F100
Z-3.15
G3 X-22.25 Y38.714 Z-3.177 I-0.25 J0.014 F1000
X-21.75 Y38.686 Z-3.205 I0.25 J-0.014
X-22.25 Y38.714 Z-3.232 I-0.25 J0.014
X-21.75 Y38.686 Z-3.26 I0.25 J-0.014
X-22.25 Y38.714 Z-3.287 I-0.25 J0.014
X-21.75 Y38.686 Z-3.315 I0.25 J-0.014
X-22.25 Y38.714 Z-3.342 I-0.25 J0.014
X-21.75 Y38.686 Z-3.369 I0.25 J-0.014
X-22.25 Y38.714 Z-3.397 I-0.25 J0.014
X-21.75 Y38.686 Z-3.424 I0.25 J-0.014
X-22.25 Y38.714 Z-3.452 I-0.25 J0.014
X-21.75 Y38.686 Z-3.479 I0.25 J-0.014
X-22.25 Y38.714 Z-3.507 I-0.25 J0.014
X-21.75 Y38.686 Z-3.534 I0.25 J-0.014
X-22.25 Y38.714 Z-3.561 I-0.25 J0.014
X-21.75 Y38.686 Z-3.589 I0.25 J-0.014
X-22.25 Y38.714 Z-3.616 I-0.25 J0.014
X-21.75 Y38.686 Z-3.644 I0.25 J-0.014
X-22.25 Y38.714 Z-3.671 I-0.25 J0.014
X-21.75 Y38.686 Z-3.699 I0.25 J-0.014
X-22.25 Y38.714 Z-3.726 I-0.25 J0.014
X-21.75 Y38.686 Z-3.753 I0.25 J-0.014
X-22.25 Y38.714 Z-3.781 I-0.25 J0.014
X-21.75 Y38.686 Z-3.808 I0.25 J-0.014
X-22.25 Y38.714 Z-3.836 I-0.25 J0.014
X-21.75 Y38.686 Z-3.863 I0.25 J-0.014
X-22.25 Y38.714 Z-3.891 I-0.25 J0.014
X-21.75 Y38.686 Z-3.918 I0.25 J-0.014
X-22.25 Y38.714 Z-3.945 I-0.25 J0.014
X-21.75 Y38.686 Z-3.973 I0.25 J-0.014
X-22.25 Y38.714 Z-4 I-0.25 J0.014
X-21.75 Y38.686 Z-4.028 I0.25 J-0.014
X-22.25 Y38.714 Z-4.055 I-0.25 J0.014
X-21.75 Y38.686 Z-4.083 I0.25 J-0.014
X-22.25 Y38.714 Z-4.11 I-0.25 J0.014
X-21.75 Y38.686 Z-4.137 I0.25 J-0.014
X-22.25 Y38.714 Z-4.165 I-0.25 J0.014
X-21.75 Y38.686 Z-4.192 I0.25 J-0.014
X-22.25 Y38.714 Z-4.22 I-0.25 J0.014
X-21.75 Y38.686 Z-4.247 I0.25 J-0.014
X-22.25 Y38.714 Z-4.274 I-0.25 J0.014
X-21.75 Y38.686 Z-4.302 I0.25 J-0.014
X-22.25 Y38.714 Z-4.329 I-0.25 J0.014
X-21.75 Y38.686 Z-4.357 I0.25 J-0.014
X-22.25 Y38.714 Z-4.384 I-0.25 J0.014
X-21.75 Y38.686 Z-4.412 I0.25 J-0.014
X-22.25 Y38.714 Z-4.439 I-0.25 J0.014
X-21.75 Y38.686 Z-4.466 I0.25 J-0.014
X-22.25 Y38.714 Z-4.494 I-0.25 J0.014
X-22.2 Y38.55 Z-4.5 I0.25 J-0.014
X-21.8 Y38.85 I0.2 J0.15
X-22.2 Y38.55 I-0.2 J-0.15
G0 Z5
X-7.698 Y30.158
Z1
G1 Z-1.25 F100
Z-3.15
G3 X-7.377 Y30.542 Z-3.177 I0.161 J0.192 F1000
X-7.698 Y30.158 Z-3.205 I-0.161 J-0.192
X-7.377 Y30.542 Z-3.232 I0.161 J0.192
X-7.698 Y30.158 Z-3.26 I-0.161 J-0.192
X-7.377 Y30.542 Z-3.287 I0.161 J0.192
X-7.698 Y30.158 Z-3.315 I-0.161 J-0.192
X-7.377 Y30.542 Z-3.342 I0.161 J0.192
X-7.698 Y30.158 Z-3.369 I-0.161 J-0.192
X-7.377 Y30.542 Z-3.397 I0.161 J0.192
X-7.698 Y30.158 Z-3.424 I-0.161 J-0.192
X-7.377 Y30.542 Z-3.452 I0.161 J0.192
X-7.698 Y30.158 Z-3.479 I-0.161 J-0.192
X-7.377 Y30.542 Z-3.507 I0.161 J0.192
X-7.698 Y30.158 Z-3.534 I-0.161 J-0.192
X-7.377 Y30.542 Z-3.561 I0.161 J0.192
X-7.698 Y30.158 Z-3.589 I-0.161 J-0.192
X-7.377 Y30.542 Z-3.616 I0.161 J0.192
X-7.698 Y30.158 Z-3.644 I-0.161 J-0.192
X-7.377 Y30.542 Z-3.671 I0.161 J0.192
X-7.698 Y30.158 Z-3.699 I-0.161 J-0.192
X-7.377 Y30.542 Z-3.726 I0.161 J0.192
X-7.698 Y30.158 Z-3.753 I-0.161 J-0.192
X-7.377 Y30.542 Z-3.781 I0.161 J0.192
X-7.698 Y30.158 Z-3.808 I-0.161 J-0.192
X-7.377 Y30.542 Z-3.836 I0.161 J0.192
X-7.698 Y30.158 Z-3.863 I-0.161 J-0.192
X-7.377 Y30.542 Z-3.891 I0.161 J0.192
X-7.698 Y30.158 Z-3.918 I-0.161 J-0.192
X-7.377 Y30.542 Z-3.945 I0.161 J0.192
X-7.698 Y30.158 Z-3.973 I-0.161 J-0.192
X-7.377 Y30.542 Z-4 I0.161 J0.192
X-7.698 Y30.158 Z-4.028 I-0.161 J-0.192
X-7.377 Y30.542 Z-4.055 I0.161 J0.192
X-7.698 Y30.158 Z-4.083 I-0.161 J-0.192
X-7.377 Y30.542 Z-4.11 I0.161 J0.192
X-7.698 Y30.158 Z-4.137 I-0.161 J-0.192
X-7.377 Y30.542 Z-4.165 I0.161 J0.192
X-7.698 Y30.158 Z-4.192 I-0.161 J-0.192
X-7.377 Y30.542 Z-4.22 I0.161 J0.192
X-7.698 Y30.158 Z-4.247 I-0.161 J-0.192
X-7.377 Y30.542 Z-4.274 I0.161 J0.192
X-7.698 Y30.158 Z-4.302 I-0.161 J-0.192
X-7.377 Y30.542 Z-4.329 I0.161 J0.192
X-7.698 Y30.158 Z-4.357 I-0.161 J-0.192
X-7.377 Y30.542 Z-4.384 I0.161 J0.192
X-7.698 Y30.158 Z-4.412 I-0.161 J-0.192
X-7.377 Y30.542 Z-4.439 I0.161 J0.192
X-7.698 Y30.158 Z-4.466 I-0.161 J-0.192
X-7.377 Y30.542 Z-4.494 I0.161 J0.192
X-7.537 Y30.6 Z-4.5 I-0.161 J-0.192
Y30.1 I0 J-0.25
Y30.6 I0 J0.25
G0 Z5
X-7.698 Y13.458
Z1
G1 Z-1.25 F100
Z-3.15
G3 X-7.377 Y13.842 Z-3.177 I0.161 J0.192 F1000
X-7.698 Y13.458 Z-3.205 I-0.161 J-0.192
X-7.377 Y13.842 Z-3.232 I0.161 J0.192
X-7.698 Y13.458 Z-3.26 I-0.161 J-0.192
X-7.377 Y13.842 Z-3.287 I0.161 J0.192
X-7.698 Y13.458 Z-3.315 I-0.161 J-0.192
X-7.377 Y13.842 Z-3.342 I0.161 J0.192
X-7.698 Y13.458 Z-3.369 I-0.161 J-0.192
X-7.377 Y13.842 Z-3.397 I0.161 J0.192
X-7.698 Y13.458 Z-3.424 I-0.161 J-0.192
X-7.377 Y13.842 Z-3.452 I0.161 J0.192
X-7.698 Y13.458 Z-3.479 I-0.161 J-0.192
X-7.377 Y13.842 Z-3.507 I0.161 J0.192
X-7.698 Y13.458 Z-3.534 I-0.161 J-0.192
X-7.377 Y13.842 Z-3.561 I0.161 J0.192
X-7.698 Y13.458 Z-3.589 I-0.161 J-0.192
X-7.377 Y13.842 Z-3.616 I0.161 J0.192
X-7.698 Y13.458 Z-3.644 I-0.161 J-0.192
X-7.377 Y13.842 Z-3.671 I0.161 J0.192
X-7.698 Y13.458 Z-3.699 I-0.161 J-0.192
X-7.377 Y13.842 Z-3.726 I0.161 J0.192
X-7.698 Y13.458 Z-3.753 I-0.161 J-0.192
X-7.377 Y13.842 Z-3.781 I0.161 J0.192
X-7.698 Y13.458 Z-3.808 I-0.161 J-0.192
X-7.377 Y13.842 Z-3.836 I0.161 J0.192
X-7.698 Y13.458 Z-3.863 I-0.161 J-0.192
X-7.377 Y13.842 Z-3.891 I0.161 J0.192
X-7.698 Y13.458 Z-3.918 I-0.161 J-0.192
X-7.377 Y13.842 Z-3.945 I0.161 J0.192
X-7.698 Y13.458 Z-3.973 I-0.161 J-0.192
X-7.377 Y13.842 Z-4 I0.161 J0.192
X-7.698 Y13.458 Z-4.028 I-0.161 J-0.192
X-7.377 Y13.842 Z-4.055 I0.161 J0.192
X-7.698 Y13.458 Z-4.083 I-0.161 J-0.192
X-7.377 Y13.842 Z-4.11 I0.161 J0.192
X-7.698 Y13.458 Z-4.137 I-0.161 J-0.192
X-7.377 Y13.842 Z-4.165 I0.161 J0.192
X-7.698 Y13.458 Z-4.192 I-0.161 J-0.192
X-7.377 Y13.842 Z-4.22 I0.161 J0.192
X-7.698 Y13.458 Z-4.247 I-0.161 J-0.192
X-7.377 Y13.842 Z-4.274 I0.161 J0.192
X-7.698 Y13.458 Z-4.302 I-0.161 J-0.192
X-7.377 Y13.842 Z-4.329 I0.161 J0.192
X-7.698 Y13.458 Z-4.357 I-0.161 J-0.192
X-7.377 Y13.842 Z-4.384 I0.161 J0.192
X-7.698 Y13.458 Z-4.412 I-0.161 J-0.192
X-7.377 Y13.842 Z-4.439 I0.161 J0.192
X-7.698 Y13.458 Z-4.466 I-0.161 J-0.192
X-7.377 Y13.842 Z-4.494 I0.161 J0.192
X-7.537 Y13.9 Z-4.5 I-0.161 J-0.192
Y13.4 I0 J-0.25
Y13.9 I0 J0.25
G0 Z5
X-22.161 Y5.108
Z1
G1 Z-1.25 F100
Z-3.15
G3 X-21.839 Y5.492 Z-3.177 I0.161 J0.192 F1000
X-22.161 Y5.108 Z-3.205 I-0.161 J-0.192
X-21.839 Y5.492 Z-3.232 I0.161 J0.192
X-22.161 Y5.108 Z-3.26 I-0.161 J-0.192
X-21.839 Y5.492 Z-3.287 I0.161 J0.192
X-22.161 Y5.108 Z-3.315 I-0.161 J-0.192
X-21.839 Y5.492 Z-3.342 I0.161 J0.192
X-22.161 Y5.108 Z-3.369 I-0.161 J-0.192
X-21.839 Y5.492 Z-3.397 I0.161 J0.192
X-22.161 Y5.108 Z-3.424 I-0.161 J-0.192
X-21.839 Y5.492 Z-3.452 I0.161 J0.192
X-22.161 Y5.108 Z-3.479 I-0.161 J-0.192
X-21.839 Y5.492 Z-3.507 I0.161 J0.192
X-22.161 Y5.108 Z-3.534 I-0.161 J-0.192
X-21.839 Y5.492 Z-3.561 I0.161 J0.192
X-22.161 Y5.108 Z-3.589 I-0.161 J-0.192
X-21.839 Y5.492 Z-3.616 I0.161 J0.192
X-22.161 Y5.108 Z-3.644 I-0.161 J-0.192
X-21.839 Y5.492 Z-3.671 I0.161 J0.192
X-22.161 Y5.108 Z-3.699 I-0.161 J-0.192
X-21.839 Y5.492 Z-3.726 I0.161 J0.192
X-22.161 Y5.108 Z-3.753 I-0.161 J-0.192
X-21.839 Y5.492 Z-3.781 I0.161 J0.192
X-22.161 Y5.108 Z-3.808 I-0.161 J-0.192
X-21.839 Y5.492 Z-3.836 I0.161 J0.192
X-22.161 Y5.108 Z-3.863 I-0.161 J-0.192
X-21.839 Y5.492 Z-3.891 I0.161 J0.192
X-22.161 Y5.108 Z-3.918 I-0.161 J-0.192
X-21.839 Y5.492 Z-3.945 I0.161 J0.192
X-22.161 Y5.108 Z-3.973 I-0.161 J-0.192
X-21.839 Y5.492 Z-4 I0.161 J0.192
X-22.161 Y5.108 Z-4.028 I-0.161 J-0.192
X-21.839 Y5.492 Z-4.055 I0.161 J0.192
X-22.161 Y5.108 Z-4.083 I-0.161 J-0.192
X-21.839 Y5.492 Z-4.11 I0.161 J0.192
X-22.161 Y5.108 Z-4.137 I-0.161 J-0.192
X-21.839 Y5.492 Z-4.165 I0.161 J0.192
X-22.161 Y5.108 Z-4.192 I-0.161 J-0.192
X-21.839 Y5.492 Z-4.22 I0.161 J0.192
X-22.161 Y5.108 Z-4.247 I-0.161 J-0.192
X-21.839 Y5.492 Z-4.274 I0.161 J0.192
X-22.161 Y5.108 Z-4.302 I-0.161 J-0.192
X-21.839 Y5.492 Z-4.329 I0.161 J0.192
X-22.161 Y5.108 Z-4.357 I-0.161 J-0.192
X-21.839 Y5.492 Z-4.384 I0.161 J0.192
X-22.161 Y5.108 Z-4.412 I-0.161 J-0.192
X-21.839 Y5.492 Z-4.439 I0.161 J0.192
X-22.161 Y5.108 Z-4.466 I-0.161 J-0.192
X-21.839 Y5.492 Z-4.494 I0.161 J0.192
X-22 Y5.55 Z-4.5 I-0.161 J-0.192
Y5.05 I0 J-0.25
Y5.55 I0 J0.25
G0 Z15

(2MM FLAT CENTER HOLE TOP)
M8
G0 X-20.437 Y21.658
Z15
Z2
G1 Z0.1 F100
G3 X-23.563 Y22.342 Z-0.076 I-1.563 J0.342 F1000
X-20.437 Y21.658 Z-0.251 I1.563 J-0.342
X-23.563 Y22.342 Z-0.427 I-1.563 J0.342
X-20.437 Y21.658 Z-0.602 I1.563 J-0.342
X-23.563 Y22.342 Z-0.778 I-1.563 J0.342
X-20.437 Y21.658 Z-0.953 I1.563 J-0.342
X-23.563 Y22.342 Z-1.129 I-1.563 J0.342
X-20.437 Y21.658 Z-1.304 I1.563 J-0.342
X-23.563 Y22.342 Z-1.48 I-1.563 J0.342
X-20.437 Y21.658 Z-1.655 I1.563 J-0.342
X-23.563 Y22.342 Z-1.831 I-1.563 J0.342
X-20.437 Y21.658 Z-2.006 I1.563 J-0.342
X-23.563 Y22.342 Z-2.182 I-1.563 J0.342
X-20.437 Y21.658 Z-2.357 I1.563 J-0.342
X-23.563 Y22.342 Z-2.533 I-1.563 J0.342
X-20.437 Y21.658 Z-2.708 I1.563 J-0.342
X-23.563 Y22.342 Z-2.884 I-1.563 J0.342
X-20.437 Y21.658 Z-3.06 I1.563 J-0.342
X-23.563 Y22.342 Z-3.235 I-1.563 J0.342
X-20.437 Y21.658 Z-3.411 I1.563 J-0.342
X-23.563 Y22.342 Z-3.586 I-1.563 J0.342
X-22.96 Y20.72 Z-3.65 I1.563 J-0.342
X-21.04 Y23.28 I0.96 J1.28
X-22.96 Y20.72 I-0.96 J-1.28
G0 Z15

(2MM FLAT CENTER HOLE THROUGH)
M8
G0 X-22.296 Y23.059
Z15
Z2
G1 Z0.1 F100
G3 X-21.704 Y20.941 Z-0.021 I0.296 J-1.059 F1000
X-22.296 Y23.059 Z-0.141 I-0.296 J1.059
X-21.704 Y20.941 Z-0.262 I0.296 J-1.059
X-22.296 Y23.059 Z-0.383 I-0.296 J1.059
X-21.704 Y20.941 Z-0.503 I0.296 J-1.059
X-22.296 Y23.059 Z-0.624 I-0.296 J1.059
X-21.704 Y20.941 Z-0.745 I0.296 J-1.059
X-22.296 Y23.059 Z-0.865 I-0.296 J1.059
X-21.704 Y20.941 Z-0.986 I0.296 J-1.059
X-22.296 Y23.059 Z-1.107 I-0.296 J1.059
X-21.704 Y20.941 Z-1.227 I0.296 J-1.059
X-22.296 Y23.059 Z-1.348 I-0.296 J1.059
X-21.704 Y20.941 Z-1.469 I0.296 J-1.059
X-22.296 Y23.059 Z-1.589 I-0.296 J1.059
X-21.704 Y20.941 Z-1.71 I0.296 J-1.059
X-22.296 Y23.059 Z-1.831 I-0.296 J1.059
X-21.704 Y20.941 Z-1.952 I0.296 J-1.059
X-22.296 Y23.059 Z-2.072 I-0.296 J1.059
X-21.704 Y20.941 Z-2.193 I0.296 J-1.059
X-22.296 Y23.059 Z-2.314 I-0.296 J1.059
X-21.704 Y20.941 Z-2.434 I0.296 J-1.059
X-22.296 Y23.059 Z-2.555 I-0.296 J1.059
X-21.704 Y20.941 Z-2.676 I0.296 J-1.059
X-22.296 Y23.059 Z-2.796 I-0.296 J1.059
X-21.704 Y20.941 Z-2.917 I0.296 J-1.059
X-22.296 Y23.059 Z-3.038 I-0.296 J1.059
X-21.704 Y20.941 Z-3.158 I0.296 J-1.059
X-22.296 Y23.059 Z-3.279 I-0.296 J1.059
X-21.704 Y20.941 Z-3.4 I0.296 J-1.059
X-22.296 Y23.059 Z-3.52 I-0.296 J1.059
X-21.704 Y20.941 Z-3.641 I0.296 J-1.059
X-22.296 Y23.059 Z-3.762 I-0.296 J1.059
X-21.704 Y20.941 Z-3.882 I0.296 J-1.059
X-22.296 Y23.059 Z-4.003 I-0.296 J1.059
X-21.704 Y20.941 Z-4.124 I0.296 J-1.059
X-22.296 Y23.059 Z-4.244 I-0.296 J1.059
X-21.704 Y20.941 Z-4.365 I0.296 J-1.059
X-22.296 Y23.059 Z-4.486 I-0.296 J1.059
X-22.66 Y22.88 Z-4.5 I0.296 J-1.059
X-21.34 Y21.12 I0.66 J-0.88
X-22.66 Y22.88 I-0.66 J0.88
G0 Z15

(2MM FLAT CENTER SLOT)
M8
G0 X-18.319 Y19.875
Z15
Z2
G1 Z0.1 F500
X-25.681 Y24.125 Z-0.138 F1000
X-18.319 Y19.875 Z-0.375
X-25.681 Y24.125 Z-0.613
X-18.319 Y19.875 Z-0.85
X-25.681 Y24.125 Z-1.087
X-18.319 Y19.875 Z-1.325
X-25.681 Y24.125 Z-1.563
X-18.319 Y19.875 Z-1.8
X-25.681 Y24.125 Z-2.037
X-18.319 Y19.875 Z-2.275
X-25.681 Y24.125 Z-2.513
X-18.319 Y19.875 Z-2.75
X-25.681 Y24.125
G0 Z15

(2MM FLAT SPOKES)
M8
G0 X-24.255 Y2.242
Z15
Z2
G1 Z0.1 F100
G2 X-23.5 Y8.791 Z0.023 I2.255 J3.058 F1000
G1 Y16.553 Z-0.052
G2 X-25.967 Y17.977 Z-0.08 I1.5 J5.447
G1 X-32.689 Y14.097 Z-0.155
G2 X-38.199 Y10.27 Z-0.235 I-3.774 J-0.447
G3 X-24.059 Y2.106 Z-0.398 I16.199 J11.73
G2 X-23.5 Y8.791 Z-0.477 I2.059 J3.194
G1 Y16.553 Z-0.552
G2 X-25.967 Y17.977 Z-0.58 I1.5 J5.447
G1 X-32.689 Y14.097 Z-0.655
G2 X-38.199 Y10.27 Z-0.735 I-3.774 J-0.447
G3 X-24.059 Y2.106 Z-0.898 I16.199 J11.73
G2 X-23.5 Y8.791 Z-0.977 I2.059 J3.194
G1 Y16.553 Z-1.052
G2 X-25.967 Y17.977 Z-1.08 I1.5 J5.447
G1 X-32.689 Y14.097 Z-1.155
G2 X-38.199 Y10.27 Z-1.235 I-3.774 J-0.447
G3 X-24.059 Y2.106 Z-1.398 I16.199 J11.73
G2 X-23.5 Y8.791 Z-1.477 I2.059 J3.194
G1 Y16.553 Z-1.552
G2 X-25.967 Y17.977 Z-1.58 I1.5 J5.447
G1 X-32.689 Y14.097 Z-1.655
G2 X-38.199 Y10.27 Z-1.735 I-3.774 J-0.447
G3 X-24.059 Y2.106 Z-1.898 I16.199 J11.73
G2 X-23.5 Y8.791 Z-1.977 I2.059 J3.194
G1 Y16.553 Z-2.052
G2 X-25.967 Y17.977 Z-2.08 I1.5 J5.447
G1 X-32.689 Y14.097 Z-2.155
G2 X-38.199 Y10.27 Z-2.235 I-3.774 J-0.447
G3 X-24.059 Y2.106 Z-2.398 I16.199 J11.73
G2 X-23.5 Y8.791 Z-2.477 I2.059 J3.194
G1 Y16.553 Z-2.552
G2 X-25.967 Y17.977 Z-2.58 I1.5 J5.447
G1 X-32.689 Y14.097 Z-2.655
G2 X-38.199 Y10.27 Z-2.735 I-3.774 J-0.447
G3 X-24.059 Y2.106 Z-2.898 I16.199 J11.73
G2 X-23.5 Y8.791 Z-2.977 I2.059 J3.194
G1 Y16.553 Z-3.052
G2 X-25.967 Y17.977 Z-3.08 I1.5 J5.447
G1 X-32.689 Y14.097 Z-3.155
G2 X-38.199 Y10.27 Z-3.235 I-3.774 J-0.447
G3 X-24.059 Y2.106 Z-3.398 I16.199 J11.73
G2 X-23.5 Y8.791 Z-3.477 I2.059 J3.194
G1 Y16.553 Z-3.552
G2 X-25.967 Y17.977 Z-3.58 I1.5 J5.447
G1 X-32.689 Y14.097 Z-3.655
G2 X-38.199 Y10.27 Z-3.735 I-3.774 J-0.447
G3 X-24.059 Y2.106 Z-3.898 I16.199 J11.73
G2 X-23.5 Y8.791 Z-3.977 I2.059 J3.194
G1 Y16.553 Z-4.052
G2 X-25.967 Y17.977 Z-4.08 I1.5 J5.447
G1 X-32.689 Y14.097 Z-4.155
G2 X-38.199 Y10.27 Z-4.235 I-3.774 J-0.447
G3 X-24.059 Y2.106 Z-4.398 I16.199 J11.73
G2 X-23.5 Y8.791 Z-4.477 I2.059 J3.194
G1 Y11.142 Z-4.5
Y16.553
G2 X-25.967 Y17.977 I1.5 J5.447
G1 X-32.689 Y14.097
G2 X-38.199 Y10.27 I-3.774 J-0.447
G3 X-24.059 Y2.106 I16.199 J11.73
G2 X-23.5 Y8.791 I2.059 J3.194
G1 Y11.142
G0 Z5
X-6.016 Y10.168
Z2
G1 Z0.1 F100
G2 X-11.311 Y14.097 Z0.023 I-1.521 J3.482 F1000
G1 X-18.032 Y17.977 Z-0.052
G2 X-20.5 Y16.553 Z-0.08 I-3.967 J4.023
G1 Y8.791 Z-0.155
G2 X-19.941 Y2.106 Z-0.235 I-1.5 J-3.491
G3 X-5.801 Y10.27 Z-0.398 I-2.059 J19.894
G2 X-11.311 Y14.097 Z-0.477 I-1.736 J3.38
G1 X-18.032 Y17.977 Z-0.552
G2 X-20.5 Y16.553 Z-0.58 I-3.967 J4.023
G1 Y8.791 Z-0.655
G2 X-19.941 Y2.106 Z-0.735 I-1.5 J-3.491
G3 X-5.801 Y10.27 Z-0.898 I-2.059 J19.894
G2 X-11.311 Y14.097 Z-0.977 I-1.736 J3.38
G1 X-18.032 Y17.977 Z-1.052
G2 X-20.5 Y16.553 Z-1.08 I-3.967 J4.023
G1 Y8.791 Z-1.155
G2 X-19.941 Y2.106 Z-1.235 I-1.5 J-3.491
G3 X-5.801 Y10.27 Z-1.398 I-2.059 J19.894
G2 X-11.311 Y14.097 Z-1.477 I-1.736 J3.38
G1 X-18.032 Y17.977 Z-1.552
G2 X-20.5 Y16.553 Z-1.58 I-3.967 J4.023
G1 Y8.791 Z-1.655
G2 X-19.941 Y2.106 Z-1.735 I-1.5 J-3.491
G3 X-5.801 Y10.27 Z-1.898 I-2.059 J19.894
G2 X-11.311 Y14.097 Z-1.977 I-1.736 J3.38
G1 X-18.032 Y17.977 Z-2.052
G2 X-20.5 Y16.553 Z-2.08 I-3.967 J4.023
G1 Y8.791 Z-2.155
G2 X-19.941 Y2.106 Z-2.235 I-1.5 J-3.491
G3 X-5.801 Y10.27 Z-2.398 I-2.059 J19.894
G2 X-11.311 Y14.097 Z-2.477 I-1.736 J3.38
G1 X-18.032 Y17.977 Z-2.552
G2 X-20.5 Y16.553 Z-2.58 I-3.967 J4.023
G1 Y8.791 Z-2.655
G2 X-19.941 Y2.106 Z-2.735 I-1.5 J-3.491
G3 X-5.801 Y10.27 Z-2.898 I-2.059 J19.894
G2 X-11.311 Y14.097 Z-2.977 I-1.736 J3.38
G1 X-18.032 Y17.977 Z-3.052
G2 X-20.5 Y16.553 Z-3.08 I-3.967 J4.023
G1 Y8.791 Z-3.155
G2 X-19.941 Y2.106 Z-3.235 I-1.5 J-3.491
G3 X-5.801 Y10.27 Z-3.398 I-2.059 J19.894
G2 X-11.311 Y14.097 Z-3.477 I-1.736 J3.38
G1 X-18.032 Y17.977 Z-3.552
G2 X-20.5 Y16.553 Z-3.58 I-3.967 J4.023
G1 Y8.791 Z-3.655
G2 X-19.941 Y2.106 Z-3.735 I-1.5 J-3.491
G3 X-5.801 Y10.27 Z-3.898 I-2.059 J19.894
G2 X-11.311 Y14.097 Z-3.977 I-1.736 J3.38
G1 X-18.032 Y17.977 Z-4.052
G2 X-20.5 Y16.553 Z-4.08 I-3.967 J4.023
G1 Y8.791 Z-4.155
G2 X-19.941 Y2.106 Z-4.235 I-1.5 J-3.491
G3 X-5.801 Y10.27 Z-4.398 I-2.059 J19.894
G2 X-11.311 Y14.097 Z-4.477 I-1.736 J3.38
G1 X-13.347 Y15.272 Z-4.5
X-18.032 Y17.977
G2 X-20.5 Y16.553 I-3.967 J4.023
G1 Y8.791
G2 X-19.941 Y2.106 I-1.5 J-3.491
G3 X-5.801 Y10.27 I-2.059 J19.894
G2 X-11.311 Y14.097 I-1.736 J3.38
G1 X-13.347 Y15.272
G0 Z5
X-14.765 Y24.445
Z2
G1 Z0.1 F100
X-16.532 Y23.425 Z0.08 F1000
G2 X-16.533 Y20.575 Z0.052 I-5.468 J-1.425
G1 X-9.811 Y16.695 Z-0.023
G2 X-3.742 Y13.836 Z-0.102 I2.274 J-3.045
G3 Y30.164 Z-0.265 I-18.258 J8.164
G2 X-9.811 Y27.305 Z-0.345 I-3.795 J0.186
G1 X-16.532 Y23.425 Z-0.42
G2 X-16.533 Y20.575 Z-0.448 I-5.468 J-1.425
G1 X-9.811 Y16.695 Z-0.523
G2 X-3.742 Y13.836 Z-0.602 I2.274 J-3.045
G3 Y30.164 Z-0.765 I-18.258 J8.164
G2 X-9.811 Y27.305 Z-0.845 I-3.795 J0.186
G1 X-16.532 Y23.425 Z-0.92
G2 X-16.533 Y20.575 Z-0.948 I-5.468 J-1.425
G1 X-9.811 Y16.695 Z-1.023
G2 X-3.742 Y13.836 Z-1.102 I2.274 J-3.045
G3 Y30.164 Z-1.265 I-18.258 J8.164
G2 X-9.811 Y27.305 Z-1.345 I-3.795 J0.186
G1 X-16.532 Y23.425 Z-1.42
G2 X-16.533 Y20.575 Z-1.448 I-5.468 J-1.425
G1 X-9.811 Y16.695 Z-1.523
G2 X-3.742 Y13.836 Z-1.602 I2.274 J-3.045
G3 Y30.164 Z-1.765 I-18.258 J8.164
G2 X-9.811 Y27.305 Z-1.845 I-3.795 J0.186
G1 X-16.532 Y23.425 Z-1.92
G2 X-16.533 Y20.575 Z-1.948 I-5.468 J-1.425
G1 X-9.811 Y16.695 Z-2.023
G2 X-3.742 Y13.836 Z-2.102 I2.274 J-3.045
G3 Y30.164 Z-2.265 I-18.258 J8.164
G2 X-9.811 Y27.305 Z-2.345 I-3.795 J0.186
G1 X-16.532 Y23.425 Z-2.42
G2 X-16.533 Y20.575 Z-2.448 I-5.468 J-1.425
G1 X-9.811 Y16.695 Z-2.523
G2 X-3.742 Y13.836 Z-2.602 I2.274 J-3.045
G3 Y30.164 Z-2.765 I-18.258 J8.164
G2 X-9.811 Y27.305 Z-2.845 I-3.795 J0.186
G1 X-16.532 Y23.425 Z-2.92
G2 X-16.533 Y20.575 Z-2.948 I-5.468 J-1.425
G1 X-9.811 Y16.695 Z-3.023
G2 X-3.742 Y13.836 Z-3.102 I2.274 J-3.045
G3 Y30.164 Z-3.265 I-18.258 J8.164
G2 X-9.811 Y27.305 Z-3.345 I-3.795 J0.186
G1 X-16.532 Y23.425 Z-3.42
G2 X-16.533 Y20.575 Z-3.448 I-5.468 J-1.425
G1 X-9.811 Y16.695 Z-3.523
G2 X-3.742 Y13.836 Z-3.602 I2.274 J-3.045
G3 Y30.164 Z-3.765 I-18.258 J8.164
G2 X-9.811 Y27.305 Z-3.845 I-3.795 J0.186
G1 X-16.532 Y23.425 Z-3.92
G2 X-16.533 Y20.575 Z-3.948 I-5.468 J-1.425
G1 X-9.811 Y16.695 Z-4.023
G2 X-3.742 Y13.836 Z-4.102 I2.274 J-3.045
G3 Y30.164 Z-4.265 I-18.258 J8.164
G2 X-9.811 Y27.305 Z-4.345 I-3.795 J0.186
G1 X-16.532 Y23.425 Z-4.42
G2 X-16.533 Y20.575 Z-4.448 I-5.468 J-1.425
G1 X-11.847 Y17.87 Z-4.5
X-9.811 Y16.695
G2 X-3.742 Y13.836 I2.274 J-3.045
G3 Y30.164 I-18.258 J8.164
G2 X-9.811 Y27.305 I-3.795 J0.186
G1 X-16.532 Y23.425
G2 X-16.533 Y20.575 I-5.468 J-1.425
G1 X-11.847 Y17.87
G0 Z5
X-19.745 Y41.758
Z2
G1 Z0.1 F100
G2 X-20.5 Y35.209 Z0.023 I-2.255 J-3.058 F1000
G1 Y27.447 Z-0.052
G2 X-18.033 Y26.023 Z-0.08 I-1.5 J-5.447
G1 X-11.311 Y29.903 Z-0.155
G2 X-5.801 Y33.73 Z-0.235 I3.774 J0.447
G3 X-19.941 Y41.894 Z-0.398 I-16.199 J-11.73
G2 X-20.5 Y35.209 Z-0.477 I-2.059 J-3.194
G1 Y27.447 Z-0.552
G2 X-18.033 Y26.023 Z-0.58 I-1.5 J-5.447
G1 X-11.311 Y29.903 Z-0.655
G2 X-5.801 Y33.73 Z-0.735 I3.774 J0.447
G3 X-19.941 Y41.894 Z-0.898 I-16.199 J-11.73
G2 X-20.5 Y35.209 Z-0.977 I-2.059 J-3.194
G1 Y27.447 Z-1.052
G2 X-18.033 Y26.023 Z-1.08 I-1.5 J-5.447
G1 X-11.311 Y29.903 Z-1.155
G2 X-5.801 Y33.73 Z-1.235 I3.774 J0.447
G3 X-19.941 Y41.894 Z-1.398 I-16.199 J-11.73
G2 X-20.5 Y35.209 Z-1.477 I-2.059 J-3.194
G1 Y27.447 Z-1.552
G2 X-18.033 Y26.023 Z-1.58 I-1.5 J-5.447
G1 X-11.311 Y29.903 Z-1.655
G2 X-5.801 Y33.73 Z-1.735 I3.774 J0.447
G3 X-19.941 Y41.894 Z-1.898 I-16.199 J-11.73
G2 X-20.5 Y35.209 Z-1.977 I-2.059 J-3.194
G1 Y27.447 Z-2.052
G2 X-18.033 Y26.023 Z-2.08 I-1.5 J-5.447
G1 X-11.311 Y29.903 Z-2.155
G2 X-5.801 Y33.73 Z-2.235 I3.774 J0.447
G3 X-19.941 Y41.894 Z-2.398 I-16.199 J-11.73
G2 X-20.5 Y35.209 Z-2.477 I-2.059 J-3.194
G1 Y27.447 Z-2.552
G2 X-18.033 Y26.023 Z-2.58 I-1.5 J-5.447
G1 X-11.311 Y29.903 Z-2.655
G2 X-5.801 Y33.73 Z-2.735 I3.774 J0.447
G3 X-19.941 Y41.894 Z-2.898 I-16.199 J-11.73
G2 X-20.5 Y35.209 Z-2.977 I-2.059 J-3.194
G1 Y27.447 Z-3.052
G2 X-18.033 Y26.023 Z-3.08 I-1.5 J-5.447
G1 X-11.311 Y29.903 Z-3.155
G2 X-5.801 Y33.73 Z-3.235 I3.774 J0.447
G3 X-19.941 Y41.894 Z-3.398 I-16.199 J-11.73
G2 X-20.5 Y35.209 Z-3.477 I-2.059 J-3.194
G1 Y27.447 Z-3.552
G2 X-18.033 Y26.023 Z-3.58 I-1.5 J-5.447
G1 X-11.311 Y29.903 Z-3.655
G2 X-5.801 Y33.73 Z-3.735 I3.774 J0.447
G3 X-19.941 Y41.894 Z-3.898 I-16.199 J-11.73
G2 X-20.5 Y35.209 Z-3.977 I-2.059 J-3.194
G1 Y27.447 Z-4.052
G2 X-18.033 Y26.023 Z-4.08 I-1.5 J-5.447
G1 X-11.311 Y29.903 Z-4.155
G2 X-5.801 Y33.73 Z-4.235 I3.774 J0.447
G3 X-19.941 Y41.894 Z-4.398 I-16.199 J-11.73
G2 X-20.5 Y35.209 Z-4.477 I-2.059 J-3.194
G1 Y32.858 Z-4.5
Y27.447
G2 X-18.033 Y26.023 I-1.5 J-5.447
G1 X-11.311 Y29.903
G2 X-5.801 Y33.73 I3.774 J0.447
G3 X-19.941 Y41.894 I-16.199 J-11.73
G2 X-20.5 Y35.209 I-2.059 J-3.194
G1 Y32.858
G0 Z5
X-27.735 Y27.043
Z2
G1 Z0.1 F100
X-25.968 Y26.023 Z0.08 F1000
G2 X-23.5 Y27.447 Z0.052 I3.967 J-4.023
G1 Y35.209 Z-0.023
G2 X-24.059 Y41.894 Z-0.102 I1.5 J3.491
G3 X-38.199 Y33.73 Z-0.265 I2.059 J-19.894
G2 X-32.689 Y29.903 Z-0.345 I1.736 J-3.38
G1 X-25.968 Y26.023 Z-0.42
G2 X-23.5 Y27.447 Z-0.448 I3.967 J-4.023
G1 Y35.209 Z-0.523
G2 X-24.059 Y41.894 Z-0.602 I1.5 J3.491
G3 X-38.199 Y33.73 Z-0.765 I2.059 J-19.894
G2 X-32.689 Y29.903 Z-0.845 I1.736 J-3.38
G1 X-25.968 Y26.023 Z-0.92
G2 X-23.5 Y27.447 Z-0.948 I3.967 J-4.023
G1 Y35.209 Z-1.023
G2 X-24.059 Y41.894 Z-1.102 I1.5 J3.491
G3 X-38.199 Y33.73 Z-1.265 I2.059 J-19.894
G2 X-32.689 Y29.903 Z-1.345 I1.736 J-3.38
G1 X-25.968 Y26.023 Z-1.42
G2 X-23.5 Y27.447 Z-1.448 I3.967 J-4.023
G1 Y35.209 Z-1.523
G2 X-24.059 Y41.894 Z-1.602 I1.5 J3.491
G3 X-38.199 Y33.73 Z-1.765 I2.059 J-19.894
G2 X-32.689 Y29.903 Z-1.845 I1.736 J-3.38
G1 X-25.968 Y26.023 Z-1.92
G2 X-23.5 Y27.447 Z-1.948 I3.967 J-4.023
G1 Y35.209 Z-2.023
G2 X-24.059 Y41.894 Z-2.102 I1.5 J3.491
G3 X-38.199 Y33.73 Z-2.265 I2.059 J-19.894
G2 X-32.689 Y29.903 Z-2.345 I1.736 J-3.38
G1 X-25.968 Y26.023 Z-2.42
G2 X-23.5 Y27.447 Z-2.448 I3.967 J-4.023
G1 Y35.209 Z-2.523
G2 X-24.059 Y41.894 Z-2.602 I1.5 J3.491
G3 X-38.199 Y33.73 Z-2.765 I2.059 J-19.894
G2 X-32.689 Y29.903 Z-2.845 I1.736 J-3.38
G1 X-25.968 Y26.023 Z-2.92
G2 X-23.5 Y27.447 Z-2.948 I3.967 J-4.023
G1 Y35.209 Z-3.023
G2 X-24.059 Y41.894 Z-3.102 I1.5 J3.491
G3 X-38.199 Y33.73 Z-3.265 I2.059 J-19.894
G2 X-32.689 Y29.903 Z-3.345 I1.736 J-3.38
G1 X-25.968 Y26.023 Z-3.42
G2 X-23.5 Y27.447 Z-3.448 I3.967 J-4.023
G1 Y35.209 Z-3.523
G2 X-24.059 Y41.894 Z-3.602 I1.5 J3.491
G3 X-38.199 Y33.73 Z-3.765 I2.059 J-19.894
G2 X-32.689 Y29.903 Z-3.845 I1.736 J-3.38
G1 X-25.968 Y26.023 Z-3.92
G2 X-23.5 Y27.447 Z-3.948 I3.967 J-4.023
G1 Y35.209 Z-4.023
G2 X-24.059 Y41.894 Z-4.102 I1.5 J3.491
G3 X-38.199 Y33.73 Z-4.265 I2.059 J-19.894
G2 X-32.689 Y29.903 Z-4.345 I1.736 J-3.38
G1 X-25.968 Y26.023 Z-4.42
G2 X-23.5 Y27.447 Z-4.448 I3.967 J-4.023
G1 Y32.858 Z-4.5
Y35.209
G2 X-24.059 Y41.894 I1.5 J3.491
G3 X-38.199 Y33.73 I2.059 J-19.894
G2 X-32.689 Y29.903 I1.736 J-3.38
G1 X-25.968 Y26.023
G2 X-23.5 Y27.447 I3.967 J-4.023
G1 Y32.858
G0 Z5
X-29.235 Y19.555
Z2
G1 Z0.1 F100
X-27.468 Y20.575 Z0.08 F1000
G2 X-27.467 Y23.425 Z0.052 I5.468 J1.425
G1 X-34.189 Y27.305 Z-0.023
G2 X-40.258 Y30.164 Z-0.102 I-2.274 J3.045
G3 Y13.836 Z-0.265 I18.258 J-8.164
G2 X-34.189 Y16.695 Z-0.345 I3.795 J-0.186
G1 X-27.468 Y20.575 Z-0.42
G2 X-27.467 Y23.425 Z-0.448 I5.468 J1.425
G1 X-34.189 Y27.305 Z-0.523
G2 X-40.258 Y30.164 Z-0.602 I-2.274 J3.045
G3 Y13.836 Z-0.765 I18.258 J-8.164
G2 X-34.189 Y16.695 Z-0.845 I3.795 J-0.186
G1 X-27.468 Y20.575 Z-0.92
G2 X-27.467 Y23.425 Z-0.948 I5.468 J1.425
G1 X-34.189 Y27.305 Z-1.023
G2 X-40.258 Y30.164 Z-1.102 I-2.274 J3.045
G3 Y13.836 Z-1.265 I18.258 J-8.164
G2 X-34.189 Y16.695 Z-1.345 I3.795 J-0.186
G1 X-27.468 Y20.575 Z-1.42
G2 X-27.467 Y23.425 Z-1.448 I5.468 J1.425
G1 X-34.189 Y27.305 Z-1.523
G2 X-40.258 Y30.164 Z-1.602 I-2.274 J3.045
G3 Y13.836 Z-1.765 I18.258 J-8.164
G2 X-34.189 Y16.695 Z-1.845 I3.795 J-0.186
G1 X-27.468 Y20.575 Z-1.92
G2 X-27.467 Y23.425 Z-1.948 I5.468 J1.425
G1 X-34.189 Y27.305 Z-2.023
G2 X-40.258 Y30.164 Z-2.102 I-2.274 J3.045
G3 Y13.836 Z-2.265 I18.258 J-8.164
G2 X-34.189 Y16.695 Z-2.345 I3.795 J-0.186
G1 X-27.468 Y20.575 Z-2.42
G2 X-27.467 Y23.425 Z-2.448 I5.468 J1.425
G1 X-34.189 Y27.305 Z-2.523
G2 X-40.258 Y30.164 Z-2.602 I-2.274 J3.045
G3 Y13.836 Z-2.765 I18.258 J-8.164
G2 X-34.189 Y16.695 Z-2.845 I3.795 J-0.186
G1 X-27.468 Y20.575 Z-2.92
G2 X-27.467 Y23.425 Z-2.948 I5.468 J1.425
G1 X-34.189 Y27.305 Z-3.023
G2 X-40.258 Y30.164 Z-3.102 I-2.274 J3.045
G3 Y13.836 Z-3.265 I18.258 J-8.164
G2 X-34.189 Y16.695 Z-3.345 I3.795 J-0.186
G1 X-27.468 Y20.575 Z-3.42
G2 X-27.467 Y23.425 Z-3.448 I5.468 J1.425
G1 X-34.189 Y27.305 Z-3.523
G2 X-40.258 Y30.164 Z-3.602 I-2.274 J3.045
G3 Y13.836 Z-3.765 I18.258 J-8.164
G2 X-34.189 Y16.695 Z-3.845 I3.795 J-0.186
G1 X-27.468 Y20.575 Z-3.92
G2 X-27.467 Y23.425 Z-3.948 I5.468 J1.425
G1 X-34.189 Y27.305 Z-4.023
G2 X-40.258 Y30.164 Z-4.102 I-2.274 J3.045
G3 Y13.836 Z-4.265 I18.258 J-8.164
G2 X-34.189 Y16.695 Z-4.345 I3.795 J-0.186
G1 X-27.468 Y20.575 Z-4.42
G2 X-27.467 Y23.425 Z-4.448 I5.468 J1.425
G1 X-32.153 Y26.13 Z-4.5
X-34.189 Y27.305
G2 X-40.258 Y30.164 I-2.274 J3.045
G3 Y13.836 I18.258 J-8.164
G2 X-34.189 Y16.695 I3.795 J-0.186
G1 X-27.468 Y20.575
G2 X-27.467 Y23.425 I5.468 J1.425
G1 X-32.153 Y26.13
G0 Z15

(2MM FLAT OUTSIDE)
M8
G0 X-43.874 Y29.107
Z15
Z2
G1 Z0.1 F100
G2 X-0.126 Y14.893 Z-0.15 I21.874 J-7.107 F1000
X-43.874 Y29.107 Z-0.4 I-21.874 J7.107
X-0.126 Y14.893 Z-0.65 I21.874 J-7.107
X-43.874 Y29.107 Z-0.9 I-21.874 J7.107
X-0.126 Y14.893 Z-1.15 I21.874 J-7.107
X-43.874 Y29.107 Z-1.4 I-21.874 J7.107
X-0.126 Y14.893 Z-1.65 I21.874 J-7.107
X-43.874 Y29.107 Z-1.9 I-21.874 J7.107
X-0.126 Y14.893 Z-2.15 I21.874 J-7.107
X-43.874 Y29.107 Z-2.4 I-21.874 J7.107
X-0.126 Y14.893 Z-2.65 I21.874 J-7.107
X-43.874 Y29.107 Z-2.9 I-21.874 J7.107
X-0.126 Y14.893 Z-3.15 I21.874 J-7.107
X-43.874 Y29.107 Z-3.4 I-21.874 J7.107
X-0.126 Y14.893 Z-3.65 I21.874 J-7.107
X-43.874 Y29.107 Z-3.9 I-21.874 J7.107
X-0.126 Y14.893 Z-4.15 I21.874 J-7.107
X-43.874 Y29.107 Z-4.4 I-21.874 J7.107
X-22 Y45 Z-4.5 I21.874 J-7.107
Y-1 I0 J-23
Y45 I0 J23
G0 Z15

M9
M30
