(WHEEL)
(T11  D=2 CR=0 - ZMIN=-4.5 - FLAT END MILL)
G90 G94 G91.1 G40 G49 G17
G21

(2MM FLAT SPOKES)
M5
M9
T11
(DIAMOND OR SPIRAL)
S20000 M3
G54
M8
G0 X-19.841 Y41.883
G43 Z15 H1
Z2
G1 Z0.1 F100
G3 X-19.994 Y41.899 Z0.099 I-2.159 J-19.883 F1000
G2 X-20.5 Y35.522 Z0.023 I-2.006 J-3.049
G1 Y27.447 Z-0.055
G2 X-18.033 Y26.023 Z-0.083 I-1.5 J-5.447
G1 X-11.039 Y30.06 Z-0.162
G2 X-5.77 Y33.687 Z-0.237 I3.632 J0.365
G3 X-19.994 Y41.899 Z-0.401 I-16.23 J-11.687
G2 X-20.5 Y35.522 Z-0.477 I-2.006 J-3.049
G1 Y27.447 Z-0.555
G2 X-18.033 Y26.023 Z-0.583 I-1.5 J-5.447
G1 X-11.039 Y30.06 Z-0.662
G2 X-5.77 Y33.687 Z-0.737 I3.632 J0.365
G3 X-19.994 Y41.899 Z-0.901 I-16.23 J-11.687
G2 X-20.5 Y35.522 Z-0.977 I-2.006 J-3.049
G1 Y27.447 Z-1.055
G2 X-18.033 Y26.023 Z-1.083 I-1.5 J-5.447
G1 X-11.039 Y30.06 Z-1.162
G2 X-5.77 Y33.687 Z-1.237 I3.632 J0.365
G3 X-19.994 Y41.899 Z-1.401 I-16.23 J-11.687
G2 X-20.5 Y35.522 Z-1.477 I-2.006 J-3.049
G1 Y27.447 Z-1.555
G2 X-18.033 Y26.023 Z-1.583 I-1.5 J-5.447
G1 X-11.039 Y30.06 Z-1.662
G2 X-5.77 Y33.687 Z-1.737 I3.632 J0.365
G3 X-19.994 Y41.899 Z-1.901 I-16.23 J-11.687
G2 X-20.5 Y35.522 Z-1.977 I-2.006 J-3.049
G1 Y27.447 Z-2.055
G2 X-18.033 Y26.023 Z-2.083 I-1.5 J-5.447
G1 X-11.039 Y30.06 Z-2.162
G2 X-5.77 Y33.687 Z-2.237 I3.632 J0.365
G3 X-19.994 Y41.899 Z-2.401 I-16.23 J-11.687
G2 X-20.5 Y35.522 Z-2.477 I-2.006 J-3.049
G1 Y27.447 Z-2.555
G2 X-18.033 Y26.023 Z-2.583 I-1.5 J-5.447
G1 X-11.039 Y30.06 Z-2.662
G2 X-5.77 Y33.687 Z-2.737 I3.632 J0.365
G3 X-19.994 Y41.899 Z-2.901 I-16.23 J-11.687
G2 X-20.5 Y35.522 Z-2.977 I-2.006 J-3.049
G1 Y27.447 Z-3.055
G2 X-18.033 Y26.023 Z-3.083 I-1.5 J-5.447
G1 X-11.039 Y30.06 Z-3.162
G2 X-5.77 Y33.687 Z-3.237 I3.632 J0.365
G3 X-19.994 Y41.899 Z-3.401 I-16.23 J-11.687
G2 X-20.5 Y35.522 Z-3.477 I-2.006 J-3.049
G1 Y27.447 Z-3.555
G2 X-18.033 Y26.023 Z-3.583 I-1.5 J-5.447
G1 X-11.039 Y30.06 Z-3.662
G2 X-5.77 Y33.687 Z-3.737 I3.632 J0.365
G3 X-19.994 Y41.899 Z-3.901 I-16.23 J-11.687
G2 X-20.5 Y35.522 Z-3.977 I-2.006 J-3.049
G1 Y27.447 Z-4.055
G2 X-18.033 Y26.023 Z-4.083 I-1.5 J-5.447
G1 X-11.039 Y30.06 Z-4.162
G2 X-5.77 Y33.687 Z-4.237 I3.632 J0.365
G3 X-19.994 Y41.899 Z-4.401 I-16.23 J-11.687
G2 X-20.5 Y35.522 Z-4.477 I-2.006 J-3.049
G1 Y33.163 Z-4.5
Y27.447
G2 X-18.033 Y26.023 I-1.5 J-5.447
G1 X-11.039 Y30.06
G2 X-5.77 Y33.687 I3.632 J0.365
G3 X-19.994 Y41.899 I-16.23 J-11.687
G2 X-20.5 Y35.522 I-2.006 J-3.049
G1 Y33.163
G0 Z5
X-27.451 Y26.879
Z2
G1 Z0.1 F100
X-25.968 Y26.023 Z0.083 F1000
G2 X-23.5 Y27.447 Z0.055 I3.967 J-4.023
G1 Y35.522 Z-0.023
G2 X-24.006 Y41.899 Z-0.099 I1.5 J3.328
G3 X-38.23 Y33.687 Z-0.263 I2.006 J-19.899
G2 X-32.961 Y30.06 Z-0.338 I1.637 J-3.262
G1 X-25.968 Y26.023 Z-0.417
G2 X-23.5 Y27.447 Z-0.445 I3.967 J-4.023
G1 Y35.522 Z-0.523
G2 X-24.006 Y41.899 Z-0.599 I1.5 J3.328
G3 X-38.23 Y33.687 Z-0.763 I2.006 J-19.899
G2 X-32.961 Y30.06 Z-0.838 I1.637 J-3.262
G1 X-25.968 Y26.023 Z-0.917
G2 X-23.5 Y27.447 Z-0.945 I3.967 J-4.023
G1 Y35.522 Z-1.023
G2 X-24.006 Y41.899 Z-1.099 I1.5 J3.328
G3 X-38.23 Y33.687 Z-1.263 I2.006 J-19.899
G2 X-32.961 Y30.06 Z-1.338 I1.637 J-3.262
G1 X-25.968 Y26.023 Z-1.417
G2 X-23.5 Y27.447 Z-1.445 I3.967 J-4.023
G1 Y35.522 Z-1.523
G2 X-24.006 Y41.899 Z-1.599 I1.5 J3.328
G3 X-38.23 Y33.687 Z-1.763 I2.006 J-19.899
G2 X-32.961 Y30.06 Z-1.838 I1.637 J-3.262
G1 X-25.968 Y26.023 Z-1.917
G2 X-23.5 Y27.447 Z-1.945 I3.967 J-4.023
G1 Y35.522 Z-2.023
G2 X-24.006 Y41.899 Z-2.099 I1.5 J3.328
G3 X-38.23 Y33.687 Z-2.263 I2.006 J-19.899
G2 X-32.961 Y30.06 Z-2.338 I1.637 J-3.262
G1 X-25.968 Y26.023 Z-2.417
G2 X-23.5 Y27.447 Z-2.445 I3.967 J-4.023
G1 Y35.522 Z-2.523
G2 X-24.006 Y41.899 Z-2.599 I1.5 J3.328
G3 X-38.23 Y33.687 Z-2.763 I2.006 J-19.899
G2 X-32.961 Y30.06 Z-2.838 I1.637 J-3.262
G1 X-25.968 Y26.023 Z-2.917
G2 X-23.5 Y27.447 Z-2.945 I3.967 J-4.023
G1 Y35.522 Z-3.023
G2 X-24.006 Y41.899 Z-3.099 I1.5 J3.328
G3 X-38.23 Y33.687 Z-3.263 I2.006 J-19.899
G2 X-32.961 Y30.06 Z-3.338 I1.637 J-3.262
G1 X-25.968 Y26.023 Z-3.417
G2 X-23.5 Y27.447 Z-3.445 I3.967 J-4.023
G1 Y35.522 Z-3.523
G2 X-24.006 Y41.899 Z-3.599 I1.5 J3.328
G3 X-38.23 Y33.687 Z-3.763 I2.006 J-19.899
G2 X-32.961 Y30.06 Z-3.838 I1.637 J-3.262
G1 X-25.968 Y26.023 Z-3.917
G2 X-23.5 Y27.447 Z-3.945 I3.967 J-4.023
G1 Y35.522 Z-4.023
G2 X-24.006 Y41.899 Z-4.099 I1.5 J3.328
G3 X-38.23 Y33.687 Z-4.263 I2.006 J-19.899
G2 X-32.961 Y30.06 Z-4.338 I1.637 J-3.262
G1 X-25.968 Y26.023 Z-4.417
G2 X-23.5 Y27.447 Z-4.445 I3.967 J-4.023
G1 Y33.163 Z-4.5
Y35.522
G2 X-24.006 Y41.899 I1.5 J3.328
G3 X-38.23 Y33.687 I2.006 J-19.899
G2 X-32.961 Y30.06 I1.637 J-3.262
G1 X-25.968 Y26.023
G2 X-23.5 Y27.447 I3.967 J-4.023
G1 Y33.163
G0 Z5
X-28.951 Y19.719
Z2
G1 Z0.1 F100
X-27.468 Y20.575 Z0.083 F1000
G2 X-27.467 Y23.425 Z0.055 I5.468 J1.425
G1 X-34.461 Y27.462 Z-0.023
G2 X-40.236 Y30.212 Z-0.099 I-2.132 J2.963
G3 Y13.788 Z-0.263 I18.236 J-8.212
G2 X-34.461 Y16.538 Z-0.338 I3.644 J-0.213
G1 X-27.468 Y20.575 Z-0.417
G2 X-27.467 Y23.425 Z-0.445 I5.468 J1.425
G1 X-34.461 Y27.462 Z-0.523
G2 X-40.236 Y30.212 Z-0.599 I-2.132 J2.963
G3 Y13.788 Z-0.763 I18.236 J-8.212
G2 X-34.461 Y16.538 Z-0.838 I3.644 J-0.213
G1 X-27.468 Y20.575 Z-0.917
G2 X-27.467 Y23.425 Z-0.945 I5.468 J1.425
G1 X-34.461 Y27.462 Z-1.023
G2 X-40.236 Y30.212 Z-1.099 I-2.132 J2.963
G3 Y13.788 Z-1.263 I18.236 J-8.212
G2 X-34.461 Y16.538 Z-1.338 I3.644 J-0.213
G1 X-27.468 Y20.575 Z-1.417
G2 X-27.467 Y23.425 Z-1.445 I5.468 J1.425
G1 X-34.461 Y27.462 Z-1.523
G2 X-40.236 Y30.212 Z-1.599 I-2.132 J2.963
G3 Y13.788 Z-1.763 I18.236 J-8.212
G2 X-34.461 Y16.538 Z-1.838 I3.644 J-0.213
G1 X-27.468 Y20.575 Z-1.917
G2 X-27.467 Y23.425 Z-1.945 I5.468 J1.425
G1 X-34.461 Y27.462 Z-2.023
G2 X-40.236 Y30.212 Z-2.099 I-2.132 J2.963
G3 Y13.788 Z-2.263 I18.236 J-8.212
G2 X-34.461 Y16.538 Z-2.338 I3.644 J-0.213
G1 X-27.468 Y20.575 Z-2.417
G2 X-27.467 Y23.425 Z-2.445 I5.468 J1.425
G1 X-34.461 Y27.462 Z-2.523
G2 X-40.236 Y30.212 Z-2.599 I-2.132 J2.963
G3 Y13.788 Z-2.763 I18.236 J-8.212
G2 X-34.461 Y16.538 Z-2.838 I3.644 J-0.213
G1 X-27.468 Y20.575 Z-2.917
G2 X-27.467 Y23.425 Z-2.945 I5.468 J1.425
G1 X-34.461 Y27.462 Z-3.023
G2 X-40.236 Y30.212 Z-3.099 I-2.132 J2.963
G3 Y13.788 Z-3.263 I18.236 J-8.212
G2 X-34.461 Y16.538 Z-3.338 I3.644 J-0.213
G1 X-27.468 Y20.575 Z-3.417
G2 X-27.467 Y23.425 Z-3.445 I5.468 J1.425
G1 X-34.461 Y27.462 Z-3.523
G2 X-40.236 Y30.212 Z-3.599 I-2.132 J2.963
G3 Y13.788 Z-3.763 I18.236 J-8.212
G2 X-34.461 Y16.538 Z-3.838 I3.644 J-0.213
G1 X-27.468 Y20.575 Z-3.917
G2 X-27.467 Y23.425 Z-3.945 I5.468 J1.425
G1 X-34.461 Y27.462 Z-4.023
G2 X-40.236 Y30.212 Z-4.099 I-2.132 J2.963
G3 Y13.788 Z-4.263 I18.236 J-8.212
G2 X-34.461 Y16.538 Z-4.338 I3.644 J-0.213
G1 X-27.468 Y20.575 Z-4.417
G2 X-27.467 Y23.425 Z-4.445 I5.468 J1.425
G1 X-32.418 Y26.283 Z-4.5
X-34.461 Y27.462
G2 X-40.236 Y30.212 I-2.132 J2.963
G3 Y13.788 I18.236 J-8.212
G2 X-34.461 Y16.538 I3.644 J-0.213
G1 X-27.468 Y20.575
G2 X-27.467 Y23.425 I5.468 J1.425
G1 X-32.418 Y26.283
G0 Z5
X-24.159 Y2.117
Z2
G1 Z0.1 F100
G3 X-24.006 Y2.101 Z0.099 I2.159 J19.883 F1000
G2 X-23.5 Y8.478 Z0.023 I2.006 J3.049
G1 Y16.553 Z-0.055
G2 X-25.967 Y17.977 Z-0.083 I1.5 J5.447
G1 X-32.961 Y13.94 Z-0.162
G2 X-38.23 Y10.313 Z-0.237 I-3.632 J-0.365
G3 X-24.006 Y2.101 Z-0.401 I16.23 J11.687
G2 X-23.5 Y8.478 Z-0.477 I2.006 J3.049
G1 Y16.553 Z-0.555
G2 X-25.967 Y17.977 Z-0.583 I1.5 J5.447
G1 X-32.961 Y13.94 Z-0.662
G2 X-38.23 Y10.313 Z-0.737 I-3.632 J-0.365
G3 X-24.006 Y2.101 Z-0.901 I16.23 J11.687
G2 X-23.5 Y8.478 Z-0.977 I2.006 J3.049
G1 Y16.553 Z-1.055
G2 X-25.967 Y17.977 Z-1.083 I1.5 J5.447
G1 X-32.961 Y13.94 Z-1.162
G2 X-38.23 Y10.313 Z-1.237 I-3.632 J-0.365
G3 X-24.006 Y2.101 Z-1.401 I16.23 J11.687
G2 X-23.5 Y8.478 Z-1.477 I2.006 J3.049
G1 Y16.553 Z-1.555
G2 X-25.967 Y17.977 Z-1.583 I1.5 J5.447
G1 X-32.961 Y13.94 Z-1.662
G2 X-38.23 Y10.313 Z-1.737 I-3.632 J-0.365
G3 X-24.006 Y2.101 Z-1.901 I16.23 J11.687
G2 X-23.5 Y8.478 Z-1.977 I2.006 J3.049
G1 Y16.553 Z-2.055
G2 X-25.967 Y17.977 Z-2.083 I1.5 J5.447
G1 X-32.961 Y13.94 Z-2.162
G2 X-38.23 Y10.313 Z-2.237 I-3.632 J-0.365
G3 X-24.006 Y2.101 Z-2.401 I16.23 J11.687
G2 X-23.5 Y8.478 Z-2.477 I2.006 J3.049
G1 Y16.553 Z-2.555
G2 X-25.967 Y17.977 Z-2.583 I1.5 J5.447
G1 X-32.961 Y13.94 Z-2.662
G2 X-38.23 Y10.313 Z-2.737 I-3.632 J-0.365
G3 X-24.006 Y2.101 Z-2.901 I16.23 J11.687
G2 X-23.5 Y8.478 Z-2.977 I2.006 J3.049
G1 Y16.553 Z-3.055
G2 X-25.967 Y17.977 Z-3.083 I1.5 J5.447
G1 X-32.961 Y13.94 Z-3.162
G2 X-38.23 Y10.313 Z-3.237 I-3.632 J-0.365
G3 X-24.006 Y2.101 Z-3.401 I16.23 J11.687
G2 X-23.5 Y8.478 Z-3.477 I2.006 J3.049
G1 Y16.553 Z-3.555
G2 X-25.967 Y17.977 Z-3.583 I1.5 J5.447
G1 X-32.961 Y13.94 Z-3.662
G2 X-38.23 Y10.313 Z-3.737 I-3.632 J-0.365
G3 X-24.006 Y2.101 Z-3.901 I16.23 J11.687
G2 X-23.5 Y8.478 Z-3.977 I2.006 J3.049
G1 Y16.553 Z-4.055
G2 X-25.967 Y17.977 Z-4.083 I1.5 J5.447
G1 X-32.961 Y13.94 Z-4.162
G2 X-38.23 Y10.313 Z-4.237 I-3.632 J-0.365
G3 X-24.006 Y2.101 Z-4.401 I16.23 J11.687
G2 X-23.5 Y8.478 Z-4.477 I2.006 J3.049
G1 Y10.837 Z-4.5
Y16.553
G2 X-25.967 Y17.977 I1.5 J5.447
G1 X-32.961 Y13.94
G2 X-38.23 Y10.313 I-3.632 J-0.365
G3 X-24.006 Y2.101 I16.23 J11.687
G2 X-23.5 Y8.478 I2.006 J3.049
G1 Y10.837
G0 Z5
X-16.549 Y17.121
Z2
G1 Z0.1 F100
X-18.032 Y17.977 Z0.083 F1000
G2 X-20.5 Y16.553 Z0.055 I-3.967 J4.023
G1 Y8.478 Z-0.023
G2 X-19.994 Y2.101 Z-0.099 I-1.5 J-3.328
G3 X-5.77 Y10.313 Z-0.263 I-2.006 J19.899
G2 X-11.039 Y13.94 Z-0.338 I-1.637 J3.262
G1 X-18.032 Y17.977 Z-0.417
G2 X-20.5 Y16.553 Z-0.445 I-3.967 J4.023
G1 Y8.478 Z-0.523
G2 X-19.994 Y2.101 Z-0.599 I-1.5 J-3.328
G3 X-5.77 Y10.313 Z-0.763 I-2.006 J19.899
G2 X-11.039 Y13.94 Z-0.838 I-1.637 J3.262
G1 X-18.032 Y17.977 Z-0.917
G2 X-20.5 Y16.553 Z-0.945 I-3.967 J4.023
G1 Y8.478 Z-1.023
G2 X-19.994 Y2.101 Z-1.099 I-1.5 J-3.328
G3 X-5.77 Y10.313 Z-1.263 I-2.006 J19.899
G2 X-11.039 Y13.94 Z-1.338 I-1.637 J3.262
G1 X-18.032 Y17.977 Z-1.417
G2 X-20.5 Y16.553 Z-1.445 I-3.967 J4.023
G1 Y8.478 Z-1.523
G2 X-19.994 Y2.101 Z-1.599 I-1.5 J-3.328
G3 X-5.77 Y10.313 Z-1.763 I-2.006 J19.899
G2 X-11.039 Y13.94 Z-1.838 I-1.637 J3.262
G1 X-18.032 Y17.977 Z-1.917
G2 X-20.5 Y16.553 Z-1.945 I-3.967 J4.023
G1 Y8.478 Z-2.023
G2 X-19.994 Y2.101 Z-2.099 I-1.5 J-3.328
G3 X-5.77 Y10.313 Z-2.263 I-2.006 J19.899
G2 X-11.039 Y13.94 Z-2.338 I-1.637 J3.262
G1 X-18.032 Y17.977 Z-2.417
G2 X-20.5 Y16.553 Z-2.445 I-3.967 J4.023
G1 Y8.478 Z-2.523
G2 X-19.994 Y2.101 Z-2.599 I-1.5 J-3.328
G3 X-5.77 Y10.313 Z-2.763 I-2.006 J19.899
G2 X-11.039 Y13.94 Z-2.838 I-1.637 J3.262
G1 X-18.032 Y17.977 Z-2.917
G2 X-20.5 Y16.553 Z-2.945 I-3.967 J4.023
G1 Y8.478 Z-3.023
G2 X-19.994 Y2.101 Z-3.099 I-1.5 J-3.328
G3 X-5.77 Y10.313 Z-3.263 I-2.006 J19.899
G2 X-11.039 Y13.94 Z-3.338 I-1.637 J3.262
G1 X-18.032 Y17.977 Z-3.417
G2 X-20.5 Y16.553 Z-3.445 I-3.967 J4.023
G1 Y8.478 Z-3.523
G2 X-19.994 Y2.101 Z-3.599 I-1.5 J-3.328
G3 X-5.77 Y10.313 Z-3.763 I-2.006 J19.899
G2 X-11.039 Y13.94 Z-3.838 I-1.637 J3.262
G1 X-18.032 Y17.977 Z-3.917
G2 X-20.5 Y16.553 Z-3.945 I-3.967 J4.023
G1 Y8.478 Z-4.023
G2 X-19.994 Y2.101 Z-4.099 I-1.5 J-3.328
G3 X-5.77 Y10.313 Z-4.263 I-2.006 J19.899
G2 X-11.039 Y13.94 Z-4.338 I-1.637 J3.262
G1 X-18.032 Y17.977 Z-4.417
G2 X-20.5 Y16.553 Z-4.445 I-3.967 J4.023
G1 Y10.837 Z-4.5
Y8.478
G2 X-19.994 Y2.101 I-1.5 J-3.328
G3 X-5.77 Y10.313 I-2.006 J19.899
G2 X-11.039 Y13.94 I-1.637 J3.262
G1 X-18.032 Y17.977
G2 X-20.5 Y16.553 I-3.967 J4.023
G1 Y10.837
G0 Z5
X-15.049 Y24.281
Z2
G1 Z0.1 F100
X-16.532 Y23.425 Z0.083 F1000
G2 X-16.533 Y20.575 Z0.055 I-5.468 J-1.425
G1 X-9.539 Y16.538 Z-0.023
G2 X-3.764 Y13.788 Z-0.099 I2.132 J-2.963
G3 Y30.212 Z-0.263 I-18.236 J8.212
G2 X-9.539 Y27.462 Z-0.338 I-3.644 J0.213
G1 X-16.532 Y23.425 Z-0.417
G2 X-16.533 Y20.575 Z-0.445 I-5.468 J-1.425
G1 X-9.539 Y16.538 Z-0.523
G2 X-3.764 Y13.788 Z-0.599 I2.132 J-2.963
G3 Y30.212 Z-0.763 I-18.236 J8.212
G2 X-9.539 Y27.462 Z-0.838 I-3.644 J0.213
G1 X-16.532 Y23.425 Z-0.917
G2 X-16.533 Y20.575 Z-0.945 I-5.468 J-1.425
G1 X-9.539 Y16.538 Z-1.023
G2 X-3.764 Y13.788 Z-1.099 I2.132 J-2.963
G3 Y30.212 Z-1.263 I-18.236 J8.212
G2 X-9.539 Y27.462 Z-1.338 I-3.644 J0.213
G1 X-16.532 Y23.425 Z-1.417
G2 X-16.533 Y20.575 Z-1.445 I-5.468 J-1.425
G1 X-9.539 Y16.538 Z-1.523
G2 X-3.764 Y13.788 Z-1.599 I2.132 J-2.963
G3 Y30.212 Z-1.763 I-18.236 J8.212
G2 X-9.539 Y27.462 Z-1.838 I-3.644 J0.213
G1 X-16.532 Y23.425 Z-1.917
G2 X-16.533 Y20.575 Z-1.945 I-5.468 J-1.425
G1 X-9.539 Y16.538 Z-2.023
G2 X-3.764 Y13.788 Z-2.099 I2.132 J-2.963
G3 Y30.212 Z-2.263 I-18.236 J8.212
G2 X-9.539 Y27.462 Z-2.338 I-3.644 J0.213
G1 X-16.532 Y23.425 Z-2.417
G2 X-16.533 Y20.575 Z-2.445 I-5.468 J-1.425
G1 X-9.539 Y16.538 Z-2.523
G2 X-3.764 Y13.788 Z-2.599 I2.132 J-2.963
G3 Y30.212 Z-2.763 I-18.236 J8.212
G2 X-9.539 Y27.462 Z-2.838 I-3.644 J0.213
G1 X-16.532 Y23.425 Z-2.917
G2 X-16.533 Y20.575 Z-2.945 I-5.468 J-1.425
G1 X-9.539 Y16.538 Z-3.023
G2 X-3.764 Y13.788 Z-3.099 I2.132 J-2.963
G3 Y30.212 Z-3.263 I-18.236 J8.212
G2 X-9.539 Y27.462 Z-3.338 I-3.644 J0.213
G1 X-16.532 Y23.425 Z-3.417
G2 X-16.533 Y20.575 Z-3.445 I-5.468 J-1.425
G1 X-9.539 Y16.538 Z-3.523
G2 X-3.764 Y13.788 Z-3.599 I2.132 J-2.963
G3 Y30.212 Z-3.763 I-18.236 J8.212
G2 X-9.539 Y27.462 Z-3.838 I-3.644 J0.213
G1 X-16.532 Y23.425 Z-3.917
G2 X-16.533 Y20.575 Z-3.945 I-5.468 J-1.425
G1 X-9.539 Y16.538 Z-4.023
G2 X-3.764 Y13.788 Z-4.099 I2.132 J-2.963
G3 Y30.212 Z-4.263 I-18.236 J8.212
G2 X-9.539 Y27.462 Z-4.338 I-3.644 J0.213
G1 X-16.532 Y23.425 Z-4.417
G2 X-16.533 Y20.575 Z-4.445 I-5.468 J-1.425
G1 X-11.582 Y17.717 Z-4.5
X-9.539 Y16.538
G2 X-3.764 Y13.788 I2.132 J-2.963
G3 Y30.212 I-18.236 J8.212
G2 X-9.539 Y27.462 I-3.644 J0.213
G1 X-16.532 Y23.425
G2 X-16.533 Y20.575 I-5.468 J-1.425
G1 X-11.582 Y17.717
G0 Z15

M9
M30
